;Generated GCode by Ria Stroes
;Project: Generated Knittings
;3D-printer: Ultimaker 2+
;tempbed = 70
;tempextruder = 210
;nozzle = 0.4
;firstlayerheight = 0.27
;layerheight = 0.3
;speed = 2400
;outlinerounds = 10
;outlinerounddist = 4
;maxlayers = 5
;starting commands
G21 ;metric values
M82 ;set extruder to absolute mode
G90 ;absolute positioning
M107 ;start with the fan off
M109 S180 B210 F1;activate auto temp min 180 max 210 scaling factor 1 (for PLA)
G28; Home Axis
G29; Z-Probe the bed (requires Z-Probe!)
G1 Z5.0 F9000 ;move the head 5mm up for CYA clearance
G92 E0 ;zero the extruded length
M117 Cleaning...;Put Cleaning message on screen
G1 X100 Y0 F4000 ; move half way along the front edge
G1 Z1 ; move nozzle close to bed
M109 S200 ; heat nozzle to 200 degC and wait until reached
G4 P10000 ; wait 10 seconds for nozzle length to stabilize
G1 E10 ; extrude 10 mm of filament
G1 z15 F12000 E5 ; move 15 mm up, fast, while extruding 5mm
G92 E0 ; reset extruder
M117 Printing...;Put printing message on LCD screen
;move to start positions
G0 F9000 X80.113 Y95.000 Z0.27     ;move to Z position
G0 X80.113 Y95.000 F2400 ;move to beginning of outline
;create outline
G0 F4800
G1 X106.887 Y95.000 E0.000
G1 X106.887 Y95.000 E0.000
G1 X108.253 Y95.135 E0.148
G1 X109.566 Y95.533 E0.296
G1 X110.776 Y96.180 E0.445
G1 X111.837 Y97.050 E0.593
G1 X112.707 Y98.111 E0.741
G1 X113.354 Y99.321 E0.889
G1 X113.753 Y100.634 E1.037
G1 X113.887 Y120.000 E3.129
G1 X113.753 Y121.366 E3.277
G1 X113.354 Y122.679 E3.425
G1 X112.707 Y123.889 E3.574
G1 X111.837 Y124.950 E3.722
G1 X110.776 Y125.820 E3.870
G1 X109.566 Y126.467 E4.018
G1 X108.253 Y126.865 E4.166
G1 X80.113 Y127.000 E7.205
G1 X78.747 Y126.865 E7.354
G1 X77.434 Y126.467 E7.502
G1 X76.224 Y125.820 E7.650
G1 X75.163 Y124.950 E7.798
G1 X74.293 Y123.889 E7.946
G1 X73.646 Y122.679 E8.095
G1 X73.247 Y121.366 E8.243
G1 X73.113 Y102.000 E10.334
G1 X73.247 Y100.634 E10.483
G1 X73.646 Y99.321 E10.631
G1 X74.293 Y98.111 E10.779
G1 X75.163 Y97.050 E10.927
G1 X76.224 Y96.180 E11.075
G1 X77.434 Y95.533 E11.224
G1 X78.747 Y95.135 E11.372
G1 X80.113 Y95.000 E11.520
G1 X80.113 Y95.400 E11.563
G1 X106.887 Y95.400 E14.455
G1 X106.887 Y95.400 E14.455
G1 X108.175 Y95.527 E14.595
G1 X109.413 Y95.902 E14.734
G1 X110.554 Y96.512 E14.874
G1 X111.554 Y97.333 E15.014
G1 X112.375 Y98.333 E15.154
G1 X112.985 Y99.474 E15.293
G1 X113.360 Y100.712 E15.433
G1 X113.487 Y120.000 E17.516
G1 X113.360 Y121.288 E17.656
G1 X112.985 Y122.526 E17.796
G1 X112.375 Y123.667 E17.935
G1 X111.554 Y124.667 E18.075
G1 X110.554 Y125.488 E18.215
G1 X109.413 Y126.098 E18.355
G1 X108.175 Y126.473 E18.494
G1 X80.113 Y126.600 E21.525
G1 X78.825 Y126.473 E21.665
G1 X77.587 Y126.098 E21.804
G1 X76.446 Y125.488 E21.944
G1 X75.446 Y124.667 E22.084
G1 X74.625 Y123.667 E22.224
G1 X74.015 Y122.526 E22.363
G1 X73.640 Y121.288 E22.503
G1 X73.513 Y102.000 E24.586
G1 X73.640 Y100.712 E24.726
G1 X74.015 Y99.474 E24.866
G1 X74.625 Y98.333 E25.005
G1 X75.446 Y97.333 E25.145
G1 X76.446 Y96.512 E25.285
G1 X77.587 Y95.902 E25.425
G1 X78.825 Y95.527 E25.564
G1 X80.113 Y95.400 E25.704
G1 X80.113 Y95.800 E25.747
G1 X106.887 Y95.800 E28.639
G1 X106.887 Y95.800 E28.639
G1 X108.097 Y95.919 E28.770
G1 X109.260 Y96.272 E28.901
G1 X110.332 Y96.845 E29.033
G1 X111.271 Y97.616 E29.164
G1 X112.042 Y98.555 E29.295
G1 X112.615 Y99.627 E29.426
G1 X112.968 Y100.790 E29.558
G1 X113.087 Y120.000 E31.632
G1 X112.968 Y121.210 E31.764
G1 X112.615 Y122.373 E31.895
G1 X112.042 Y123.445 E32.026
G1 X111.271 Y124.384 E32.158
G1 X110.332 Y125.155 E32.289
G1 X109.260 Y125.728 E32.420
G1 X108.097 Y126.081 E32.551
G1 X80.113 Y126.200 E35.574
G1 X78.903 Y126.081 E35.705
G1 X77.740 Y125.728 E35.836
G1 X76.668 Y125.155 E35.967
G1 X75.729 Y124.384 E36.099
G1 X74.958 Y123.445 E36.230
G1 X74.385 Y122.373 E36.361
G1 X74.032 Y121.210 E36.492
G1 X73.913 Y102.000 E38.567
G1 X74.032 Y100.790 E38.698
G1 X74.385 Y99.627 E38.830
G1 X74.958 Y98.555 E38.961
G1 X75.729 Y97.616 E39.092
G1 X76.668 Y96.845 E39.223
G1 X77.740 Y96.272 E39.355
G1 X78.903 Y95.919 E39.486
G1 X80.113 Y95.800 E39.617
G1 X80.113 Y96.200 E39.660
G1 X106.887 Y96.200 E42.552
G1 X106.887 Y96.200 E42.552
G1 X108.019 Y96.311 E42.675
G1 X109.107 Y96.641 E42.798
G1 X110.109 Y97.177 E42.920
G1 X110.988 Y97.899 E43.043
G1 X111.710 Y98.778 E43.166
G1 X112.246 Y99.780 E43.289
G1 X112.576 Y100.868 E43.412
G1 X112.687 Y120.000 E45.478
G1 X112.576 Y121.132 E45.601
G1 X112.246 Y122.220 E45.724
G1 X111.710 Y123.222 E45.846
G1 X110.988 Y124.101 E45.969
G1 X110.109 Y124.823 E46.092
G1 X109.107 Y125.359 E46.215
G1 X108.019 Y125.689 E46.338
G1 X80.113 Y125.800 E49.351
G1 X78.981 Y125.689 E49.474
G1 X77.893 Y125.359 E49.597
G1 X76.891 Y124.823 E49.720
G1 X76.012 Y124.101 E49.843
G1 X75.290 Y123.222 E49.965
G1 X74.754 Y122.220 E50.088
G1 X74.424 Y121.132 E50.211
G1 X74.313 Y102.000 E52.277
G1 X74.424 Y100.868 E52.400
G1 X74.754 Y99.780 E52.523
G1 X75.290 Y98.778 E52.646
G1 X76.012 Y97.899 E52.768
G1 X76.891 Y97.177 E52.891
G1 X77.893 Y96.641 E53.014
G1 X78.981 Y96.311 E53.137
G1 X80.113 Y96.200 E53.260
G1 X80.113 Y96.600 E53.303
G1 X106.887 Y96.600 E56.194
G1 X106.887 Y96.600 E56.194
G1 X107.941 Y96.704 E56.309
G1 X108.954 Y97.011 E56.423
G1 X109.887 Y97.510 E56.537
G1 X110.706 Y98.182 E56.652
G1 X111.377 Y99.000 E56.766
G1 X111.876 Y99.934 E56.880
G1 X112.183 Y100.947 E56.995
G1 X112.287 Y120.000 E59.053
G1 X112.183 Y121.053 E59.167
G1 X111.876 Y122.066 E59.281
G1 X111.377 Y123.000 E59.396
G1 X110.706 Y123.818 E59.510
G1 X109.887 Y124.490 E59.624
G1 X108.954 Y124.989 E59.738
G1 X107.941 Y125.296 E59.853
G1 X80.113 Y125.400 E62.858
G1 X79.059 Y125.296 E62.973
G1 X78.046 Y124.989 E63.087
G1 X77.113 Y124.490 E63.201
G1 X76.294 Y123.818 E63.316
G1 X75.623 Y123.000 E63.430
G1 X75.124 Y122.066 E63.544
G1 X74.817 Y121.053 E63.659
G1 X74.713 Y102.000 E65.716
G1 X74.817 Y100.947 E65.831
G1 X75.124 Y99.934 E65.945
G1 X75.623 Y99.000 E66.059
G1 X76.294 Y98.182 E66.174
G1 X77.113 Y97.510 E66.288
G1 X78.046 Y97.011 E66.402
G1 X79.059 Y96.704 E66.517
G1 X80.113 Y96.600 E66.631
G1 X80.113 Y97.000 E66.674
G1 X106.887 Y97.000 E69.566
G1 X106.887 Y97.000 E69.566
G1 X107.863 Y97.096 E69.672
G1 X108.801 Y97.381 E69.778
G1 X109.665 Y97.843 E69.883
G1 X110.423 Y98.464 E69.989
G1 X111.045 Y99.222 E70.095
G1 X111.507 Y100.087 E70.201
G1 X111.791 Y101.025 E70.307
G1 X111.887 Y120.000 E72.356
G1 X111.791 Y120.975 E72.462
G1 X111.507 Y121.913 E72.568
G1 X111.045 Y122.778 E72.674
G1 X110.423 Y123.536 E72.780
G1 X109.665 Y124.157 E72.885
G1 X108.801 Y124.619 E72.991
G1 X107.863 Y124.904 E73.097
G1 X80.113 Y125.000 E76.094
G1 X79.137 Y124.904 E76.200
G1 X78.199 Y124.619 E76.306
G1 X77.335 Y124.157 E76.412
G1 X76.577 Y123.536 E76.518
G1 X75.955 Y122.778 E76.623
G1 X75.493 Y121.913 E76.729
G1 X75.209 Y120.975 E76.835
G1 X75.113 Y102.000 E78.885
G1 X75.209 Y101.025 E78.990
G1 X75.493 Y100.087 E79.096
G1 X75.955 Y99.222 E79.202
G1 X76.577 Y98.464 E79.308
G1 X77.335 Y97.843 E79.414
G1 X78.199 Y97.381 E79.520
G1 X79.137 Y97.096 E79.626
G1 X80.113 Y97.000 E79.731
G1 X80.113 Y97.400 E79.775
G1 X106.887 Y97.400 E82.666
G1 X106.887 Y97.400 E82.666
G1 X107.785 Y97.488 E82.764
G1 X108.648 Y97.750 E82.861
G1 X109.443 Y98.175 E82.958
G1 X110.140 Y98.747 E83.056
G1 X110.712 Y99.444 E83.153
G1 X111.137 Y100.240 E83.251
G1 X111.399 Y101.103 E83.348
G1 X111.487 Y120.000 E85.389
G1 X111.399 Y120.897 E85.486
G1 X111.137 Y121.760 E85.584
G1 X110.712 Y122.556 E85.681
G1 X110.140 Y123.253 E85.779
G1 X109.443 Y123.825 E85.876
G1 X108.648 Y124.250 E85.973
G1 X107.785 Y124.512 E86.071
G1 X80.113 Y124.600 E89.059
G1 X79.215 Y124.512 E89.157
G1 X78.352 Y124.250 E89.254
G1 X77.557 Y123.825 E89.351
G1 X76.860 Y123.253 E89.449
G1 X76.288 Y122.556 E89.546
G1 X75.863 Y121.760 E89.644
G1 X75.601 Y120.897 E89.741
G1 X75.513 Y102.000 E91.782
G1 X75.601 Y101.103 E91.879
G1 X75.863 Y100.240 E91.977
G1 X76.288 Y99.444 E92.074
G1 X76.860 Y98.747 E92.172
G1 X77.557 Y98.175 E92.269
G1 X78.352 Y97.750 E92.366
G1 X79.215 Y97.488 E92.464
G1 X80.113 Y97.400 E92.561
G1 X80.113 Y97.800 E92.604
G1 X106.887 Y97.800 E95.496
G1 X106.887 Y97.800 E95.496
G1 X107.707 Y97.881 E95.585
G1 X108.494 Y98.120 E95.674
G1 X109.221 Y98.508 E95.763
G1 X109.857 Y99.030 E95.852
G1 X110.379 Y99.667 E95.941
G1 X110.767 Y100.393 E96.030
G1 X111.006 Y101.181 E96.118
G1 X111.087 Y120.000 E98.151
G1 X111.006 Y120.819 E98.240
G1 X110.767 Y121.607 E98.329
G1 X110.379 Y122.333 E98.418
G1 X109.857 Y122.970 E98.507
G1 X109.221 Y123.492 E98.595
G1 X108.494 Y123.880 E98.684
G1 X107.707 Y124.119 E98.773
G1 X80.113 Y124.200 E101.753
G1 X79.293 Y124.119 E101.842
G1 X78.506 Y123.880 E101.931
G1 X77.779 Y123.492 E102.020
G1 X77.143 Y122.970 E102.109
G1 X76.621 Y122.333 E102.198
G1 X76.233 Y121.607 E102.287
G1 X75.994 Y120.819 E102.376
G1 X75.913 Y102.000 E104.408
G1 X75.994 Y101.181 E104.497
G1 X76.233 Y100.393 E104.586
G1 X76.621 Y99.667 E104.675
G1 X77.143 Y99.030 E104.764
G1 X77.779 Y98.508 E104.853
G1 X78.506 Y98.120 E104.942
G1 X79.293 Y97.881 E105.031
G1 X80.113 Y97.800 E105.120
G1 X80.113 Y98.200 E105.163
G1 X106.887 Y98.200 E108.054
G1 X106.887 Y98.200 E108.054
G1 X107.629 Y98.273 E108.135
G1 X108.341 Y98.489 E108.215
G1 X108.998 Y98.840 E108.296
G1 X109.574 Y99.313 E108.376
G1 X110.047 Y99.889 E108.457
G1 X110.398 Y100.546 E108.537
G1 X110.614 Y101.259 E108.618
G1 X110.687 Y120.000 E110.642
G1 X110.614 Y120.741 E110.722
G1 X110.398 Y121.454 E110.803
G1 X110.047 Y122.111 E110.883
G1 X109.574 Y122.687 E110.964
G1 X108.998 Y123.160 E111.044
G1 X108.341 Y123.511 E111.125
G1 X107.629 Y123.727 E111.205
G1 X80.113 Y123.800 E114.177
G1 X79.371 Y123.727 E114.257
G1 X78.659 Y123.511 E114.337
G1 X78.002 Y123.160 E114.418
G1 X77.426 Y122.687 E114.498
G1 X76.953 Y122.111 E114.579
G1 X76.602 Y121.454 E114.659
G1 X76.386 Y120.741 E114.740
G1 X76.313 Y102.000 E116.764
G1 X76.386 Y101.259 E116.844
G1 X76.602 Y100.546 E116.925
G1 X76.953 Y99.889 E117.005
G1 X77.426 Y99.313 E117.086
G1 X78.002 Y98.840 E117.166
G1 X78.659 Y98.489 E117.247
G1 X79.371 Y98.273 E117.327
G1 X80.113 Y98.200 E117.408
G1 X80.113 Y98.600 E117.451
G1 X106.887 Y98.600 E120.342
G1 X106.887 Y98.600 E120.342
G1 X107.550 Y98.665 E120.414
G1 X108.188 Y98.859 E120.486
G1 X108.776 Y99.173 E120.558
G1 X109.291 Y99.596 E120.630
G1 X109.714 Y100.111 E120.702
G1 X110.028 Y100.699 E120.774
G1 X110.222 Y101.337 E120.846
G1 X110.287 Y120.000 E122.862
G1 X110.222 Y120.663 E122.934
G1 X110.028 Y121.301 E123.006
G1 X109.714 Y121.889 E123.078
G1 X109.291 Y122.404 E123.150
G1 X108.776 Y122.827 E123.222
G1 X108.188 Y123.141 E123.294
G1 X107.550 Y123.335 E123.366
G1 X80.113 Y123.400 E126.329
G1 X79.450 Y123.335 E126.401
G1 X78.812 Y123.141 E126.473
G1 X78.224 Y122.827 E126.545
G1 X77.709 Y122.404 E126.617
G1 X77.286 Y121.889 E126.689
G1 X76.972 Y121.301 E126.761
G1 X76.778 Y120.663 E126.833
G1 X76.713 Y102.000 E128.849
G1 X76.778 Y101.337 E128.920
G1 X76.972 Y100.699 E128.992
G1 X77.286 Y100.111 E129.064
G1 X77.709 Y99.596 E129.136
G1 X78.224 Y99.173 E129.208
G1 X78.812 Y98.859 E129.280
G1 X79.450 Y98.665 E129.352
G1 X80.113 Y98.600 E129.424
G1 X80.113 Y99.000 E129.468
G1 X106.887 Y99.000 E132.359
G1 X106.887 Y99.000 E132.359
G1 X107.472 Y99.058 E132.423
G1 X108.035 Y99.228 E132.486
G1 X108.554 Y99.506 E132.550
G1 X109.008 Y99.879 E132.613
G1 X109.382 Y100.333 E132.677
G1 X109.659 Y100.852 E132.740
G1 X109.830 Y101.415 E132.804
G1 X109.887 Y120.000 E134.811
G1 X109.830 Y120.585 E134.874
G1 X109.659 Y121.148 E134.938
G1 X109.382 Y121.667 E135.002
G1 X109.008 Y122.121 E135.065
G1 X108.554 Y122.494 E135.129
G1 X108.035 Y122.772 E135.192
G1 X107.472 Y122.942 E135.256
G1 X80.113 Y123.000 E138.210
G1 X79.528 Y122.942 E138.274
G1 X78.965 Y122.772 E138.337
G1 X78.446 Y122.494 E138.401
G1 X77.992 Y122.121 E138.464
G1 X77.618 Y121.667 E138.528
G1 X77.341 Y121.148 E138.592
G1 X77.170 Y120.585 E138.655
G1 X77.113 Y102.000 E140.662
G1 X77.170 Y101.415 E140.726
G1 X77.341 Y100.852 E140.789
G1 X77.618 Y100.333 E140.853
G1 X77.992 Y99.879 E140.916
G1 X78.446 Y99.506 E140.980
G1 X78.965 Y99.228 E141.043
G1 X79.528 Y99.058 E141.107
G1 X80.113 Y99.000 E141.170
G1 X80.113 Y95.000 E141.602
;END create outline
;move to
G1 Z0.47000000000000003 F4800       ;move to Z position
G92 E0                     ;reset Extruder position
G1 X80.000 Y102.000 F2400     ;move to beginning of knitting
G1 Z0.27 F4800       ;move to Z position
;create path
G1 F2400
G1 X81.001 Y102.150 E0.109
G1 X81.952 Y102.594 E0.223
G1 X82.806 Y103.309 E0.343
G1 X83.518 Y104.259 E0.471
G1 X84.054 Y105.397 E0.607
G1 X84.387 Y106.665 E0.749
G1 X80.113 Y115.335 E1.793
G1 X80.446 Y116.603 E1.934
G1 X80.982 Y117.741 E2.070
G1 X81.694 Y118.691 E2.198
G1 X82.548 Y119.406 E2.319
G1 X83.499 Y119.850 E2.432
G1 X84.500 Y120.000 E2.541
G1 X85.501 Y119.850 E2.650
G1 X86.452 Y119.406 E2.764
G1 X87.306 Y118.691 E2.884
G1 X88.018 Y117.741 E3.012
G1 X88.554 Y116.603 E3.148
G1 X88.887 Y115.335 E3.290
G1 X84.613 Y106.665 E4.334
G1 X84.946 Y105.397 E4.475
G1 X85.482 Y104.259 E4.611
G1 X86.194 Y103.309 E4.739
G1 X87.048 Y102.594 E4.860
G1 X87.999 Y102.150 E4.973
G1 X89.000 Y102.000 E5.082
G1 X89.000 Y102.000 E5.082
G1 X90.001 Y102.150 E5.192
G1 X90.952 Y102.594 E5.305
G1 X91.806 Y103.309 E5.425
G1 X92.518 Y104.259 E5.554
G1 X93.054 Y105.397 E5.689
G1 X93.387 Y106.665 E5.831
G1 X89.113 Y115.335 E6.875
G1 X89.446 Y116.603 E7.017
G1 X89.982 Y117.741 E7.152
G1 X90.694 Y118.691 E7.281
G1 X91.548 Y119.406 E7.401
G1 X92.499 Y119.850 E7.514
G1 X93.500 Y120.000 E7.624
G1 X94.501 Y119.850 E7.733
G1 X95.452 Y119.406 E7.846
G1 X96.306 Y118.691 E7.967
G1 X97.018 Y117.741 E8.095
G1 X97.554 Y116.603 E8.231
G1 X97.887 Y115.335 E8.372
G1 X93.613 Y106.665 E9.416
G1 X93.946 Y105.397 E9.558
G1 X94.482 Y104.259 E9.694
G1 X95.194 Y103.309 E9.822
G1 X96.048 Y102.594 E9.942
G1 X96.999 Y102.150 E10.055
G1 X98.000 Y102.000 E10.165
G1 X98.000 Y102.000 E10.165
G1 X99.001 Y102.150 E10.274
G1 X99.952 Y102.594 E10.387
G1 X100.806 Y103.309 E10.508
G1 X101.518 Y104.259 E10.636
G1 X102.054 Y105.397 E10.772
G1 X102.387 Y106.665 E10.913
G1 X98.113 Y115.335 E11.957
G1 X98.446 Y116.603 E12.099
G1 X98.982 Y117.741 E12.235
G1 X99.694 Y118.691 E12.363
G1 X100.548 Y119.406 E12.483
G1 X101.499 Y119.850 E12.597
G1 X102.500 Y120.000 E12.706
G1 X103.501 Y119.850 E12.815
G1 X104.452 Y119.406 E12.929
G1 X105.306 Y118.691 E13.049
G1 X106.018 Y117.741 E13.177
;End create path
M107         ;turn off fan
M104 S0      ;turn off temperature
M140 S0      ;heated bed heater off
G91          ;relative positioning
G1 E-1 F300  ;retract the filament a bit before lifting the nozzle, to release some of the pressure 
G1 Z+0.5 E-5 X-20 Y-20 F9000 ;move Z up a bit and retract filament even more
G28 X0 Y0      ;home X axis 
G1 Y150 F5000  ;move completed part out
M84          ;disable motors
G90          ;absolute positioning
;End of gcode