;Generated GCode by Ria Stroes
;Project: Generated Knittings
;3D-printer: Ultimaker 2+
;tempbed = 70
;tempextruder = 210
;nozzle = 0.4
;firstlayerheight = 0.27
;layerheight = 0.3
;speed = 2400
;outlinerounds = 10
;outlinerounddist = 4
;maxlayers = 5
;starting commands
G21 ;metric values
M82 ;set extruder to absolute mode
G90 ;absolute positioning
M107 ;start with the fan off
M109 S180 B210 F1;activate auto temp min 180 max 210 scaling factor 1 (for PLA)
G28; Home Axis
G29; Z-Probe the bed (requires Z-Probe!)
G1 Z5.0 F9000 ;move the head 5mm up for CYA clearance
G92 E0 ;zero the extruded length
M117 Cleaning...;Put Cleaning message on screen
G1 X100 Y0 F4000 ; move half way along the front edge
G1 Z1 ; move nozzle close to bed
M109 S200 ; heat nozzle to 200 degC and wait until reached
G4 P10000 ; wait 10 seconds for nozzle length to stabilize
G1 E10 ; extrude 10 mm of filament
G1 z15 F12000 E5 ; move 15 mm up, fast, while extruding 5mm
G92 E0 ; reset extruder
M117 Printing...;Put printing message on LCD screen
;move to start positions
G0 F9000 X100.113 Y75.000 Z0.27     ;move to Z position
G0 X100.113 Y75.000 F2400 ;move to beginning of outline
;create outline
G0 F4800
G1 X126.887 Y75.000 E0.000
G1 X126.887 Y75.000 E0.000
G1 X128.253 Y75.135 E0.148
G1 X129.566 Y75.533 E0.296
G1 X130.776 Y76.180 E0.445
G1 X131.837 Y77.050 E0.593
G1 X132.707 Y78.111 E0.741
G1 X133.354 Y79.321 E0.889
G1 X133.753 Y80.634 E1.037
G1 X133.887 Y100.000 E3.129
G1 X133.753 Y101.366 E3.277
G1 X133.354 Y102.679 E3.425
G1 X132.707 Y103.889 E3.574
G1 X131.837 Y104.950 E3.722
G1 X130.776 Y105.820 E3.870
G1 X129.566 Y106.467 E4.018
G1 X128.253 Y106.865 E4.166
G1 X100.113 Y107.000 E7.205
G1 X98.747 Y106.865 E7.354
G1 X97.434 Y106.467 E7.502
G1 X96.224 Y105.820 E7.650
G1 X95.163 Y104.950 E7.798
G1 X94.293 Y103.889 E7.946
G1 X93.646 Y102.679 E8.095
G1 X93.247 Y101.366 E8.243
G1 X93.113 Y82.000 E10.334
G1 X93.247 Y80.634 E10.483
G1 X93.646 Y79.321 E10.631
G1 X94.293 Y78.111 E10.779
G1 X95.163 Y77.050 E10.927
G1 X96.224 Y76.180 E11.075
G1 X97.434 Y75.533 E11.224
G1 X98.747 Y75.135 E11.372
G1 X100.113 Y75.000 E11.520
G1 X100.113 Y75.400 E11.563
G1 X126.887 Y75.400 E14.455
G1 X126.887 Y75.400 E14.455
G1 X128.175 Y75.527 E14.595
G1 X129.413 Y75.902 E14.734
G1 X130.554 Y76.512 E14.874
G1 X131.554 Y77.333 E15.014
G1 X132.375 Y78.333 E15.154
G1 X132.985 Y79.474 E15.293
G1 X133.360 Y80.712 E15.433
G1 X133.487 Y100.000 E17.516
G1 X133.360 Y101.288 E17.656
G1 X132.985 Y102.526 E17.796
G1 X132.375 Y103.667 E17.935
G1 X131.554 Y104.667 E18.075
G1 X130.554 Y105.488 E18.215
G1 X129.413 Y106.098 E18.355
G1 X128.175 Y106.473 E18.494
G1 X100.113 Y106.600 E21.525
G1 X98.825 Y106.473 E21.665
G1 X97.587 Y106.098 E21.804
G1 X96.446 Y105.488 E21.944
G1 X95.446 Y104.667 E22.084
G1 X94.625 Y103.667 E22.224
G1 X94.015 Y102.526 E22.363
G1 X93.640 Y101.288 E22.503
G1 X93.513 Y82.000 E24.586
G1 X93.640 Y80.712 E24.726
G1 X94.015 Y79.474 E24.866
G1 X94.625 Y78.333 E25.005
G1 X95.446 Y77.333 E25.145
G1 X96.446 Y76.512 E25.285
G1 X97.587 Y75.902 E25.425
G1 X98.825 Y75.527 E25.564
G1 X100.113 Y75.400 E25.704
G1 X100.113 Y75.800 E25.747
G1 X126.887 Y75.800 E28.639
G1 X126.887 Y75.800 E28.639
G1 X128.097 Y75.919 E28.770
G1 X129.260 Y76.272 E28.901
G1 X130.332 Y76.845 E29.033
G1 X131.271 Y77.616 E29.164
G1 X132.042 Y78.555 E29.295
G1 X132.615 Y79.627 E29.426
G1 X132.968 Y80.790 E29.558
G1 X133.087 Y100.000 E31.632
G1 X132.968 Y101.210 E31.764
G1 X132.615 Y102.373 E31.895
G1 X132.042 Y103.445 E32.026
G1 X131.271 Y104.384 E32.158
G1 X130.332 Y105.155 E32.289
G1 X129.260 Y105.728 E32.420
G1 X128.097 Y106.081 E32.551
G1 X100.113 Y106.200 E35.574
G1 X98.903 Y106.081 E35.705
G1 X97.740 Y105.728 E35.836
G1 X96.668 Y105.155 E35.967
G1 X95.729 Y104.384 E36.099
G1 X94.958 Y103.445 E36.230
G1 X94.385 Y102.373 E36.361
G1 X94.032 Y101.210 E36.492
G1 X93.913 Y82.000 E38.567
G1 X94.032 Y80.790 E38.698
G1 X94.385 Y79.627 E38.830
G1 X94.958 Y78.555 E38.961
G1 X95.729 Y77.616 E39.092
G1 X96.668 Y76.845 E39.223
G1 X97.740 Y76.272 E39.355
G1 X98.903 Y75.919 E39.486
G1 X100.113 Y75.800 E39.617
G1 X100.113 Y76.200 E39.660
G1 X126.887 Y76.200 E42.552
G1 X126.887 Y76.200 E42.552
G1 X128.019 Y76.311 E42.675
G1 X129.107 Y76.641 E42.798
G1 X130.109 Y77.177 E42.920
G1 X130.988 Y77.899 E43.043
G1 X131.710 Y78.778 E43.166
G1 X132.246 Y79.780 E43.289
G1 X132.576 Y80.868 E43.412
G1 X132.687 Y100.000 E45.478
G1 X132.576 Y101.132 E45.601
G1 X132.246 Y102.220 E45.724
G1 X131.710 Y103.222 E45.846
G1 X130.988 Y104.101 E45.969
G1 X130.109 Y104.823 E46.092
G1 X129.107 Y105.359 E46.215
G1 X128.019 Y105.689 E46.338
G1 X100.113 Y105.800 E49.351
G1 X98.981 Y105.689 E49.474
G1 X97.893 Y105.359 E49.597
G1 X96.891 Y104.823 E49.720
G1 X96.012 Y104.101 E49.843
G1 X95.290 Y103.222 E49.965
G1 X94.754 Y102.220 E50.088
G1 X94.424 Y101.132 E50.211
G1 X94.313 Y82.000 E52.277
G1 X94.424 Y80.868 E52.400
G1 X94.754 Y79.780 E52.523
G1 X95.290 Y78.778 E52.646
G1 X96.012 Y77.899 E52.768
G1 X96.891 Y77.177 E52.891
G1 X97.893 Y76.641 E53.014
G1 X98.981 Y76.311 E53.137
G1 X100.113 Y76.200 E53.260
G1 X100.113 Y76.600 E53.303
G1 X126.887 Y76.600 E56.194
G1 X126.887 Y76.600 E56.194
G1 X127.941 Y76.704 E56.309
G1 X128.954 Y77.011 E56.423
G1 X129.887 Y77.510 E56.537
G1 X130.706 Y78.182 E56.652
G1 X131.377 Y79.000 E56.766
G1 X131.876 Y79.934 E56.880
G1 X132.183 Y80.947 E56.995
G1 X132.287 Y100.000 E59.053
G1 X132.183 Y101.053 E59.167
G1 X131.876 Y102.066 E59.281
G1 X131.377 Y103.000 E59.396
G1 X130.706 Y103.818 E59.510
G1 X129.887 Y104.490 E59.624
G1 X128.954 Y104.989 E59.738
G1 X127.941 Y105.296 E59.853
G1 X100.113 Y105.400 E62.858
G1 X99.059 Y105.296 E62.973
G1 X98.046 Y104.989 E63.087
G1 X97.113 Y104.490 E63.201
G1 X96.294 Y103.818 E63.316
G1 X95.623 Y103.000 E63.430
G1 X95.124 Y102.066 E63.544
G1 X94.817 Y101.053 E63.659
G1 X94.713 Y82.000 E65.716
G1 X94.817 Y80.947 E65.831
G1 X95.124 Y79.934 E65.945
G1 X95.623 Y79.000 E66.059
G1 X96.294 Y78.182 E66.174
G1 X97.113 Y77.510 E66.288
G1 X98.046 Y77.011 E66.402
G1 X99.059 Y76.704 E66.517
G1 X100.113 Y76.600 E66.631
G1 X100.113 Y77.000 E66.674
G1 X126.887 Y77.000 E69.566
G1 X126.887 Y77.000 E69.566
G1 X127.863 Y77.096 E69.672
G1 X128.801 Y77.381 E69.778
G1 X129.665 Y77.843 E69.883
G1 X130.423 Y78.464 E69.989
G1 X131.045 Y79.222 E70.095
G1 X131.507 Y80.087 E70.201
G1 X131.791 Y81.025 E70.307
G1 X131.887 Y100.000 E72.356
G1 X131.791 Y100.975 E72.462
G1 X131.507 Y101.913 E72.568
G1 X131.045 Y102.778 E72.674
G1 X130.423 Y103.536 E72.780
G1 X129.665 Y104.157 E72.885
G1 X128.801 Y104.619 E72.991
G1 X127.863 Y104.904 E73.097
G1 X100.113 Y105.000 E76.094
G1 X99.137 Y104.904 E76.200
G1 X98.199 Y104.619 E76.306
G1 X97.335 Y104.157 E76.412
G1 X96.577 Y103.536 E76.518
G1 X95.955 Y102.778 E76.623
G1 X95.493 Y101.913 E76.729
G1 X95.209 Y100.975 E76.835
G1 X95.113 Y82.000 E78.885
G1 X95.209 Y81.025 E78.990
G1 X95.493 Y80.087 E79.096
G1 X95.955 Y79.222 E79.202
G1 X96.577 Y78.464 E79.308
G1 X97.335 Y77.843 E79.414
G1 X98.199 Y77.381 E79.520
G1 X99.137 Y77.096 E79.626
G1 X100.113 Y77.000 E79.731
G1 X100.113 Y77.400 E79.775
G1 X126.887 Y77.400 E82.666
G1 X126.887 Y77.400 E82.666
G1 X127.785 Y77.488 E82.764
G1 X128.648 Y77.750 E82.861
G1 X129.443 Y78.175 E82.958
G1 X130.140 Y78.747 E83.056
G1 X130.712 Y79.444 E83.153
G1 X131.137 Y80.240 E83.251
G1 X131.399 Y81.103 E83.348
G1 X131.487 Y100.000 E85.389
G1 X131.399 Y100.897 E85.486
G1 X131.137 Y101.760 E85.584
G1 X130.712 Y102.556 E85.681
G1 X130.140 Y103.253 E85.779
G1 X129.443 Y103.825 E85.876
G1 X128.648 Y104.250 E85.973
G1 X127.785 Y104.512 E86.071
G1 X100.113 Y104.600 E89.059
G1 X99.215 Y104.512 E89.157
G1 X98.352 Y104.250 E89.254
G1 X97.557 Y103.825 E89.351
G1 X96.860 Y103.253 E89.449
G1 X96.288 Y102.556 E89.546
G1 X95.863 Y101.760 E89.644
G1 X95.601 Y100.897 E89.741
G1 X95.513 Y82.000 E91.782
G1 X95.601 Y81.103 E91.879
G1 X95.863 Y80.240 E91.977
G1 X96.288 Y79.444 E92.074
G1 X96.860 Y78.747 E92.172
G1 X97.557 Y78.175 E92.269
G1 X98.352 Y77.750 E92.366
G1 X99.215 Y77.488 E92.464
G1 X100.113 Y77.400 E92.561
G1 X100.113 Y77.800 E92.604
G1 X126.887 Y77.800 E95.496
G1 X126.887 Y77.800 E95.496
G1 X127.707 Y77.881 E95.585
G1 X128.494 Y78.120 E95.674
G1 X129.221 Y78.508 E95.763
G1 X129.857 Y79.030 E95.852
G1 X130.379 Y79.667 E95.941
G1 X130.767 Y80.393 E96.030
G1 X131.006 Y81.181 E96.118
G1 X131.087 Y100.000 E98.151
G1 X131.006 Y100.819 E98.240
G1 X130.767 Y101.607 E98.329
G1 X130.379 Y102.333 E98.418
G1 X129.857 Y102.970 E98.507
G1 X129.221 Y103.492 E98.595
G1 X128.494 Y103.880 E98.684
G1 X127.707 Y104.119 E98.773
G1 X100.113 Y104.200 E101.753
G1 X99.293 Y104.119 E101.842
G1 X98.506 Y103.880 E101.931
G1 X97.779 Y103.492 E102.020
G1 X97.143 Y102.970 E102.109
G1 X96.621 Y102.333 E102.198
G1 X96.233 Y101.607 E102.287
G1 X95.994 Y100.819 E102.376
G1 X95.913 Y82.000 E104.408
G1 X95.994 Y81.181 E104.497
G1 X96.233 Y80.393 E104.586
G1 X96.621 Y79.667 E104.675
G1 X97.143 Y79.030 E104.764
G1 X97.779 Y78.508 E104.853
G1 X98.506 Y78.120 E104.942
G1 X99.293 Y77.881 E105.031
G1 X100.113 Y77.800 E105.120
G1 X100.113 Y78.200 E105.163
G1 X126.887 Y78.200 E108.054
G1 X126.887 Y78.200 E108.054
G1 X127.629 Y78.273 E108.135
G1 X128.341 Y78.489 E108.215
G1 X128.998 Y78.840 E108.296
G1 X129.574 Y79.313 E108.376
G1 X130.047 Y79.889 E108.457
G1 X130.398 Y80.546 E108.537
G1 X130.614 Y81.259 E108.618
G1 X130.687 Y100.000 E110.642
G1 X130.614 Y100.741 E110.722
G1 X130.398 Y101.454 E110.803
G1 X130.047 Y102.111 E110.883
G1 X129.574 Y102.687 E110.964
G1 X128.998 Y103.160 E111.044
G1 X128.341 Y103.511 E111.125
G1 X127.629 Y103.727 E111.205
G1 X100.113 Y103.800 E114.177
G1 X99.371 Y103.727 E114.257
G1 X98.659 Y103.511 E114.337
G1 X98.002 Y103.160 E114.418
G1 X97.426 Y102.687 E114.498
G1 X96.953 Y102.111 E114.579
G1 X96.602 Y101.454 E114.659
G1 X96.386 Y100.741 E114.740
G1 X96.313 Y82.000 E116.764
G1 X96.386 Y81.259 E116.844
G1 X96.602 Y80.546 E116.925
G1 X96.953 Y79.889 E117.005
G1 X97.426 Y79.313 E117.086
G1 X98.002 Y78.840 E117.166
G1 X98.659 Y78.489 E117.247
G1 X99.371 Y78.273 E117.327
G1 X100.113 Y78.200 E117.408
G1 X100.113 Y78.600 E117.451
G1 X126.887 Y78.600 E120.342
G1 X126.887 Y78.600 E120.342
G1 X127.550 Y78.665 E120.414
G1 X128.188 Y78.859 E120.486
G1 X128.776 Y79.173 E120.558
G1 X129.291 Y79.596 E120.630
G1 X129.714 Y80.111 E120.702
G1 X130.028 Y80.699 E120.774
G1 X130.222 Y81.337 E120.846
G1 X130.287 Y100.000 E122.862
G1 X130.222 Y100.663 E122.934
G1 X130.028 Y101.301 E123.006
G1 X129.714 Y101.889 E123.078
G1 X129.291 Y102.404 E123.150
G1 X128.776 Y102.827 E123.222
G1 X128.188 Y103.141 E123.294
G1 X127.550 Y103.335 E123.366
G1 X100.113 Y103.400 E126.329
G1 X99.450 Y103.335 E126.401
G1 X98.812 Y103.141 E126.473
G1 X98.224 Y102.827 E126.545
G1 X97.709 Y102.404 E126.617
G1 X97.286 Y101.889 E126.689
G1 X96.972 Y101.301 E126.761
G1 X96.778 Y100.663 E126.833
G1 X96.713 Y82.000 E128.849
G1 X96.778 Y81.337 E128.920
G1 X96.972 Y80.699 E128.992
G1 X97.286 Y80.111 E129.064
G1 X97.709 Y79.596 E129.136
G1 X98.224 Y79.173 E129.208
G1 X98.812 Y78.859 E129.280
G1 X99.450 Y78.665 E129.352
G1 X100.113 Y78.600 E129.424
G1 X100.113 Y79.000 E129.468
G1 X126.887 Y79.000 E132.359
G1 X126.887 Y79.000 E132.359
G1 X127.472 Y79.058 E132.423
G1 X128.035 Y79.228 E132.486
G1 X128.554 Y79.506 E132.550
G1 X129.008 Y79.879 E132.613
G1 X129.382 Y80.333 E132.677
G1 X129.659 Y80.852 E132.740
G1 X129.830 Y81.415 E132.804
G1 X129.887 Y100.000 E134.811
G1 X129.830 Y100.585 E134.874
G1 X129.659 Y101.148 E134.938
G1 X129.382 Y101.667 E135.002
G1 X129.008 Y102.121 E135.065
G1 X128.554 Y102.494 E135.129
G1 X128.035 Y102.772 E135.192
G1 X127.472 Y102.942 E135.256
G1 X100.113 Y103.000 E138.210
G1 X99.528 Y102.942 E138.274
G1 X98.965 Y102.772 E138.337
G1 X98.446 Y102.494 E138.401
G1 X97.992 Y102.121 E138.464
G1 X97.618 Y101.667 E138.528
G1 X97.341 Y101.148 E138.592
G1 X97.170 Y100.585 E138.655
G1 X97.113 Y82.000 E140.662
G1 X97.170 Y81.415 E140.726
G1 X97.341 Y80.852 E140.789
G1 X97.618 Y80.333 E140.853
G1 X97.992 Y79.879 E140.916
G1 X98.446 Y79.506 E140.980
G1 X98.965 Y79.228 E141.043
G1 X99.528 Y79.058 E141.107
G1 X100.113 Y79.000 E141.170
G1 X100.113 Y75.000 E141.602
;END create outline
;move to
G1 Z0.47000000000000003 F4800       ;move to Z position
G92 E0                     ;reset Extruder position
G1 X100.000 Y82.000 F2400     ;move to beginning of knitting
G1 Z0.27 F4800       ;move to Z position
;create path
G1 F2400
G1 X101.001 Y82.150 E0.109
G1 X101.952 Y82.594 E0.223
G1 X102.806 Y83.309 E0.343
G1 X103.518 Y84.259 E0.471
G1 X104.054 Y85.397 E0.607
G1 X104.387 Y86.665 E0.749
G1 X100.113 Y95.335 E1.793
G1 X100.446 Y96.603 E1.934
G1 X100.982 Y97.741 E2.070
G1 X101.694 Y98.691 E2.198
G1 X102.548 Y99.406 E2.319
G1 X103.499 Y99.850 E2.432
G1 X104.500 Y100.000 E2.541
G1 X105.501 Y99.850 E2.650
G1 X106.452 Y99.406 E2.764
G1 X107.306 Y98.691 E2.884
G1 X108.018 Y97.741 E3.012
G1 X108.554 Y96.603 E3.148
G1 X108.887 Y95.335 E3.290
G1 X104.613 Y86.665 E4.334
G1 X104.946 Y85.397 E4.475
G1 X105.482 Y84.259 E4.611
G1 X106.194 Y83.309 E4.739
G1 X107.048 Y82.594 E4.860
G1 X107.999 Y82.150 E4.973
G1 X109.000 Y82.000 E5.082
G1 X109.000 Y82.000 E5.082
G1 X110.001 Y82.150 E5.192
G1 X110.952 Y82.594 E5.305
G1 X111.806 Y83.309 E5.425
G1 X112.518 Y84.259 E5.554
G1 X113.054 Y85.397 E5.689
G1 X113.387 Y86.665 E5.831
G1 X109.113 Y95.335 E6.875
G1 X109.446 Y96.603 E7.017
G1 X109.982 Y97.741 E7.152
G1 X110.694 Y98.691 E7.281
G1 X111.548 Y99.406 E7.401
G1 X112.499 Y99.850 E7.514
G1 X113.500 Y100.000 E7.624
G1 X114.501 Y99.850 E7.733
G1 X115.452 Y99.406 E7.846
G1 X116.306 Y98.691 E7.967
G1 X117.018 Y97.741 E8.095
G1 X117.554 Y96.603 E8.231
G1 X117.887 Y95.335 E8.372
G1 X113.613 Y86.665 E9.416
G1 X113.946 Y85.397 E9.558
G1 X114.482 Y84.259 E9.694
G1 X115.194 Y83.309 E9.822
G1 X116.048 Y82.594 E9.942
G1 X116.999 Y82.150 E10.055
G1 X118.000 Y82.000 E10.165
G1 X118.000 Y82.000 E10.165
G1 X119.001 Y82.150 E10.274
G1 X119.952 Y82.594 E10.387
G1 X120.806 Y83.309 E10.508
G1 X121.518 Y84.259 E10.636
G1 X122.054 Y85.397 E10.772
G1 X122.387 Y86.665 E10.913
G1 X118.113 Y95.335 E11.957
G1 X118.446 Y96.603 E12.099
G1 X118.982 Y97.741 E12.235
G1 X119.694 Y98.691 E12.363
G1 X120.548 Y99.406 E12.483
G1 X121.499 Y99.850 E12.597
G1 X122.500 Y100.000 E12.706
G1 X123.501 Y99.850 E12.815
G1 X124.452 Y99.406 E12.929
G1 X125.306 Y98.691 E13.049
G1 X126.018 Y97.741 E13.177
;End create path
M107         ;turn off fan
M104 S0      ;turn off temperature
M140 S0      ;heated bed heater off
G91          ;relative positioning
G1 E-1 F300  ;retract the filament a bit before lifting the nozzle, to release some of the pressure 
G1 Z+0.5 E-5 X-20 Y-20 F9000 ;move Z up a bit and retract filament even more
G28 X0 Y0      ;home X axis 
G1 Y150 F5000  ;move completed part out
M84          ;disable motors
G90          ;absolute positioning
;End of gcode