;Generated GCode by Ria Stroes
;Project: Generated Knittings
;3D-printer: Ultimaker Original
;tempbed = 70
;tempextruder = 210
;nozzle = 0.4
;layerheight = 0.3
;speed = 2400
;outlinerounds = 10
;outlinerounddist = 4
;maxlayers = 5
;starting commands
G21          ;metric stelsel
G90          ;absolute position mode
M82          ;extruder in absolute mode
M107         ;turn fan off
G28 X0 Y0        ;X,Y axes to home position.
G28 Z0           ;Z axe to home position.
G1 Z15 F9000 ;move extruder 15mm up
M190 S70     ;set bed temperature
M104 S210    ;set temperature extruder
M109 S210;wait for reach temperature
M140 S70     ;wait for reach bed temperature
;move to start positions
G1 Z0.3 F4800     ;move to Z position
G92 E0                     ;reset Extruder position
G1 X11.650 Y43.767 F2400     ;move to beginning of outline
;create outline
G1 F2400
G1 X188.750 Y43.767 E21.252
G1 X188.750 Y43.767 E21.252
G1 X189.394 Y43.830 E21.330
G1 X190.013 Y44.018 E21.407
G1 X190.583 Y44.323 E21.485
G1 X191.083 Y44.733 E21.562
G1 X191.494 Y45.233 E21.640
G1 X191.799 Y45.804 E21.718
G1 X191.987 Y46.423 E21.795
G1 X192.050 Y67.600 E24.337
G1 X191.987 Y68.244 E24.414
G1 X191.799 Y68.863 E24.492
G1 X191.494 Y69.433 E24.570
G1 X191.083 Y69.933 E24.647
G1 X190.583 Y70.344 E24.725
G1 X190.013 Y70.649 E24.802
G1 X189.394 Y70.837 E24.880
G1 X11.650 Y70.900 E46.209
G1 X11.006 Y70.837 E46.287
G1 X10.387 Y70.649 E46.365
G1 X9.817 Y70.344 E46.442
G1 X9.317 Y69.933 E46.520
G1 X8.906 Y69.433 E46.598
G1 X8.601 Y68.863 E46.675
G1 X8.413 Y68.244 E46.753
G1 X8.350 Y47.067 E49.294
G1 X8.413 Y46.423 E49.372
G1 X8.601 Y45.804 E49.449
G1 X8.906 Y45.233 E49.527
G1 X9.317 Y44.733 E49.605
G1 X9.817 Y44.323 E49.682
G1 X10.387 Y44.018 E49.760
G1 X11.006 Y43.830 E49.837
G1 X11.650 Y43.767 E49.915
G1 X11.650 Y43.327 E49.968
G1 X188.750 Y43.327 E71.220
G1 X188.750 Y43.327 E71.220
G1 X189.480 Y43.399 E71.308
G1 X190.181 Y43.611 E71.396
G1 X190.828 Y43.957 E71.484
G1 X191.395 Y44.422 E71.572
G1 X191.860 Y44.989 E71.660
G1 X192.205 Y45.635 E71.748
G1 X192.418 Y46.337 E71.836
G1 X192.490 Y67.600 E74.387
G1 X192.418 Y68.330 E74.475
G1 X192.205 Y69.031 E74.563
G1 X191.860 Y69.678 E74.651
G1 X191.395 Y70.245 E74.739
G1 X190.828 Y70.710 E74.827
G1 X190.181 Y71.055 E74.915
G1 X189.480 Y71.268 E75.003
G1 X11.650 Y71.340 E96.343
G1 X10.920 Y71.268 E96.431
G1 X10.219 Y71.055 E96.519
G1 X9.572 Y70.710 E96.607
G1 X9.005 Y70.245 E96.695
G1 X8.540 Y69.678 E96.783
G1 X8.195 Y69.031 E96.871
G1 X7.982 Y68.330 E96.959
G1 X7.910 Y47.067 E99.510
G1 X7.982 Y46.337 E99.598
G1 X8.195 Y45.635 E99.686
G1 X8.540 Y44.989 E99.774
G1 X9.005 Y44.422 E99.862
G1 X9.572 Y43.957 E99.950
G1 X10.219 Y43.611 E100.038
G1 X10.920 Y43.399 E100.126
G1 X11.650 Y43.327 E100.214
G1 X11.650 Y42.887 E100.267
G1 X188.750 Y42.887 E121.519
G1 X188.750 Y42.887 E121.519
G1 X189.565 Y42.967 E121.617
G1 X190.350 Y43.205 E121.716
G1 X191.072 Y43.591 E121.814
G1 X191.706 Y44.111 E121.912
G1 X192.226 Y44.744 E122.010
G1 X192.612 Y45.467 E122.109
G1 X192.850 Y46.251 E122.207
G1 X192.930 Y67.600 E124.769
G1 X192.850 Y68.415 E124.867
G1 X192.612 Y69.200 E124.966
G1 X192.226 Y69.922 E125.064
G1 X191.706 Y70.556 E125.162
G1 X191.072 Y71.076 E125.261
G1 X190.350 Y71.462 E125.359
G1 X189.565 Y71.700 E125.457
G1 X11.650 Y71.780 E146.807
G1 X10.835 Y71.700 E146.906
G1 X10.050 Y71.462 E147.004
G1 X9.328 Y71.076 E147.102
G1 X8.694 Y70.556 E147.201
G1 X8.174 Y69.922 E147.299
G1 X7.788 Y69.200 E147.397
G1 X7.550 Y68.415 E147.496
G1 X7.470 Y47.067 E150.057
G1 X7.550 Y46.251 E150.156
G1 X7.788 Y45.467 E150.254
G1 X8.174 Y44.744 E150.353
G1 X8.694 Y44.111 E150.451
G1 X9.328 Y43.591 E150.549
G1 X10.050 Y43.205 E150.647
G1 X10.835 Y42.967 E150.746
G1 X11.650 Y42.887 E150.844
G1 X11.650 Y43.767 E150.950
;END create outline
;move to
G1 Z0.5 F4800       ;move to Z position
G92 E0                     ;reset Extruder position
G1 X13.179 Y47.140 F2400     ;move to beginning of knitting
G1 Z0.3 F4800       ;move to Z position
;create path
G1 F2400
G1 X14.109 Y47.357 E0.115
G1 X14.943 Y47.707 E0.223
G1 X15.640 Y48.171 E0.324
G1 X16.164 Y48.727 E0.415
G1 X16.490 Y49.347 E0.499
G1 X16.600 Y50.000 E0.579
G1 X16.545 Y50.653 E0.657
G1 X16.382 Y51.273 E0.734
G1 X16.120 Y51.829 E0.808
G1 X15.772 Y52.293 E0.878
G1 X15.355 Y52.643 E0.943
G1 X14.890 Y52.860 E1.005
G1 X14.400 Y52.933 E1.064
G1 X13.910 Y52.860 E1.124
G1 X13.445 Y52.643 E1.185
G1 X13.028 Y52.293 E1.250
G1 X12.680 Y51.829 E1.320
G1 X12.418 Y51.273 E1.394
G1 X12.255 Y50.653 E1.471
G1 X16.600 Y47.067 E2.147
G1 X17.579 Y47.140 E2.265
G1 X18.509 Y47.357 E2.379
G1 X19.343 Y47.707 E2.488
G1 X20.040 Y48.171 E2.588
G1 X20.564 Y48.727 E2.680
G1 X20.890 Y49.347 E2.764
G1 X21.000 Y50.000 E2.843
G1 X20.945 Y50.653 E2.922
G1 X20.782 Y51.273 E2.999
G1 X20.520 Y51.829 E3.073
G1 X20.172 Y52.293 E3.142
G1 X19.755 Y52.643 E3.208
G1 X19.290 Y52.860 E3.269
G1 X18.800 Y52.933 E3.329
G1 X18.310 Y52.860 E3.388
G1 X17.845 Y52.643 E3.450
G1 X17.428 Y52.293 E3.515
G1 X17.080 Y51.829 E3.585
G1 X16.818 Y51.273 E3.658
G1 X16.655 Y50.653 E3.735
G1 X21.000 Y47.067 E4.411
G1 X21.979 Y47.140 E4.529
G1 X22.909 Y47.357 E4.644
G1 X23.743 Y47.707 E4.752
G1 X24.440 Y48.171 E4.853
G1 X24.964 Y48.727 E4.944
G1 X25.290 Y49.347 E5.029
G1 X25.400 Y50.000 E5.108
G1 X25.345 Y50.653 E5.187
G1 X25.182 Y51.273 E5.264
G1 X24.920 Y51.829 E5.337
G1 X24.572 Y52.293 E5.407
G1 X24.155 Y52.643 E5.472
G1 X23.690 Y52.860 E5.534
G1 X23.200 Y52.933 E5.593
G1 X22.710 Y52.860 E5.653
G1 X22.245 Y52.643 E5.714
G1 X21.828 Y52.293 E5.780
G1 X21.480 Y51.829 E5.849
G1 X21.218 Y51.273 E5.923
G1 X21.055 Y50.653 E6.000
G1 X25.400 Y47.067 E6.676
G1 X26.379 Y47.140 E6.794
G1 X27.309 Y47.357 E6.908
G1 X28.143 Y47.707 E7.017
G1 X28.840 Y48.171 E7.117
G1 X29.364 Y48.727 E7.209
G1 X29.690 Y49.347 E7.293
G1 X29.800 Y50.000 E7.373
G1 X29.745 Y50.653 E7.451
G1 X29.582 Y51.273 E7.528
G1 X29.320 Y51.829 E7.602
G1 X28.972 Y52.293 E7.671
G1 X28.555 Y52.643 E7.737
G1 X28.090 Y52.860 E7.798
G1 X27.600 Y52.933 E7.858
G1 X27.110 Y52.860 E7.917
G1 X26.645 Y52.643 E7.979
G1 X26.228 Y52.293 E8.044
G1 X25.880 Y51.829 E8.114
G1 X25.618 Y51.273 E8.188
G1 X25.455 Y50.653 E8.264
G1 X29.800 Y47.067 E8.941
G1 X30.779 Y47.140 E9.058
G1 X31.709 Y47.357 E9.173
G1 X32.543 Y47.707 E9.281
G1 X33.240 Y48.171 E9.382
G1 X33.764 Y48.727 E9.474
G1 X34.090 Y49.347 E9.558
G1 X34.200 Y50.000 E9.637
G1 X34.145 Y50.653 E9.716
G1 X33.982 Y51.273 E9.793
G1 X33.720 Y51.829 E9.866
G1 X33.372 Y52.293 E9.936
G1 X32.955 Y52.643 E10.001
G1 X32.490 Y52.860 E10.063
G1 X32.000 Y52.933 E10.122
G1 X31.510 Y52.860 E10.182
G1 X31.045 Y52.643 E10.243
G1 X30.628 Y52.293 E10.309
G1 X30.280 Y51.829 E10.378
G1 X30.018 Y51.273 E10.452
G1 X29.855 Y50.653 E10.529
G1 X34.200 Y47.067 E11.205
G1 X35.179 Y47.140 E11.323
G1 X36.109 Y47.357 E11.438
G1 X36.943 Y47.707 E11.546
G1 X37.640 Y48.171 E11.647
G1 X38.164 Y48.727 E11.738
G1 X38.490 Y49.347 E11.822
G1 X38.600 Y50.000 E11.902
G1 X38.545 Y50.653 E11.980
G1 X38.382 Y51.273 E12.057
G1 X38.120 Y51.829 E12.131
G1 X37.772 Y52.293 E12.201
G1 X37.355 Y52.643 E12.266
G1 X36.890 Y52.860 E12.328
G1 X36.400 Y52.933 E12.387
G1 X35.910 Y52.860 E12.446
G1 X35.445 Y52.643 E12.508
G1 X35.028 Y52.293 E12.573
G1 X34.680 Y51.829 E12.643
G1 X34.418 Y51.273 E12.717
G1 X34.255 Y50.653 E12.794
G1 X38.600 Y47.067 E13.470
G1 X39.579 Y47.140 E13.587
G1 X40.509 Y47.357 E13.702
G1 X41.343 Y47.707 E13.811
G1 X42.040 Y48.171 E13.911
G1 X42.564 Y48.727 E14.003
G1 X42.890 Y49.347 E14.087
G1 X43.000 Y50.000 E14.166
G1 X42.945 Y50.653 E14.245
G1 X42.782 Y51.273 E14.322
G1 X42.520 Y51.829 E14.396
G1 X42.172 Y52.293 E14.465
G1 X41.755 Y52.643 E14.531
G1 X41.290 Y52.860 E14.592
G1 X40.800 Y52.933 E14.652
G1 X40.310 Y52.860 E14.711
G1 X39.845 Y52.643 E14.773
G1 X39.428 Y52.293 E14.838
G1 X39.080 Y51.829 E14.908
G1 X38.818 Y51.273 E14.981
G1 X38.655 Y50.653 E15.058
G1 X43.000 Y47.067 E15.734
G1 X43.979 Y47.140 E15.852
G1 X44.909 Y47.357 E15.967
G1 X45.743 Y47.707 E16.075
G1 X46.440 Y48.171 E16.176
G1 X46.964 Y48.727 E16.267
G1 X47.290 Y49.347 E16.351
G1 X47.400 Y50.000 E16.431
G1 X47.345 Y50.653 E16.510
G1 X47.182 Y51.273 E16.586
G1 X46.920 Y51.829 E16.660
G1 X46.572 Y52.293 E16.730
G1 X46.155 Y52.643 E16.795
G1 X45.690 Y52.860 E16.857
G1 X45.200 Y52.933 E16.916
G1 X44.710 Y52.860 E16.976
G1 X44.245 Y52.643 E17.037
G1 X43.828 Y52.293 E17.103
G1 X43.480 Y51.829 E17.172
G1 X43.218 Y51.273 E17.246
G1 X43.055 Y50.653 E17.323
G1 X47.400 Y47.067 E17.999
G1 X48.379 Y47.140 E18.117
G1 X49.309 Y47.357 E18.231
G1 X50.143 Y47.707 E18.340
G1 X50.840 Y48.171 E18.440
G1 X51.364 Y48.727 E18.532
G1 X51.690 Y49.347 E18.616
G1 X51.800 Y50.000 E18.695
G1 X51.745 Y50.653 E18.774
G1 X51.582 Y51.273 E18.851
G1 X51.320 Y51.829 E18.925
G1 X50.972 Y52.293 E18.994
G1 X50.555 Y52.643 E19.060
G1 X50.090 Y52.860 E19.121
G1 X49.600 Y52.933 E19.181
G1 X49.110 Y52.860 E19.240
G1 X48.645 Y52.643 E19.302
G1 X48.228 Y52.293 E19.367
G1 X47.880 Y51.829 E19.437
G1 X47.618 Y51.273 E19.510
G1 X47.455 Y50.653 E19.587
G1 X51.800 Y47.067 E20.263
G1 X52.779 Y47.140 E20.381
G1 X53.709 Y47.357 E20.496
G1 X54.543 Y47.707 E20.604
G1 X55.240 Y48.171 E20.705
G1 X55.764 Y48.727 E20.797
G1 X56.090 Y49.347 E20.881
G1 X56.200 Y50.000 E20.960
G1 X56.145 Y50.653 E21.039
G1 X55.982 Y51.273 E21.116
G1 X55.720 Y51.829 E21.189
G1 X55.372 Y52.293 E21.259
G1 X54.955 Y52.643 E21.324
G1 X54.490 Y52.860 E21.386
G1 X54.000 Y52.933 E21.445
G1 X53.510 Y52.860 E21.505
G1 X53.045 Y52.643 E21.566
G1 X52.628 Y52.293 E21.632
G1 X52.280 Y51.829 E21.701
G1 X52.018 Y51.273 E21.775
G1 X51.855 Y50.653 E21.852
G1 X56.200 Y47.067 E22.528
G1 X57.179 Y47.140 E22.646
G1 X58.109 Y47.357 E22.760
G1 X58.943 Y47.707 E22.869
G1 X59.640 Y48.171 E22.969
G1 X60.164 Y48.727 E23.061
G1 X60.490 Y49.347 E23.145
G1 X60.600 Y50.000 E23.225
G1 X60.545 Y50.653 E23.303
G1 X60.382 Y51.273 E23.380
G1 X60.120 Y51.829 E23.454
G1 X59.772 Y52.293 E23.524
G1 X59.355 Y52.643 E23.589
G1 X58.890 Y52.860 E23.650
G1 X58.400 Y52.933 E23.710
G1 X57.910 Y52.860 E23.769
G1 X57.445 Y52.643 E23.831
G1 X57.028 Y52.293 E23.896
G1 X56.680 Y51.829 E23.966
G1 X56.418 Y51.273 E24.040
G1 X56.255 Y50.653 E24.117
G1 X60.600 Y47.067 E24.793
G1 X61.579 Y47.140 E24.910
G1 X62.509 Y47.357 E25.025
G1 X63.343 Y47.707 E25.134
G1 X64.040 Y48.171 E25.234
G1 X64.564 Y48.727 E25.326
G1 X64.890 Y49.347 E25.410
G1 X65.000 Y50.000 E25.489
G1 X64.945 Y50.653 E25.568
G1 X64.782 Y51.273 E25.645
G1 X64.520 Y51.829 E25.719
G1 X64.172 Y52.293 E25.788
G1 X63.755 Y52.643 E25.853
G1 X63.290 Y52.860 E25.915
G1 X62.800 Y52.933 E25.974
G1 X62.310 Y52.860 E26.034
G1 X61.845 Y52.643 E26.096
G1 X61.428 Y52.293 E26.161
G1 X61.080 Y51.829 E26.230
G1 X60.818 Y51.273 E26.304
G1 X60.655 Y50.653 E26.381
G1 X65.000 Y47.067 E27.057
G1 X65.979 Y47.140 E27.175
G1 X66.909 Y47.357 E27.290
G1 X67.743 Y47.707 E27.398
G1 X68.440 Y48.171 E27.499
G1 X68.964 Y48.727 E27.590
G1 X69.290 Y49.347 E27.674
G1 X69.400 Y50.000 E27.754
G1 X69.345 Y50.653 E27.832
G1 X69.182 Y51.273 E27.909
G1 X68.920 Y51.829 E27.983
G1 X68.572 Y52.293 E28.053
G1 X68.155 Y52.643 E28.118
G1 X67.690 Y52.860 E28.180
G1 X67.200 Y52.933 E28.239
G1 X66.710 Y52.860 E28.299
G1 X66.245 Y52.643 E28.360
G1 X65.828 Y52.293 E28.425
G1 X65.480 Y51.829 E28.495
G1 X65.218 Y51.273 E28.569
G1 X65.055 Y50.653 E28.646
G1 X69.400 Y47.067 E29.322
G1 X70.379 Y47.140 E29.440
G1 X71.309 Y47.357 E29.554
G1 X72.143 Y47.707 E29.663
G1 X72.840 Y48.171 E29.763
G1 X73.364 Y48.727 E29.855
G1 X73.690 Y49.347 E29.939
G1 X73.800 Y50.000 E30.018
G1 X73.745 Y50.653 E30.097
G1 X73.582 Y51.273 E30.174
G1 X73.320 Y51.829 E30.248
G1 X72.972 Y52.293 E30.317
G1 X72.555 Y52.643 E30.383
G1 X72.090 Y52.860 E30.444
G1 X71.600 Y52.933 E30.504
G1 X71.110 Y52.860 E30.563
G1 X70.645 Y52.643 E30.625
G1 X70.228 Y52.293 E30.690
G1 X69.880 Y51.829 E30.760
G1 X69.618 Y51.273 E30.833
G1 X69.455 Y50.653 E30.910
G1 X73.800 Y47.067 E31.586
G1 X74.779 Y47.140 E31.704
G1 X75.709 Y47.357 E31.819
G1 X76.543 Y47.707 E31.927
G1 X77.240 Y48.171 E32.028
G1 X77.764 Y48.727 E32.119
G1 X78.090 Y49.347 E32.204
G1 X78.200 Y50.000 E32.283
G1 X78.145 Y50.653 E32.362
G1 X77.982 Y51.273 E32.439
G1 X77.720 Y51.829 E32.512
G1 X77.372 Y52.293 E32.582
G1 X76.955 Y52.643 E32.647
G1 X76.490 Y52.860 E32.709
G1 X76.000 Y52.933 E32.768
G1 X75.510 Y52.860 E32.828
G1 X75.045 Y52.643 E32.889
G1 X74.628 Y52.293 E32.955
G1 X74.280 Y51.829 E33.024
G1 X74.018 Y51.273 E33.098
G1 X73.855 Y50.653 E33.175
G1 X78.200 Y47.067 E33.851
G1 X79.179 Y47.140 E33.969
G1 X80.109 Y47.357 E34.083
G1 X80.943 Y47.707 E34.192
G1 X81.640 Y48.171 E34.292
G1 X82.164 Y48.727 E34.384
G1 X82.490 Y49.347 E34.468
G1 X82.600 Y50.000 E34.548
G1 X82.545 Y50.653 E34.626
G1 X82.382 Y51.273 E34.703
G1 X82.120 Y51.829 E34.777
G1 X81.772 Y52.293 E34.846
G1 X81.355 Y52.643 E34.912
G1 X80.890 Y52.860 E34.973
G1 X80.400 Y52.933 E35.033
G1 X79.910 Y52.860 E35.092
G1 X79.445 Y52.643 E35.154
G1 X79.028 Y52.293 E35.219
G1 X78.680 Y51.829 E35.289
G1 X78.418 Y51.273 E35.363
G1 X78.255 Y50.653 E35.439
G1 X82.600 Y47.067 E36.116
G1 X83.579 Y47.140 E36.233
G1 X84.509 Y47.357 E36.348
G1 X85.343 Y47.707 E36.456
G1 X86.040 Y48.171 E36.557
G1 X86.564 Y48.727 E36.649
G1 X86.890 Y49.347 E36.733
G1 X87.000 Y50.000 E36.812
G1 X86.945 Y50.653 E36.891
G1 X86.782 Y51.273 E36.968
G1 X86.520 Y51.829 E37.041
G1 X86.172 Y52.293 E37.111
G1 X85.755 Y52.643 E37.176
G1 X85.290 Y52.860 E37.238
G1 X84.800 Y52.933 E37.297
G1 X84.310 Y52.860 E37.357
G1 X83.845 Y52.643 E37.418
G1 X83.428 Y52.293 E37.484
G1 X83.080 Y51.829 E37.553
G1 X82.818 Y51.273 E37.627
G1 X82.655 Y50.653 E37.704
G1 X87.000 Y47.067 E38.380
G1 X87.979 Y47.140 E38.498
G1 X88.909 Y47.357 E38.612
G1 X89.743 Y47.707 E38.721
G1 X90.440 Y48.171 E38.822
G1 X90.964 Y48.727 E38.913
G1 X91.290 Y49.347 E38.997
G1 X91.400 Y50.000 E39.077
G1 X91.345 Y50.653 E39.155
G1 X91.182 Y51.273 E39.232
G1 X90.920 Y51.829 E39.306
G1 X90.572 Y52.293 E39.376
G1 X90.155 Y52.643 E39.441
G1 X89.690 Y52.860 E39.503
G1 X89.200 Y52.933 E39.562
G1 X88.710 Y52.860 E39.621
G1 X88.245 Y52.643 E39.683
G1 X87.828 Y52.293 E39.748
G1 X87.480 Y51.829 E39.818
G1 X87.218 Y51.273 E39.892
G1 X87.055 Y50.653 E39.969
G1 X91.400 Y47.067 E40.645
G1 X92.379 Y47.140 E40.762
G1 X93.309 Y47.357 E40.877
G1 X94.143 Y47.707 E40.986
G1 X94.840 Y48.171 E41.086
G1 X95.364 Y48.727 E41.178
G1 X95.690 Y49.347 E41.262
G1 X95.800 Y50.000 E41.341
G1 X95.745 Y50.653 E41.420
G1 X95.582 Y51.273 E41.497
G1 X95.320 Y51.829 E41.571
G1 X94.972 Y52.293 E41.640
G1 X94.555 Y52.643 E41.706
G1 X94.090 Y52.860 E41.767
G1 X93.600 Y52.933 E41.827
G1 X93.110 Y52.860 E41.886
G1 X92.645 Y52.643 E41.948
G1 X92.228 Y52.293 E42.013
G1 X91.880 Y51.829 E42.083
G1 X91.618 Y51.273 E42.156
G1 X91.455 Y50.653 E42.233
G1 X95.800 Y47.067 E42.909
G1 X96.779 Y47.140 E43.027
G1 X97.709 Y47.357 E43.142
G1 X98.543 Y47.707 E43.250
G1 X99.240 Y48.171 E43.351
G1 X99.764 Y48.727 E43.442
G1 X100.090 Y49.347 E43.526
G1 X100.200 Y50.000 E43.606
G1 X100.145 Y50.653 E43.685
G1 X99.982 Y51.273 E43.761
G1 X99.720 Y51.829 E43.835
G1 X99.372 Y52.293 E43.905
G1 X98.955 Y52.643 E43.970
G1 X98.490 Y52.860 E44.032
G1 X98.000 Y52.933 E44.091
G1 X97.510 Y52.860 E44.151
G1 X97.045 Y52.643 E44.212
G1 X96.628 Y52.293 E44.278
G1 X96.280 Y51.829 E44.347
G1 X96.018 Y51.273 E44.421
G1 X95.855 Y50.653 E44.498
G1 X100.200 Y47.067 E45.174
G1 X101.179 Y47.140 E45.292
G1 X102.109 Y47.357 E45.406
G1 X102.943 Y47.707 E45.515
G1 X103.640 Y48.171 E45.615
G1 X104.164 Y48.727 E45.707
G1 X104.490 Y49.347 E45.791
G1 X104.600 Y50.000 E45.870
G1 X104.545 Y50.653 E45.949
G1 X104.382 Y51.273 E46.026
G1 X104.120 Y51.829 E46.100
G1 X103.772 Y52.293 E46.169
G1 X103.355 Y52.643 E46.235
G1 X102.890 Y52.860 E46.296
G1 X102.400 Y52.933 E46.356
G1 X101.910 Y52.860 E46.415
G1 X101.445 Y52.643 E46.477
G1 X101.028 Y52.293 E46.542
G1 X100.680 Y51.829 E46.612
G1 X100.418 Y51.273 E46.685
G1 X100.255 Y50.653 E46.762
G1 X104.600 Y47.067 E47.438
G1 X105.579 Y47.140 E47.556
G1 X106.509 Y47.357 E47.671
G1 X107.343 Y47.707 E47.779
G1 X108.040 Y48.171 E47.880
G1 X108.564 Y48.727 E47.972
G1 X108.890 Y49.347 E48.056
G1 X109.000 Y50.000 E48.135
G1 X108.945 Y50.653 E48.214
G1 X108.782 Y51.273 E48.291
G1 X108.520 Y51.829 E48.364
G1 X108.172 Y52.293 E48.434
G1 X107.755 Y52.643 E48.499
G1 X107.290 Y52.860 E48.561
G1 X106.800 Y52.933 E48.620
G1 X106.310 Y52.860 E48.680
G1 X105.845 Y52.643 E48.741
G1 X105.428 Y52.293 E48.807
G1 X105.080 Y51.829 E48.876
G1 X104.818 Y51.273 E48.950
G1 X104.655 Y50.653 E49.027
G1 X109.000 Y47.067 E49.703
G1 X109.979 Y47.140 E49.821
G1 X110.909 Y47.357 E49.935
G1 X111.743 Y47.707 E50.044
G1 X112.440 Y48.171 E50.144
G1 X112.964 Y48.727 E50.236
G1 X113.290 Y49.347 E50.320
G1 X113.400 Y50.000 E50.400
G1 X113.345 Y50.653 E50.478
G1 X113.182 Y51.273 E50.555
G1 X112.920 Y51.829 E50.629
G1 X112.572 Y52.293 E50.699
G1 X112.155 Y52.643 E50.764
G1 X111.690 Y52.860 E50.825
G1 X111.200 Y52.933 E50.885
G1 X110.710 Y52.860 E50.944
G1 X110.245 Y52.643 E51.006
G1 X109.828 Y52.293 E51.071
G1 X109.480 Y51.829 E51.141
G1 X109.218 Y51.273 E51.215
G1 X109.055 Y50.653 E51.292
G1 X113.400 Y47.067 E51.968
G1 X114.379 Y47.140 E52.085
G1 X115.309 Y47.357 E52.200
G1 X116.143 Y47.707 E52.309
G1 X116.840 Y48.171 E52.409
G1 X117.364 Y48.727 E52.501
G1 X117.690 Y49.347 E52.585
G1 X117.800 Y50.000 E52.664
G1 X117.745 Y50.653 E52.743
G1 X117.582 Y51.273 E52.820
G1 X117.320 Y51.829 E52.894
G1 X116.972 Y52.293 E52.963
G1 X116.555 Y52.643 E53.028
G1 X116.090 Y52.860 E53.090
G1 X115.600 Y52.933 E53.149
G1 X115.110 Y52.860 E53.209
G1 X114.645 Y52.643 E53.271
G1 X114.228 Y52.293 E53.336
G1 X113.880 Y51.829 E53.405
G1 X113.618 Y51.273 E53.479
G1 X113.455 Y50.653 E53.556
G1 X117.800 Y47.067 E54.232
G1 X118.779 Y47.140 E54.350
G1 X119.709 Y47.357 E54.465
G1 X120.543 Y47.707 E54.573
G1 X121.240 Y48.171 E54.674
G1 X121.764 Y48.727 E54.765
G1 X122.090 Y49.347 E54.849
G1 X122.200 Y50.000 E54.929
G1 X122.145 Y50.653 E55.007
G1 X121.982 Y51.273 E55.084
G1 X121.720 Y51.829 E55.158
G1 X121.372 Y52.293 E55.228
G1 X120.955 Y52.643 E55.293
G1 X120.490 Y52.860 E55.355
G1 X120.000 Y52.933 E55.414
G1 X119.510 Y52.860 E55.474
G1 X119.045 Y52.643 E55.535
G1 X118.628 Y52.293 E55.600
G1 X118.280 Y51.829 E55.670
G1 X118.018 Y51.273 E55.744
G1 X117.855 Y50.653 E55.821
G1 X122.200 Y47.067 E56.497
G1 X123.179 Y47.140 E56.615
G1 X124.109 Y47.357 E56.729
G1 X124.943 Y47.707 E56.838
G1 X125.640 Y48.171 E56.938
G1 X126.164 Y48.727 E57.030
G1 X126.490 Y49.347 E57.114
G1 X126.600 Y50.000 E57.193
G1 X126.545 Y50.653 E57.272
G1 X126.382 Y51.273 E57.349
G1 X126.120 Y51.829 E57.423
G1 X125.772 Y52.293 E57.492
G1 X125.355 Y52.643 E57.558
G1 X124.890 Y52.860 E57.619
G1 X124.400 Y52.933 E57.679
G1 X123.910 Y52.860 E57.738
G1 X123.445 Y52.643 E57.800
G1 X123.028 Y52.293 E57.865
G1 X122.680 Y51.829 E57.935
G1 X122.418 Y51.273 E58.008
G1 X122.255 Y50.653 E58.085
G1 X126.600 Y47.067 E58.761
G1 X127.579 Y47.140 E58.879
G1 X128.509 Y47.357 E58.994
G1 X129.343 Y47.707 E59.102
G1 X130.040 Y48.171 E59.203
G1 X130.564 Y48.727 E59.294
G1 X130.890 Y49.347 E59.378
G1 X131.000 Y50.000 E59.458
G1 X130.945 Y50.653 E59.537
G1 X130.782 Y51.273 E59.614
G1 X130.520 Y51.829 E59.687
G1 X130.172 Y52.293 E59.757
G1 X129.755 Y52.643 E59.822
G1 X129.290 Y52.860 E59.884
G1 X128.800 Y52.933 E59.943
G1 X128.310 Y52.860 E60.003
G1 X127.845 Y52.643 E60.064
G1 X127.428 Y52.293 E60.130
G1 X127.080 Y51.829 E60.199
G1 X126.818 Y51.273 E60.273
G1 X126.655 Y50.653 E60.350
G1 X131.000 Y47.067 E61.026
G1 X131.979 Y47.140 E61.144
G1 X132.909 Y47.357 E61.258
G1 X133.743 Y47.707 E61.367
G1 X134.440 Y48.171 E61.467
G1 X134.964 Y48.727 E61.559
G1 X135.290 Y49.347 E61.643
G1 X135.400 Y50.000 E61.723
G1 X135.345 Y50.653 E61.801
G1 X135.182 Y51.273 E61.878
G1 X134.920 Y51.829 E61.952
G1 X134.572 Y52.293 E62.021
G1 X134.155 Y52.643 E62.087
G1 X133.690 Y52.860 E62.148
G1 X133.200 Y52.933 E62.208
G1 X132.710 Y52.860 E62.267
G1 X132.245 Y52.643 E62.329
G1 X131.828 Y52.293 E62.394
G1 X131.480 Y51.829 E62.464
G1 X131.218 Y51.273 E62.538
G1 X131.055 Y50.653 E62.614
G1 X135.400 Y47.067 E63.290
G1 X136.379 Y47.140 E63.408
G1 X137.309 Y47.357 E63.523
G1 X138.143 Y47.707 E63.631
G1 X138.840 Y48.171 E63.732
G1 X139.364 Y48.727 E63.824
G1 X139.690 Y49.347 E63.908
G1 X139.800 Y50.000 E63.987
G1 X139.745 Y50.653 E64.066
G1 X139.582 Y51.273 E64.143
G1 X139.320 Y51.829 E64.216
G1 X138.972 Y52.293 E64.286
G1 X138.555 Y52.643 E64.351
G1 X138.090 Y52.860 E64.413
G1 X137.600 Y52.933 E64.472
G1 X137.110 Y52.860 E64.532
G1 X136.645 Y52.643 E64.593
G1 X136.228 Y52.293 E64.659
G1 X135.880 Y51.829 E64.728
G1 X135.618 Y51.273 E64.802
G1 X135.455 Y50.653 E64.879
G1 X139.800 Y47.067 E65.555
G1 X140.779 Y47.140 E65.673
G1 X141.709 Y47.357 E65.787
G1 X142.543 Y47.707 E65.896
G1 X143.240 Y48.171 E65.997
G1 X143.764 Y48.727 E66.088
G1 X144.090 Y49.347 E66.172
G1 X144.200 Y50.000 E66.252
G1 X144.145 Y50.653 E66.330
G1 X143.982 Y51.273 E66.407
G1 X143.720 Y51.829 E66.481
G1 X143.372 Y52.293 E66.551
G1 X142.955 Y52.643 E66.616
G1 X142.490 Y52.860 E66.678
G1 X142.000 Y52.933 E66.737
G1 X141.510 Y52.860 E66.796
G1 X141.045 Y52.643 E66.858
G1 X140.628 Y52.293 E66.923
G1 X140.280 Y51.829 E66.993
G1 X140.018 Y51.273 E67.067
G1 X139.855 Y50.653 E67.144
G1 X144.200 Y47.067 E67.820
G1 X145.179 Y47.140 E67.937
G1 X146.109 Y47.357 E68.052
G1 X146.943 Y47.707 E68.161
G1 X147.640 Y48.171 E68.261
G1 X148.164 Y48.727 E68.353
G1 X148.490 Y49.347 E68.437
G1 X148.600 Y50.000 E68.516
G1 X148.545 Y50.653 E68.595
G1 X148.382 Y51.273 E68.672
G1 X148.120 Y51.829 E68.746
G1 X147.772 Y52.293 E68.815
G1 X147.355 Y52.643 E68.881
G1 X146.890 Y52.860 E68.942
G1 X146.400 Y52.933 E69.002
G1 X145.910 Y52.860 E69.061
G1 X145.445 Y52.643 E69.123
G1 X145.028 Y52.293 E69.188
G1 X144.680 Y51.829 E69.258
G1 X144.418 Y51.273 E69.331
G1 X144.255 Y50.653 E69.408
G1 X148.600 Y47.067 E70.084
G1 X149.579 Y47.140 E70.202
G1 X150.509 Y47.357 E70.317
G1 X151.343 Y47.707 E70.425
G1 X152.040 Y48.171 E70.526
G1 X152.564 Y48.727 E70.617
G1 X152.890 Y49.347 E70.701
G1 X153.000 Y50.000 E70.781
G1 X152.945 Y50.653 E70.860
G1 X152.782 Y51.273 E70.936
G1 X152.520 Y51.829 E71.010
G1 X152.172 Y52.293 E71.080
G1 X151.755 Y52.643 E71.145
G1 X151.290 Y52.860 E71.207
G1 X150.800 Y52.933 E71.266
G1 X150.310 Y52.860 E71.326
G1 X149.845 Y52.643 E71.387
G1 X149.428 Y52.293 E71.453
G1 X149.080 Y51.829 E71.522
G1 X148.818 Y51.273 E71.596
G1 X148.655 Y50.653 E71.673
G1 X153.000 Y47.067 E72.349
G1 X153.979 Y47.140 E72.467
G1 X154.909 Y47.357 E72.581
G1 X155.743 Y47.707 E72.690
G1 X156.440 Y48.171 E72.790
G1 X156.964 Y48.727 E72.882
G1 X157.290 Y49.347 E72.966
G1 X157.400 Y50.000 E73.045
G1 X157.345 Y50.653 E73.124
G1 X157.182 Y51.273 E73.201
G1 X156.920 Y51.829 E73.275
G1 X156.572 Y52.293 E73.344
G1 X156.155 Y52.643 E73.410
G1 X155.690 Y52.860 E73.471
G1 X155.200 Y52.933 E73.531
G1 X154.710 Y52.860 E73.590
G1 X154.245 Y52.643 E73.652
G1 X153.828 Y52.293 E73.717
G1 X153.480 Y51.829 E73.787
G1 X153.218 Y51.273 E73.860
G1 X153.055 Y50.653 E73.937
G1 X157.400 Y47.067 E74.613
G1 X158.379 Y47.140 E74.731
G1 X159.309 Y47.357 E74.846
G1 X160.143 Y47.707 E74.954
G1 X160.840 Y48.171 E75.055
G1 X161.364 Y48.727 E75.147
G1 X161.690 Y49.347 E75.231
G1 X161.800 Y50.000 E75.310
G1 X161.745 Y50.653 E75.389
G1 X161.582 Y51.273 E75.466
G1 X161.320 Y51.829 E75.539
G1 X160.972 Y52.293 E75.609
G1 X160.555 Y52.643 E75.674
G1 X160.090 Y52.860 E75.736
G1 X159.600 Y52.933 E75.795
G1 X159.110 Y52.860 E75.855
G1 X158.645 Y52.643 E75.916
G1 X158.228 Y52.293 E75.982
G1 X157.880 Y51.829 E76.051
G1 X157.618 Y51.273 E76.125
G1 X157.455 Y50.653 E76.202
G1 X161.800 Y47.067 E76.878
G1 X162.779 Y47.140 E76.996
G1 X163.709 Y47.357 E77.110
G1 X164.543 Y47.707 E77.219
G1 X165.240 Y48.171 E77.319
G1 X165.764 Y48.727 E77.411
G1 X166.090 Y49.347 E77.495
G1 X166.200 Y50.000 E77.575
G1 X166.145 Y50.653 E77.653
G1 X165.982 Y51.273 E77.730
G1 X165.720 Y51.829 E77.804
G1 X165.372 Y52.293 E77.874
G1 X164.955 Y52.643 E77.939
G1 X164.490 Y52.860 E78.000
G1 X164.000 Y52.933 E78.060
G1 X163.510 Y52.860 E78.119
G1 X163.045 Y52.643 E78.181
G1 X162.628 Y52.293 E78.246
G1 X162.280 Y51.829 E78.316
G1 X162.018 Y51.273 E78.390
G1 X161.855 Y50.653 E78.467
G1 X166.200 Y47.067 E79.143
G1 X167.179 Y47.140 E79.260
G1 X168.109 Y47.357 E79.375
G1 X168.943 Y47.707 E79.484
G1 X169.640 Y48.171 E79.584
G1 X170.164 Y48.727 E79.676
G1 X170.490 Y49.347 E79.760
G1 X170.600 Y50.000 E79.839
G1 X170.545 Y50.653 E79.918
G1 X170.382 Y51.273 E79.995
G1 X170.120 Y51.829 E80.069
G1 X169.772 Y52.293 E80.138
G1 X169.355 Y52.643 E80.203
G1 X168.890 Y52.860 E80.265
G1 X168.400 Y52.933 E80.324
G1 X167.910 Y52.860 E80.384
G1 X167.445 Y52.643 E80.446
G1 X167.028 Y52.293 E80.511
G1 X166.680 Y51.829 E80.580
G1 X166.418 Y51.273 E80.654
G1 X166.255 Y50.653 E80.731
G1 X170.600 Y47.067 E81.407
G1 X171.579 Y47.140 E81.525
G1 X172.509 Y47.357 E81.640
G1 X173.343 Y47.707 E81.748
G1 X174.040 Y48.171 E81.849
G1 X174.564 Y48.727 E81.940
G1 X174.890 Y49.347 E82.024
G1 X175.000 Y50.000 E82.104
G1 X174.945 Y50.653 E82.182
G1 X174.782 Y51.273 E82.259
G1 X174.520 Y51.829 E82.333
G1 X174.172 Y52.293 E82.403
G1 X173.755 Y52.643 E82.468
G1 X173.290 Y52.860 E82.530
G1 X172.800 Y52.933 E82.589
G1 X172.310 Y52.860 E82.649
G1 X171.845 Y52.643 E82.710
G1 X171.428 Y52.293 E82.775
G1 X171.080 Y51.829 E82.845
G1 X170.818 Y51.273 E82.919
G1 X170.655 Y50.653 E82.996
G1 X175.000 Y47.067 E83.672
G1 X175.979 Y47.140 E83.790
G1 X176.909 Y47.357 E83.904
G1 X177.743 Y47.707 E84.013
G1 X178.440 Y48.171 E84.113
G1 X178.964 Y48.727 E84.205
G1 X179.290 Y49.347 E84.289
G1 X179.400 Y50.000 E84.368
G1 X179.345 Y50.653 E84.447
G1 X179.182 Y51.273 E84.524
G1 X178.920 Y51.829 E84.598
G1 X178.572 Y52.293 E84.667
G1 X178.155 Y52.643 E84.733
G1 X177.690 Y52.860 E84.794
G1 X177.200 Y52.933 E84.854
G1 X176.710 Y52.860 E84.913
G1 X176.245 Y52.643 E84.975
G1 X175.828 Y52.293 E85.040
G1 X175.480 Y51.829 E85.110
G1 X175.218 Y51.273 E85.183
G1 X175.055 Y50.653 E85.260
G1 X179.400 Y47.067 E85.936
G1 X180.379 Y47.140 E86.054
G1 X181.309 Y47.357 E86.169
G1 X182.143 Y47.707 E86.277
G1 X182.840 Y48.171 E86.378
G1 X183.364 Y48.727 E86.469
G1 X183.690 Y49.347 E86.553
G1 X183.800 Y50.000 E86.633
G1 X183.745 Y50.653 E86.712
G1 X183.582 Y51.273 E86.789
G1 X183.320 Y51.829 E86.862
G1 X182.972 Y52.293 E86.932
G1 X182.555 Y52.643 E86.997
G1 X182.090 Y52.860 E87.059
G1 X181.600 Y52.933 E87.118
G1 X181.110 Y52.860 E87.178
G1 X180.645 Y52.643 E87.239
G1 X180.228 Y52.293 E87.305
G1 X179.880 Y51.829 E87.374
G1 X179.618 Y51.273 E87.448
G1 X179.455 Y50.653 E87.525
G1 X183.800 Y47.067 E88.201
G1 X184.779 Y47.140 E88.319
G1 X185.709 Y47.357 E88.433
G1 X186.543 Y47.707 E88.542
G1 X187.240 Y48.171 E88.642
G1 X187.764 Y48.727 E88.734
G1 X188.090 Y49.347 E88.818
G1 X188.200 Y50.000 E88.898
G1 X188.145 Y50.653 E88.976
G1 X187.982 Y51.273 E89.053
G1 X187.720 Y51.829 E89.127
G1 X187.372 Y52.293 E89.196
G1 X186.955 Y52.643 E89.262
G1 X186.490 Y52.860 E89.323
G1 X186.000 Y52.933 E89.383
G1 X185.510 Y52.860 E89.442
G1 X185.045 Y52.643 E89.504
G1 X184.628 Y52.293 E89.569
G1 X184.280 Y51.829 E89.639
G1 X184.018 Y51.273 E89.713
G1 X183.855 Y50.653 E89.789
G1 X188.200 Y47.067 E90.465
G1 X188.200 Y48.533 E90.641
G1 X187.710 Y48.607 E90.701
G1 X187.245 Y48.824 E90.762
G1 X186.828 Y49.173 E90.828
G1 X186.480 Y49.638 E90.897
G1 X186.218 Y50.194 E90.971
G1 X186.055 Y50.814 E91.048
G1 X188.145 Y55.053 E91.615
G1 X187.982 Y55.673 E91.692
G1 X187.720 Y56.229 E91.766
G1 X187.372 Y56.693 E91.836
G1 X186.955 Y57.043 E91.901
G1 X186.490 Y57.260 E91.962
G1 X186.000 Y57.333 E92.022
G1 X185.510 Y57.260 E92.081
G1 X185.045 Y57.043 E92.143
G1 X184.628 Y56.693 E92.208
G1 X184.280 Y56.229 E92.278
G1 X184.018 Y55.673 E92.352
G1 X183.855 Y55.053 E92.429
G1 X185.945 Y50.814 E92.996
G1 X185.782 Y50.194 E93.073
G1 X185.520 Y49.638 E93.146
G1 X185.172 Y49.173 E93.216
G1 X184.755 Y48.824 E93.281
G1 X184.290 Y48.607 E93.343
G1 X183.800 Y48.533 E93.402
G1 X183.800 Y48.533 E93.402
G1 X183.310 Y48.607 E93.462
G1 X182.845 Y48.824 E93.523
G1 X182.428 Y49.173 E93.589
G1 X182.080 Y49.638 E93.658
G1 X181.818 Y50.194 E93.732
G1 X181.655 Y50.814 E93.809
G1 X183.745 Y55.053 E94.376
G1 X183.582 Y55.673 E94.453
G1 X183.320 Y56.229 E94.527
G1 X182.972 Y56.693 E94.596
G1 X182.555 Y57.043 E94.662
G1 X182.090 Y57.260 E94.723
G1 X181.600 Y57.333 E94.783
G1 X181.110 Y57.260 E94.842
G1 X180.645 Y57.043 E94.904
G1 X180.228 Y56.693 E94.969
G1 X179.880 Y56.229 E95.039
G1 X179.618 Y55.673 E95.113
G1 X179.455 Y55.053 E95.189
G1 X181.545 Y50.814 E95.757
G1 X181.382 Y50.194 E95.834
G1 X181.120 Y49.638 E95.907
G1 X180.772 Y49.173 E95.977
G1 X180.355 Y48.824 E96.042
G1 X179.890 Y48.607 E96.104
G1 X179.400 Y48.533 E96.163
G1 X179.400 Y48.533 E96.163
G1 X178.910 Y48.607 E96.223
G1 X178.445 Y48.824 E96.284
G1 X178.028 Y49.173 E96.350
G1 X177.680 Y49.638 E96.419
G1 X177.418 Y50.194 E96.493
G1 X177.255 Y50.814 E96.570
G1 X179.345 Y55.053 E97.137
G1 X179.182 Y55.673 E97.214
G1 X178.920 Y56.229 E97.288
G1 X178.572 Y56.693 E97.357
G1 X178.155 Y57.043 E97.423
G1 X177.690 Y57.260 E97.484
G1 X177.200 Y57.333 E97.544
G1 X176.710 Y57.260 E97.603
G1 X176.245 Y57.043 E97.665
G1 X175.828 Y56.693 E97.730
G1 X175.480 Y56.229 E97.800
G1 X175.218 Y55.673 E97.873
G1 X175.055 Y55.053 E97.950
G1 X177.145 Y50.814 E98.518
G1 X176.982 Y50.194 E98.594
G1 X176.720 Y49.638 E98.668
G1 X176.372 Y49.173 E98.738
G1 X175.955 Y48.824 E98.803
G1 X175.490 Y48.607 E98.865
G1 X175.000 Y48.533 E98.924
G1 X175.000 Y48.533 E98.924
G1 X174.510 Y48.607 E98.984
G1 X174.045 Y48.824 E99.045
G1 X173.628 Y49.173 E99.110
G1 X173.280 Y49.638 E99.180
G1 X173.018 Y50.194 E99.254
G1 X172.855 Y50.814 E99.331
G1 X174.945 Y55.053 E99.898
G1 X174.782 Y55.673 E99.975
G1 X174.520 Y56.229 E100.049
G1 X174.172 Y56.693 E100.118
G1 X173.755 Y57.043 E100.184
G1 X173.290 Y57.260 E100.245
G1 X172.800 Y57.333 E100.305
G1 X172.310 Y57.260 E100.364
G1 X171.845 Y57.043 E100.426
G1 X171.428 Y56.693 E100.491
G1 X171.080 Y56.229 E100.561
G1 X170.818 Y55.673 E100.634
G1 X170.655 Y55.053 E100.711
G1 X172.745 Y50.814 E101.278
G1 X172.582 Y50.194 E101.355
G1 X172.320 Y49.638 E101.429
G1 X171.972 Y49.173 E101.499
G1 X171.555 Y48.824 E101.564
G1 X171.090 Y48.607 E101.626
G1 X170.600 Y48.533 E101.685
G1 X170.600 Y48.533 E101.685
G1 X170.110 Y48.607 E101.745
G1 X169.645 Y48.824 E101.806
G1 X169.228 Y49.173 E101.871
G1 X168.880 Y49.638 E101.941
G1 X168.618 Y50.194 E102.015
G1 X168.455 Y50.814 E102.092
G1 X170.545 Y55.053 E102.659
G1 X170.382 Y55.673 E102.736
G1 X170.120 Y56.229 E102.810
G1 X169.772 Y56.693 E102.879
G1 X169.355 Y57.043 E102.945
G1 X168.890 Y57.260 E103.006
G1 X168.400 Y57.333 E103.066
G1 X167.910 Y57.260 E103.125
G1 X167.445 Y57.043 E103.187
G1 X167.028 Y56.693 E103.252
G1 X166.680 Y56.229 E103.322
G1 X166.418 Y55.673 E103.395
G1 X166.255 Y55.053 E103.472
G1 X168.345 Y50.814 E104.039
G1 X168.182 Y50.194 E104.116
G1 X167.920 Y49.638 E104.190
G1 X167.572 Y49.173 E104.260
G1 X167.155 Y48.824 E104.325
G1 X166.690 Y48.607 E104.387
G1 X166.200 Y48.533 E104.446
G1 X166.200 Y48.533 E104.446
G1 X165.710 Y48.607 E104.506
G1 X165.245 Y48.824 E104.567
G1 X164.828 Y49.173 E104.632
G1 X164.480 Y49.638 E104.702
G1 X164.218 Y50.194 E104.776
G1 X164.055 Y50.814 E104.853
G1 X166.145 Y55.053 E105.420
G1 X165.982 Y55.673 E105.497
G1 X165.720 Y56.229 E105.571
G1 X165.372 Y56.693 E105.640
G1 X164.955 Y57.043 E105.706
G1 X164.490 Y57.260 E105.767
G1 X164.000 Y57.333 E105.827
G1 X163.510 Y57.260 E105.886
G1 X163.045 Y57.043 E105.948
G1 X162.628 Y56.693 E106.013
G1 X162.280 Y56.229 E106.082
G1 X162.018 Y55.673 E106.156
G1 X161.855 Y55.053 E106.233
G1 X163.945 Y50.814 E106.800
G1 X163.782 Y50.194 E106.877
G1 X163.520 Y49.638 E106.951
G1 X163.172 Y49.173 E107.021
G1 X162.755 Y48.824 E107.086
G1 X162.290 Y48.607 E107.148
G1 X161.800 Y48.533 E107.207
G1 X161.800 Y48.533 E107.207
G1 X161.310 Y48.607 E107.266
G1 X160.845 Y48.824 E107.328
G1 X160.428 Y49.173 E107.393
G1 X160.080 Y49.638 E107.463
G1 X159.818 Y50.194 E107.537
G1 X159.655 Y50.814 E107.614
G1 X161.745 Y55.053 E108.181
G1 X161.582 Y55.673 E108.258
G1 X161.320 Y56.229 E108.332
G1 X160.972 Y56.693 E108.401
G1 X160.555 Y57.043 E108.466
G1 X160.090 Y57.260 E108.528
G1 X159.600 Y57.333 E108.587
G1 X159.110 Y57.260 E108.647
G1 X158.645 Y57.043 E108.708
G1 X158.228 Y56.693 E108.774
G1 X157.880 Y56.229 E108.843
G1 X157.618 Y55.673 E108.917
G1 X157.455 Y55.053 E108.994
G1 X159.545 Y50.814 E109.561
G1 X159.382 Y50.194 E109.638
G1 X159.120 Y49.638 E109.712
G1 X158.772 Y49.173 E109.782
G1 X158.355 Y48.824 E109.847
G1 X157.890 Y48.607 E109.908
G1 X157.400 Y48.533 E109.968
G1 X157.400 Y48.533 E109.968
G1 X156.910 Y48.607 E110.027
G1 X156.445 Y48.824 E110.089
G1 X156.028 Y49.173 E110.154
G1 X155.680 Y49.638 E110.224
G1 X155.418 Y50.194 E110.298
G1 X155.255 Y50.814 E110.375
G1 X157.345 Y55.053 E110.942
G1 X157.182 Y55.673 E111.019
G1 X156.920 Y56.229 E111.092
G1 X156.572 Y56.693 E111.162
G1 X156.155 Y57.043 E111.227
G1 X155.690 Y57.260 E111.289
G1 X155.200 Y57.333 E111.348
G1 X154.710 Y57.260 E111.408
G1 X154.245 Y57.043 E111.469
G1 X153.828 Y56.693 E111.535
G1 X153.480 Y56.229 E111.604
G1 X153.218 Y55.673 E111.678
G1 X153.055 Y55.053 E111.755
G1 X155.145 Y50.814 E112.322
G1 X154.982 Y50.194 E112.399
G1 X154.720 Y49.638 E112.473
G1 X154.372 Y49.173 E112.543
G1 X153.955 Y48.824 E112.608
G1 X153.490 Y48.607 E112.669
G1 X153.000 Y48.533 E112.729
G1 X153.000 Y48.533 E112.729
G1 X152.510 Y48.607 E112.788
G1 X152.045 Y48.824 E112.850
G1 X151.628 Y49.173 E112.915
G1 X151.280 Y49.638 E112.985
G1 X151.018 Y50.194 E113.059
G1 X150.855 Y50.814 E113.136
G1 X152.945 Y55.053 E113.703
G1 X152.782 Y55.673 E113.780
G1 X152.520 Y56.229 E113.853
G1 X152.172 Y56.693 E113.923
G1 X151.755 Y57.043 E113.988
G1 X151.290 Y57.260 E114.050
G1 X150.800 Y57.333 E114.109
G1 X150.310 Y57.260 E114.169
G1 X149.845 Y57.043 E114.230
G1 X149.428 Y56.693 E114.296
G1 X149.080 Y56.229 E114.365
G1 X148.818 Y55.673 E114.439
G1 X148.655 Y55.053 E114.516
G1 X150.745 Y50.814 E115.083
G1 X150.582 Y50.194 E115.160
G1 X150.320 Y49.638 E115.234
G1 X149.972 Y49.173 E115.303
G1 X149.555 Y48.824 E115.369
G1 X149.090 Y48.607 E115.430
G1 X148.600 Y48.533 E115.490
G1 X148.600 Y48.533 E115.490
G1 X148.110 Y48.607 E115.549
G1 X147.645 Y48.824 E115.611
G1 X147.228 Y49.173 E115.676
G1 X146.880 Y49.638 E115.746
G1 X146.618 Y50.194 E115.820
G1 X146.455 Y50.814 E115.896
G1 X148.545 Y55.053 E116.464
G1 X148.382 Y55.673 E116.541
G1 X148.120 Y56.229 E116.614
G1 X147.772 Y56.693 E116.684
G1 X147.355 Y57.043 E116.749
G1 X146.890 Y57.260 E116.811
G1 X146.400 Y57.333 E116.870
G1 X145.910 Y57.260 E116.930
G1 X145.445 Y57.043 E116.991
G1 X145.028 Y56.693 E117.057
G1 X144.680 Y56.229 E117.126
G1 X144.418 Y55.673 E117.200
G1 X144.255 Y55.053 E117.277
G1 X146.345 Y50.814 E117.844
G1 X146.182 Y50.194 E117.921
G1 X145.920 Y49.638 E117.995
G1 X145.572 Y49.173 E118.064
G1 X145.155 Y48.824 E118.130
G1 X144.690 Y48.607 E118.191
G1 X144.200 Y48.533 E118.251
G1 X144.200 Y48.533 E118.251
G1 X143.710 Y48.607 E118.310
G1 X143.245 Y48.824 E118.372
G1 X142.828 Y49.173 E118.437
G1 X142.480 Y49.638 E118.507
G1 X142.218 Y50.194 E118.580
G1 X142.055 Y50.814 E118.657
G1 X144.145 Y55.053 E119.225
G1 X143.982 Y55.673 E119.301
G1 X143.720 Y56.229 E119.375
G1 X143.372 Y56.693 E119.445
G1 X142.955 Y57.043 E119.510
G1 X142.490 Y57.260 E119.572
G1 X142.000 Y57.333 E119.631
G1 X141.510 Y57.260 E119.691
G1 X141.045 Y57.043 E119.752
G1 X140.628 Y56.693 E119.818
G1 X140.280 Y56.229 E119.887
G1 X140.018 Y55.673 E119.961
G1 X139.855 Y55.053 E120.038
G1 X141.945 Y50.814 E120.605
G1 X141.782 Y50.194 E120.682
G1 X141.520 Y49.638 E120.756
G1 X141.172 Y49.173 E120.825
G1 X140.755 Y48.824 E120.891
G1 X140.290 Y48.607 E120.952
G1 X139.800 Y48.533 E121.012
G1 X139.800 Y48.533 E121.012
G1 X139.310 Y48.607 E121.071
G1 X138.845 Y48.824 E121.133
G1 X138.428 Y49.173 E121.198
G1 X138.080 Y49.638 E121.268
G1 X137.818 Y50.194 E121.341
G1 X137.655 Y50.814 E121.418
G1 X139.745 Y55.053 E121.985
G1 X139.582 Y55.673 E122.062
G1 X139.320 Y56.229 E122.136
G1 X138.972 Y56.693 E122.206
G1 X138.555 Y57.043 E122.271
G1 X138.090 Y57.260 E122.333
G1 X137.600 Y57.333 E122.392
G1 X137.110 Y57.260 E122.452
G1 X136.645 Y57.043 E122.513
G1 X136.228 Y56.693 E122.578
G1 X135.880 Y56.229 E122.648
G1 X135.618 Y55.673 E122.722
G1 X135.455 Y55.053 E122.799
G1 X137.545 Y50.814 E123.366
G1 X137.382 Y50.194 E123.443
G1 X137.120 Y49.638 E123.517
G1 X136.772 Y49.173 E123.586
G1 X136.355 Y48.824 E123.652
G1 X135.890 Y48.607 E123.713
G1 X135.400 Y48.533 E123.773
G1 X135.400 Y48.533 E123.773
G1 X134.910 Y48.607 E123.832
G1 X134.445 Y48.824 E123.894
G1 X134.028 Y49.173 E123.959
G1 X133.680 Y49.638 E124.029
G1 X133.418 Y50.194 E124.102
G1 X133.255 Y50.814 E124.179
G1 X135.345 Y55.053 E124.746
G1 X135.182 Y55.673 E124.823
G1 X134.920 Y56.229 E124.897
G1 X134.572 Y56.693 E124.967
G1 X134.155 Y57.043 E125.032
G1 X133.690 Y57.260 E125.094
G1 X133.200 Y57.333 E125.153
G1 X132.710 Y57.260 E125.212
G1 X132.245 Y57.043 E125.274
G1 X131.828 Y56.693 E125.339
G1 X131.480 Y56.229 E125.409
G1 X131.218 Y55.673 E125.483
G1 X131.055 Y55.053 E125.560
G1 X133.145 Y50.814 E126.127
G1 X132.982 Y50.194 E126.204
G1 X132.720 Y49.638 E126.278
G1 X132.372 Y49.173 E126.347
G1 X131.955 Y48.824 E126.412
G1 X131.490 Y48.607 E126.474
G1 X131.000 Y48.533 E126.534
G1 X131.000 Y48.533 E126.534
G1 X130.510 Y48.607 E126.593
G1 X130.045 Y48.824 E126.655
G1 X129.628 Y49.173 E126.720
G1 X129.280 Y49.638 E126.789
G1 X129.018 Y50.194 E126.863
G1 X128.855 Y50.814 E126.940
G1 X130.945 Y55.053 E127.507
G1 X130.782 Y55.673 E127.584
G1 X130.520 Y56.229 E127.658
G1 X130.172 Y56.693 E127.728
G1 X129.755 Y57.043 E127.793
G1 X129.290 Y57.260 E127.855
G1 X128.800 Y57.333 E127.914
G1 X128.310 Y57.260 E127.973
G1 X127.845 Y57.043 E128.035
G1 X127.428 Y56.693 E128.100
G1 X127.080 Y56.229 E128.170
G1 X126.818 Y55.673 E128.244
G1 X126.655 Y55.053 E128.321
G1 X128.745 Y50.814 E128.888
G1 X128.582 Y50.194 E128.965
G1 X128.320 Y49.638 E129.038
G1 X127.972 Y49.173 E129.108
G1 X127.555 Y48.824 E129.173
G1 X127.090 Y48.607 E129.235
G1 X126.600 Y48.533 E129.294
G1 X126.600 Y48.533 E129.294
G1 X126.110 Y48.607 E129.354
G1 X125.645 Y48.824 E129.415
G1 X125.228 Y49.173 E129.481
G1 X124.880 Y49.638 E129.550
G1 X124.618 Y50.194 E129.624
G1 X124.455 Y50.814 E129.701
G1 X126.545 Y55.053 E130.268
G1 X126.382 Y55.673 E130.345
G1 X126.120 Y56.229 E130.419
G1 X125.772 Y56.693 E130.489
G1 X125.355 Y57.043 E130.554
G1 X124.890 Y57.260 E130.615
G1 X124.400 Y57.333 E130.675
G1 X123.910 Y57.260 E130.734
G1 X123.445 Y57.043 E130.796
G1 X123.028 Y56.693 E130.861
G1 X122.680 Y56.229 E130.931
G1 X122.418 Y55.673 E131.005
G1 X122.255 Y55.053 E131.082
G1 X124.345 Y50.814 E131.649
G1 X124.182 Y50.194 E131.726
G1 X123.920 Y49.638 E131.799
G1 X123.572 Y49.173 E131.869
G1 X123.155 Y48.824 E131.934
G1 X122.690 Y48.607 E131.996
G1 X122.200 Y48.533 E132.055
G1 X122.200 Y48.533 E132.055
G1 X121.710 Y48.607 E132.115
G1 X121.245 Y48.824 E132.176
G1 X120.828 Y49.173 E132.242
G1 X120.480 Y49.638 E132.311
G1 X120.218 Y50.194 E132.385
G1 X120.055 Y50.814 E132.462
G1 X122.145 Y55.053 E133.029
G1 X121.982 Y55.673 E133.106
G1 X121.720 Y56.229 E133.180
G1 X121.372 Y56.693 E133.249
G1 X120.955 Y57.043 E133.315
G1 X120.490 Y57.260 E133.376
G1 X120.000 Y57.333 E133.436
G1 X119.510 Y57.260 E133.495
G1 X119.045 Y57.043 E133.557
G1 X118.628 Y56.693 E133.622
G1 X118.280 Y56.229 E133.692
G1 X118.018 Y55.673 E133.766
G1 X117.855 Y55.053 E133.842
G1 X119.945 Y50.814 E134.410
G1 X119.782 Y50.194 E134.487
G1 X119.520 Y49.638 E134.560
G1 X119.172 Y49.173 E134.630
G1 X118.755 Y48.824 E134.695
G1 X118.290 Y48.607 E134.757
G1 X117.800 Y48.533 E134.816
G1 X117.800 Y48.533 E134.816
G1 X117.310 Y48.607 E134.876
G1 X116.845 Y48.824 E134.937
G1 X116.428 Y49.173 E135.003
G1 X116.080 Y49.638 E135.072
G1 X115.818 Y50.194 E135.146
G1 X115.655 Y50.814 E135.223
G1 X117.745 Y55.053 E135.790
G1 X117.582 Y55.673 E135.867
G1 X117.320 Y56.229 E135.941
G1 X116.972 Y56.693 E136.010
G1 X116.555 Y57.043 E136.076
G1 X116.090 Y57.260 E136.137
G1 X115.600 Y57.333 E136.197
G1 X115.110 Y57.260 E136.256
G1 X114.645 Y57.043 E136.318
G1 X114.228 Y56.693 E136.383
G1 X113.880 Y56.229 E136.453
G1 X113.618 Y55.673 E136.526
G1 X113.455 Y55.053 E136.603
G1 X115.545 Y50.814 E137.171
G1 X115.382 Y50.194 E137.247
G1 X115.120 Y49.638 E137.321
G1 X114.772 Y49.173 E137.391
G1 X114.355 Y48.824 E137.456
G1 X113.890 Y48.607 E137.518
G1 X113.400 Y48.533 E137.577
G1 X113.400 Y48.533 E137.577
G1 X112.910 Y48.607 E137.637
G1 X112.445 Y48.824 E137.698
G1 X112.028 Y49.173 E137.764
G1 X111.680 Y49.638 E137.833
G1 X111.418 Y50.194 E137.907
G1 X111.255 Y50.814 E137.984
G1 X113.345 Y55.053 E138.551
G1 X113.182 Y55.673 E138.628
G1 X112.920 Y56.229 E138.702
G1 X112.572 Y56.693 E138.771
G1 X112.155 Y57.043 E138.837
G1 X111.690 Y57.260 E138.898
G1 X111.200 Y57.333 E138.958
G1 X110.710 Y57.260 E139.017
G1 X110.245 Y57.043 E139.079
G1 X109.828 Y56.693 E139.144
G1 X109.480 Y56.229 E139.214
G1 X109.218 Y55.673 E139.287
G1 X109.055 Y55.053 E139.364
G1 X111.145 Y50.814 E139.931
G1 X110.982 Y50.194 E140.008
G1 X110.720 Y49.638 E140.082
G1 X110.372 Y49.173 E140.152
G1 X109.955 Y48.824 E140.217
G1 X109.490 Y48.607 E140.279
G1 X109.000 Y48.533 E140.338
G1 X109.000 Y48.533 E140.338
G1 X108.510 Y48.607 E140.398
G1 X108.045 Y48.824 E140.459
G1 X107.628 Y49.173 E140.524
G1 X107.280 Y49.638 E140.594
G1 X107.018 Y50.194 E140.668
G1 X106.855 Y50.814 E140.745
G1 X108.945 Y55.053 E141.312
G1 X108.782 Y55.673 E141.389
G1 X108.520 Y56.229 E141.463
G1 X108.172 Y56.693 E141.532
G1 X107.755 Y57.043 E141.598
G1 X107.290 Y57.260 E141.659
G1 X106.800 Y57.333 E141.719
G1 X106.310 Y57.260 E141.778
G1 X105.845 Y57.043 E141.840
G1 X105.428 Y56.693 E141.905
G1 X105.080 Y56.229 E141.975
G1 X104.818 Y55.673 E142.048
G1 X104.655 Y55.053 E142.125
G1 X106.745 Y50.814 E142.692
G1 X106.582 Y50.194 E142.769
G1 X106.320 Y49.638 E142.843
G1 X105.972 Y49.173 E142.913
G1 X105.555 Y48.824 E142.978
G1 X105.090 Y48.607 E143.040
G1 X104.600 Y48.533 E143.099
G1 X104.600 Y48.533 E143.099
G1 X104.110 Y48.607 E143.159
G1 X103.645 Y48.824 E143.220
G1 X103.228 Y49.173 E143.285
G1 X102.880 Y49.638 E143.355
G1 X102.618 Y50.194 E143.429
G1 X102.455 Y50.814 E143.506
G1 X104.545 Y55.053 E144.073
G1 X104.382 Y55.673 E144.150
G1 X104.120 Y56.229 E144.224
G1 X103.772 Y56.693 E144.293
G1 X103.355 Y57.043 E144.359
G1 X102.890 Y57.260 E144.420
G1 X102.400 Y57.333 E144.480
G1 X101.910 Y57.260 E144.539
G1 X101.445 Y57.043 E144.601
G1 X101.028 Y56.693 E144.666
G1 X100.680 Y56.229 E144.736
G1 X100.418 Y55.673 E144.809
G1 X100.255 Y55.053 E144.886
G1 X102.345 Y50.814 E145.453
G1 X102.182 Y50.194 E145.530
G1 X101.920 Y49.638 E145.604
G1 X101.572 Y49.173 E145.674
G1 X101.155 Y48.824 E145.739
G1 X100.690 Y48.607 E145.801
G1 X100.200 Y48.533 E145.860
G1 X100.200 Y48.533 E145.860
G1 X99.710 Y48.607 E145.919
G1 X99.245 Y48.824 E145.981
G1 X98.828 Y49.173 E146.046
G1 X98.480 Y49.638 E146.116
G1 X98.218 Y50.194 E146.190
G1 X98.055 Y50.814 E146.267
G1 X100.145 Y55.053 E146.834
G1 X99.982 Y55.673 E146.911
G1 X99.720 Y56.229 E146.985
G1 X99.372 Y56.693 E147.054
G1 X98.955 Y57.043 E147.119
G1 X98.490 Y57.260 E147.181
G1 X98.000 Y57.333 E147.240
G1 X97.510 Y57.260 E147.300
G1 X97.045 Y57.043 E147.362
G1 X96.628 Y56.693 E147.427
G1 X96.280 Y56.229 E147.496
G1 X96.018 Y55.673 E147.570
G1 X95.855 Y55.053 E147.647
G1 X97.945 Y50.814 E148.214
G1 X97.782 Y50.194 E148.291
G1 X97.520 Y49.638 E148.365
G1 X97.172 Y49.173 E148.435
G1 X96.755 Y48.824 E148.500
G1 X96.290 Y48.607 E148.561
G1 X95.800 Y48.533 E148.621
G1 X95.800 Y48.533 E148.621
G1 X95.310 Y48.607 E148.680
G1 X94.845 Y48.824 E148.742
G1 X94.428 Y49.173 E148.807
G1 X94.080 Y49.638 E148.877
G1 X93.818 Y50.194 E148.951
G1 X93.655 Y50.814 E149.028
G1 X95.745 Y55.053 E149.595
G1 X95.582 Y55.673 E149.672
G1 X95.320 Y56.229 E149.745
G1 X94.972 Y56.693 E149.815
G1 X94.555 Y57.043 E149.880
G1 X94.090 Y57.260 E149.942
G1 X93.600 Y57.333 E150.001
G1 X93.110 Y57.260 E150.061
G1 X92.645 Y57.043 E150.122
G1 X92.228 Y56.693 E150.188
G1 X91.880 Y56.229 E150.257
G1 X91.618 Y55.673 E150.331
G1 X91.455 Y55.053 E150.408
G1 X93.545 Y50.814 E150.975
G1 X93.382 Y50.194 E151.052
G1 X93.120 Y49.638 E151.126
G1 X92.772 Y49.173 E151.196
G1 X92.355 Y48.824 E151.261
G1 X91.890 Y48.607 E151.322
G1 X91.400 Y48.533 E151.382
G1 X91.400 Y48.533 E151.382
G1 X90.910 Y48.607 E151.441
G1 X90.445 Y48.824 E151.503
G1 X90.028 Y49.173 E151.568
G1 X89.680 Y49.638 E151.638
G1 X89.418 Y50.194 E151.712
G1 X89.255 Y50.814 E151.789
G1 X91.345 Y55.053 E152.356
G1 X91.182 Y55.673 E152.433
G1 X90.920 Y56.229 E152.506
G1 X90.572 Y56.693 E152.576
G1 X90.155 Y57.043 E152.641
G1 X89.690 Y57.260 E152.703
G1 X89.200 Y57.333 E152.762
G1 X88.710 Y57.260 E152.822
G1 X88.245 Y57.043 E152.883
G1 X87.828 Y56.693 E152.949
G1 X87.480 Y56.229 E153.018
G1 X87.218 Y55.673 E153.092
G1 X87.055 Y55.053 E153.169
G1 X89.145 Y50.814 E153.736
G1 X88.982 Y50.194 E153.813
G1 X88.720 Y49.638 E153.887
G1 X88.372 Y49.173 E153.957
G1 X87.955 Y48.824 E154.022
G1 X87.490 Y48.607 E154.083
G1 X87.000 Y48.533 E154.143
G1 X87.000 Y48.533 E154.143
G1 X86.510 Y48.607 E154.202
G1 X86.045 Y48.824 E154.264
G1 X85.628 Y49.173 E154.329
G1 X85.280 Y49.638 E154.399
G1 X85.018 Y50.194 E154.473
G1 X84.855 Y50.814 E154.549
G1 X86.945 Y55.053 E155.117
G1 X86.782 Y55.673 E155.194
G1 X86.520 Y56.229 E155.267
G1 X86.172 Y56.693 E155.337
G1 X85.755 Y57.043 E155.402
G1 X85.290 Y57.260 E155.464
G1 X84.800 Y57.333 E155.523
G1 X84.310 Y57.260 E155.583
G1 X83.845 Y57.043 E155.644
G1 X83.428 Y56.693 E155.710
G1 X83.080 Y56.229 E155.779
G1 X82.818 Y55.673 E155.853
G1 X82.655 Y55.053 E155.930
G1 X84.745 Y50.814 E156.497
G1 X84.582 Y50.194 E156.574
G1 X84.320 Y49.638 E156.648
G1 X83.972 Y49.173 E156.717
G1 X83.555 Y48.824 E156.783
G1 X83.090 Y48.607 E156.844
G1 X82.600 Y48.533 E156.904
G1 X82.600 Y48.533 E156.904
G1 X82.110 Y48.607 E156.963
G1 X81.645 Y48.824 E157.025
G1 X81.228 Y49.173 E157.090
G1 X80.880 Y49.638 E157.160
G1 X80.618 Y50.194 E157.233
G1 X80.455 Y50.814 E157.310
G1 X82.545 Y55.053 E157.878
G1 X82.382 Y55.673 E157.954
G1 X82.120 Y56.229 E158.028
G1 X81.772 Y56.693 E158.098
G1 X81.355 Y57.043 E158.163
G1 X80.890 Y57.260 E158.225
G1 X80.400 Y57.333 E158.284
G1 X79.910 Y57.260 E158.344
G1 X79.445 Y57.043 E158.405
G1 X79.028 Y56.693 E158.471
G1 X78.680 Y56.229 E158.540
G1 X78.418 Y55.673 E158.614
G1 X78.255 Y55.053 E158.691
G1 X80.345 Y50.814 E159.258
G1 X80.182 Y50.194 E159.335
G1 X79.920 Y49.638 E159.409
G1 X79.572 Y49.173 E159.478
G1 X79.155 Y48.824 E159.544
G1 X78.690 Y48.607 E159.605
G1 X78.200 Y48.533 E159.665
G1 X78.200 Y48.533 E159.665
G1 X77.710 Y48.607 E159.724
G1 X77.245 Y48.824 E159.786
G1 X76.828 Y49.173 E159.851
G1 X76.480 Y49.638 E159.921
G1 X76.218 Y50.194 E159.994
G1 X76.055 Y50.814 E160.071
G1 X78.145 Y55.053 E160.638
G1 X77.982 Y55.673 E160.715
G1 X77.720 Y56.229 E160.789
G1 X77.372 Y56.693 E160.859
G1 X76.955 Y57.043 E160.924
G1 X76.490 Y57.260 E160.986
G1 X76.000 Y57.333 E161.045
G1 X75.510 Y57.260 E161.105
G1 X75.045 Y57.043 E161.166
G1 X74.628 Y56.693 E161.231
G1 X74.280 Y56.229 E161.301
G1 X74.018 Y55.673 E161.375
G1 X73.855 Y55.053 E161.452
G1 X75.945 Y50.814 E162.019
G1 X75.782 Y50.194 E162.096
G1 X75.520 Y49.638 E162.170
G1 X75.172 Y49.173 E162.239
G1 X74.755 Y48.824 E162.305
G1 X74.290 Y48.607 E162.366
G1 X73.800 Y48.533 E162.426
G1 X73.800 Y48.533 E162.426
G1 X73.310 Y48.607 E162.485
G1 X72.845 Y48.824 E162.547
G1 X72.428 Y49.173 E162.612
G1 X72.080 Y49.638 E162.682
G1 X71.818 Y50.194 E162.755
G1 X71.655 Y50.814 E162.832
G1 X73.745 Y55.053 E163.399
G1 X73.582 Y55.673 E163.476
G1 X73.320 Y56.229 E163.550
G1 X72.972 Y56.693 E163.620
G1 X72.555 Y57.043 E163.685
G1 X72.090 Y57.260 E163.747
G1 X71.600 Y57.333 E163.806
G1 X71.110 Y57.260 E163.866
G1 X70.645 Y57.043 E163.927
G1 X70.228 Y56.693 E163.992
G1 X69.880 Y56.229 E164.062
G1 X69.618 Y55.673 E164.136
G1 X69.455 Y55.053 E164.213
G1 X71.545 Y50.814 E164.780
G1 X71.382 Y50.194 E164.857
G1 X71.120 Y49.638 E164.931
G1 X70.772 Y49.173 E165.000
G1 X70.355 Y48.824 E165.065
G1 X69.890 Y48.607 E165.127
G1 X69.400 Y48.533 E165.187
G1 X69.400 Y48.533 E165.187
G1 X68.910 Y48.607 E165.246
G1 X68.445 Y48.824 E165.308
G1 X68.028 Y49.173 E165.373
G1 X67.680 Y49.638 E165.443
G1 X67.418 Y50.194 E165.516
G1 X67.255 Y50.814 E165.593
G1 X69.345 Y55.053 E166.160
G1 X69.182 Y55.673 E166.237
G1 X68.920 Y56.229 E166.311
G1 X68.572 Y56.693 E166.381
G1 X68.155 Y57.043 E166.446
G1 X67.690 Y57.260 E166.508
G1 X67.200 Y57.333 E166.567
G1 X66.710 Y57.260 E166.626
G1 X66.245 Y57.043 E166.688
G1 X65.828 Y56.693 E166.753
G1 X65.480 Y56.229 E166.823
G1 X65.218 Y55.673 E166.897
G1 X65.055 Y55.053 E166.974
G1 X67.145 Y50.814 E167.541
G1 X66.982 Y50.194 E167.618
G1 X66.720 Y49.638 E167.691
G1 X66.372 Y49.173 E167.761
G1 X65.955 Y48.824 E167.826
G1 X65.490 Y48.607 E167.888
G1 X65.000 Y48.533 E167.947
G1 X65.000 Y48.533 E167.947
G1 X64.510 Y48.607 E168.007
G1 X64.045 Y48.824 E168.069
G1 X63.628 Y49.173 E168.134
G1 X63.280 Y49.638 E168.203
G1 X63.018 Y50.194 E168.277
G1 X62.855 Y50.814 E168.354
G1 X64.945 Y55.053 E168.921
G1 X64.782 Y55.673 E168.998
G1 X64.520 Y56.229 E169.072
G1 X64.172 Y56.693 E169.142
G1 X63.755 Y57.043 E169.207
G1 X63.290 Y57.260 E169.268
G1 X62.800 Y57.333 E169.328
G1 X62.310 Y57.260 E169.387
G1 X61.845 Y57.043 E169.449
G1 X61.428 Y56.693 E169.514
G1 X61.080 Y56.229 E169.584
G1 X60.818 Y55.673 E169.658
G1 X60.655 Y55.053 E169.735
G1 X62.745 Y50.814 E170.302
G1 X62.582 Y50.194 E170.379
G1 X62.320 Y49.638 E170.452
G1 X61.972 Y49.173 E170.522
G1 X61.555 Y48.824 E170.587
G1 X61.090 Y48.607 E170.649
G1 X60.600 Y48.533 E170.708
G1 X60.600 Y48.533 E170.708
G1 X60.110 Y48.607 E170.768
G1 X59.645 Y48.824 E170.829
G1 X59.228 Y49.173 E170.895
G1 X58.880 Y49.638 E170.964
G1 X58.618 Y50.194 E171.038
G1 X58.455 Y50.814 E171.115
G1 X60.545 Y55.053 E171.682
G1 X60.382 Y55.673 E171.759
G1 X60.120 Y56.229 E171.833
G1 X59.772 Y56.693 E171.903
G1 X59.355 Y57.043 E171.968
G1 X58.890 Y57.260 E172.029
G1 X58.400 Y57.333 E172.089
G1 X57.910 Y57.260 E172.148
G1 X57.445 Y57.043 E172.210
G1 X57.028 Y56.693 E172.275
G1 X56.680 Y56.229 E172.345
G1 X56.418 Y55.673 E172.419
G1 X56.255 Y55.053 E172.496
G1 X58.345 Y50.814 E173.063
G1 X58.182 Y50.194 E173.140
G1 X57.920 Y49.638 E173.213
G1 X57.572 Y49.173 E173.283
G1 X57.155 Y48.824 E173.348
G1 X56.690 Y48.607 E173.410
G1 X56.200 Y48.533 E173.469
G1 X56.200 Y48.533 E173.469
G1 X55.710 Y48.607 E173.529
G1 X55.245 Y48.824 E173.590
G1 X54.828 Y49.173 E173.656
G1 X54.480 Y49.638 E173.725
G1 X54.218 Y50.194 E173.799
G1 X54.055 Y50.814 E173.876
G1 X56.145 Y55.053 E174.443
G1 X55.982 Y55.673 E174.520
G1 X55.720 Y56.229 E174.594
G1 X55.372 Y56.693 E174.663
G1 X54.955 Y57.043 E174.729
G1 X54.490 Y57.260 E174.790
G1 X54.000 Y57.333 E174.850
G1 X53.510 Y57.260 E174.909
G1 X53.045 Y57.043 E174.971
G1 X52.628 Y56.693 E175.036
G1 X52.280 Y56.229 E175.106
G1 X52.018 Y55.673 E175.180
G1 X51.855 Y55.053 E175.256
G1 X53.945 Y50.814 E175.824
G1 X53.782 Y50.194 E175.901
G1 X53.520 Y49.638 E175.974
G1 X53.172 Y49.173 E176.044
G1 X52.755 Y48.824 E176.109
G1 X52.290 Y48.607 E176.171
G1 X51.800 Y48.533 E176.230
G1 X51.800 Y48.533 E176.230
G1 X51.310 Y48.607 E176.290
G1 X50.845 Y48.824 E176.351
G1 X50.428 Y49.173 E176.417
G1 X50.080 Y49.638 E176.486
G1 X49.818 Y50.194 E176.560
G1 X49.655 Y50.814 E176.637
G1 X51.745 Y55.053 E177.204
G1 X51.582 Y55.673 E177.281
G1 X51.320 Y56.229 E177.355
G1 X50.972 Y56.693 E177.424
G1 X50.555 Y57.043 E177.490
G1 X50.090 Y57.260 E177.551
G1 X49.600 Y57.333 E177.611
G1 X49.110 Y57.260 E177.670
G1 X48.645 Y57.043 E177.732
G1 X48.228 Y56.693 E177.797
G1 X47.880 Y56.229 E177.867
G1 X47.618 Y55.673 E177.940
G1 X47.455 Y55.053 E178.017
G1 X49.545 Y50.814 E178.585
G1 X49.382 Y50.194 E178.661
G1 X49.120 Y49.638 E178.735
G1 X48.772 Y49.173 E178.805
G1 X48.355 Y48.824 E178.870
G1 X47.890 Y48.607 E178.932
G1 X47.400 Y48.533 E178.991
G1 X47.400 Y48.533 E178.991
G1 X46.910 Y48.607 E179.051
G1 X46.445 Y48.824 E179.112
G1 X46.028 Y49.173 E179.177
G1 X45.680 Y49.638 E179.247
G1 X45.418 Y50.194 E179.321
G1 X45.255 Y50.814 E179.398
G1 X47.345 Y55.053 E179.965
G1 X47.182 Y55.673 E180.042
G1 X46.920 Y56.229 E180.116
G1 X46.572 Y56.693 E180.185
G1 X46.155 Y57.043 E180.251
G1 X45.690 Y57.260 E180.312
G1 X45.200 Y57.333 E180.372
G1 X44.710 Y57.260 E180.431
G1 X44.245 Y57.043 E180.493
G1 X43.828 Y56.693 E180.558
G1 X43.480 Y56.229 E180.628
G1 X43.218 Y55.673 E180.701
G1 X43.055 Y55.053 E180.778
G1 X45.145 Y50.814 E181.345
G1 X44.982 Y50.194 E181.422
G1 X44.720 Y49.638 E181.496
G1 X44.372 Y49.173 E181.566
G1 X43.955 Y48.824 E181.631
G1 X43.490 Y48.607 E181.693
G1 X43.000 Y48.533 E181.752
G1 X43.000 Y48.533 E181.752
G1 X42.510 Y48.607 E181.812
G1 X42.045 Y48.824 E181.873
G1 X41.628 Y49.173 E181.938
G1 X41.280 Y49.638 E182.008
G1 X41.018 Y50.194 E182.082
G1 X40.855 Y50.814 E182.159
G1 X42.945 Y55.053 E182.726
G1 X42.782 Y55.673 E182.803
G1 X42.520 Y56.229 E182.877
G1 X42.172 Y56.693 E182.946
G1 X41.755 Y57.043 E183.012
G1 X41.290 Y57.260 E183.073
G1 X40.800 Y57.333 E183.133
G1 X40.310 Y57.260 E183.192
G1 X39.845 Y57.043 E183.254
G1 X39.428 Y56.693 E183.319
G1 X39.080 Y56.229 E183.389
G1 X38.818 Y55.673 E183.462
G1 X38.655 Y55.053 E183.539
G1 X40.745 Y50.814 E184.106
G1 X40.582 Y50.194 E184.183
G1 X40.320 Y49.638 E184.257
G1 X39.972 Y49.173 E184.327
G1 X39.555 Y48.824 E184.392
G1 X39.090 Y48.607 E184.454
G1 X38.600 Y48.533 E184.513
G1 X38.600 Y48.533 E184.513
G1 X38.110 Y48.607 E184.573
G1 X37.645 Y48.824 E184.634
G1 X37.228 Y49.173 E184.699
G1 X36.880 Y49.638 E184.769
G1 X36.618 Y50.194 E184.843
G1 X36.455 Y50.814 E184.920
G1 X38.545 Y55.053 E185.487
G1 X38.382 Y55.673 E185.564
G1 X38.120 Y56.229 E185.638
G1 X37.772 Y56.693 E185.707
G1 X37.355 Y57.043 E185.772
G1 X36.890 Y57.260 E185.834
G1 X36.400 Y57.333 E185.894
G1 X35.910 Y57.260 E185.953
G1 X35.445 Y57.043 E186.015
G1 X35.028 Y56.693 E186.080
G1 X34.680 Y56.229 E186.149
G1 X34.418 Y55.673 E186.223
G1 X34.255 Y55.053 E186.300
G1 X36.345 Y50.814 E186.867
G1 X36.182 Y50.194 E186.944
G1 X35.920 Y49.638 E187.018
G1 X35.572 Y49.173 E187.088
G1 X35.155 Y48.824 E187.153
G1 X34.690 Y48.607 E187.215
G1 X34.200 Y48.533 E187.274
G1 X34.200 Y48.533 E187.274
G1 X33.710 Y48.607 E187.333
G1 X33.245 Y48.824 E187.395
G1 X32.828 Y49.173 E187.460
G1 X32.480 Y49.638 E187.530
G1 X32.218 Y50.194 E187.604
G1 X32.055 Y50.814 E187.681
G1 X34.145 Y55.053 E188.248
G1 X33.982 Y55.673 E188.325
G1 X33.720 Y56.229 E188.398
G1 X33.372 Y56.693 E188.468
G1 X32.955 Y57.043 E188.533
G1 X32.490 Y57.260 E188.595
G1 X32.000 Y57.333 E188.654
G1 X31.510 Y57.260 E188.714
G1 X31.045 Y57.043 E188.775
G1 X30.628 Y56.693 E188.841
G1 X30.280 Y56.229 E188.910
G1 X30.018 Y55.673 E188.984
G1 X29.855 Y55.053 E189.061
G1 X31.945 Y50.814 E189.628
G1 X31.782 Y50.194 E189.705
G1 X31.520 Y49.638 E189.779
G1 X31.172 Y49.173 E189.849
G1 X30.755 Y48.824 E189.914
G1 X30.290 Y48.607 E189.975
G1 X29.800 Y48.533 E190.035
G1 X29.800 Y48.533 E190.035
G1 X29.310 Y48.607 E190.094
G1 X28.845 Y48.824 E190.156
G1 X28.428 Y49.173 E190.221
G1 X28.080 Y49.638 E190.291
G1 X27.818 Y50.194 E190.365
G1 X27.655 Y50.814 E190.442
G1 X29.745 Y55.053 E191.009
G1 X29.582 Y55.673 E191.086
G1 X29.320 Y56.229 E191.159
G1 X28.972 Y56.693 E191.229
G1 X28.555 Y57.043 E191.294
G1 X28.090 Y57.260 E191.356
G1 X27.600 Y57.333 E191.415
G1 X27.110 Y57.260 E191.475
G1 X26.645 Y57.043 E191.536
G1 X26.228 Y56.693 E191.602
G1 X25.880 Y56.229 E191.671
G1 X25.618 Y55.673 E191.745
G1 X25.455 Y55.053 E191.822
G1 X27.545 Y50.814 E192.389
G1 X27.382 Y50.194 E192.466
G1 X27.120 Y49.638 E192.540
G1 X26.772 Y49.173 E192.610
G1 X26.355 Y48.824 E192.675
G1 X25.890 Y48.607 E192.736
G1 X25.400 Y48.533 E192.796
G1 X25.400 Y48.533 E192.796
G1 X24.910 Y48.607 E192.855
G1 X24.445 Y48.824 E192.917
G1 X24.028 Y49.173 E192.982
G1 X23.680 Y49.638 E193.052
G1 X23.418 Y50.194 E193.126
G1 X23.255 Y50.814 E193.203
G1 X25.345 Y55.053 E193.770
G1 X25.182 Y55.673 E193.847
G1 X24.920 Y56.229 E193.920
G1 X24.572 Y56.693 E193.990
G1 X24.155 Y57.043 E194.055
G1 X23.690 Y57.260 E194.117
G1 X23.200 Y57.333 E194.176
G1 X22.710 Y57.260 E194.236
G1 X22.245 Y57.043 E194.297
G1 X21.828 Y56.693 E194.363
G1 X21.480 Y56.229 E194.432
G1 X21.218 Y55.673 E194.506
G1 X21.055 Y55.053 E194.583
G1 X23.145 Y50.814 E195.150
G1 X22.982 Y50.194 E195.227
G1 X22.720 Y49.638 E195.301
G1 X22.372 Y49.173 E195.370
G1 X21.955 Y48.824 E195.436
G1 X21.490 Y48.607 E195.497
G1 X21.000 Y48.533 E195.557
G1 X21.000 Y48.533 E195.557
G1 X20.510 Y48.607 E195.616
G1 X20.045 Y48.824 E195.678
G1 X19.628 Y49.173 E195.743
G1 X19.280 Y49.638 E195.813
G1 X19.018 Y50.194 E195.887
G1 X18.855 Y50.814 E195.963
G1 X20.945 Y55.053 E196.531
G1 X20.782 Y55.673 E196.608
G1 X20.520 Y56.229 E196.681
G1 X20.172 Y56.693 E196.751
G1 X19.755 Y57.043 E196.816
G1 X19.290 Y57.260 E196.878
G1 X18.800 Y57.333 E196.937
G1 X18.310 Y57.260 E196.997
G1 X17.845 Y57.043 E197.058
G1 X17.428 Y56.693 E197.124
G1 X17.080 Y56.229 E197.193
G1 X16.818 Y55.673 E197.267
G1 X16.655 Y55.053 E197.344
G1 X18.745 Y50.814 E197.911
G1 X18.582 Y50.194 E197.988
G1 X18.320 Y49.638 E198.062
G1 X17.972 Y49.173 E198.131
G1 X17.555 Y48.824 E198.197
G1 X17.090 Y48.607 E198.258
G1 X16.600 Y48.533 E198.318
G1 X16.600 Y48.533 E198.318
G1 X16.110 Y48.607 E198.377
G1 X15.645 Y48.824 E198.439
G1 X15.228 Y49.173 E198.504
G1 X14.880 Y49.638 E198.574
G1 X14.618 Y50.194 E198.647
G1 X14.455 Y50.814 E198.724
G1 X16.545 Y55.053 E199.292
G1 X16.382 Y55.673 E199.368
G1 X16.120 Y56.229 E199.442
G1 X15.772 Y56.693 E199.512
G1 X15.355 Y57.043 E199.577
G1 X14.890 Y57.260 E199.639
G1 X14.400 Y57.333 E199.698
G1 X13.910 Y57.260 E199.758
G1 X13.445 Y57.043 E199.819
G1 X13.028 Y56.693 E199.885
G1 X12.680 Y56.229 E199.954
G1 X12.418 Y55.673 E200.028
G1 X12.255 Y55.053 E200.105
G1 X14.345 Y50.814 E200.672
G1 X14.182 Y50.194 E200.749
G1 X13.920 Y49.638 E200.823
G1 X13.572 Y49.173 E200.892
G1 X13.155 Y48.824 E200.958
G1 X12.690 Y48.607 E201.019
G1 X12.200 Y48.533 E201.079
G1 X12.200 Y52.933 E201.607
G1 X12.690 Y53.007 E201.666
G1 X13.155 Y53.224 E201.728
G1 X13.572 Y53.573 E201.793
G1 X13.920 Y54.038 E201.863
G1 X14.182 Y54.594 E201.936
G1 X14.345 Y55.214 E202.013
G1 X12.255 Y59.453 E202.580
G1 X12.418 Y60.073 E202.657
G1 X12.680 Y60.629 E202.731
G1 X13.028 Y61.093 E202.801
G1 X13.445 Y61.443 E202.866
G1 X13.910 Y61.660 E202.928
G1 X14.400 Y61.733 E202.987
G1 X14.890 Y61.660 E203.047
G1 X15.355 Y61.443 E203.108
G1 X15.772 Y61.093 E203.173
G1 X16.120 Y60.629 E203.243
G1 X16.382 Y60.073 E203.317
G1 X16.545 Y59.453 E203.394
G1 X14.455 Y55.214 E203.961
G1 X14.618 Y54.594 E204.038
G1 X14.880 Y54.038 E204.112
G1 X15.228 Y53.573 E204.181
G1 X15.645 Y53.224 E204.247
G1 X16.110 Y53.007 E204.308
G1 X16.600 Y52.933 E204.368
G1 X16.600 Y52.933 E204.368
G1 X17.090 Y53.007 E204.427
G1 X17.555 Y53.224 E204.489
G1 X17.972 Y53.573 E204.554
G1 X18.320 Y54.038 E204.624
G1 X18.582 Y54.594 E204.697
G1 X18.745 Y55.214 E204.774
G1 X16.655 Y59.453 E205.341
G1 X16.818 Y60.073 E205.418
G1 X17.080 Y60.629 E205.492
G1 X17.428 Y61.093 E205.562
G1 X17.845 Y61.443 E205.627
G1 X18.310 Y61.660 E205.689
G1 X18.800 Y61.733 E205.748
G1 X19.290 Y61.660 E205.807
G1 X19.755 Y61.443 E205.869
G1 X20.172 Y61.093 E205.934
G1 X20.520 Y60.629 E206.004
G1 X20.782 Y60.073 E206.078
G1 X20.945 Y59.453 E206.155
G1 X18.855 Y55.214 E206.722
G1 X19.018 Y54.594 E206.799
G1 X19.280 Y54.038 E206.873
G1 X19.628 Y53.573 E206.942
G1 X20.045 Y53.224 E207.007
G1 X20.510 Y53.007 E207.069
G1 X21.000 Y52.933 E207.128
G1 X21.000 Y52.933 E207.128
G1 X21.490 Y53.007 E207.188
G1 X21.955 Y53.224 E207.250
G1 X22.372 Y53.573 E207.315
G1 X22.720 Y54.038 E207.384
G1 X22.982 Y54.594 E207.458
G1 X23.145 Y55.214 E207.535
G1 X21.055 Y59.453 E208.102
G1 X21.218 Y60.073 E208.179
G1 X21.480 Y60.629 E208.253
G1 X21.828 Y61.093 E208.323
G1 X22.245 Y61.443 E208.388
G1 X22.710 Y61.660 E208.450
G1 X23.200 Y61.733 E208.509
G1 X23.690 Y61.660 E208.568
G1 X24.155 Y61.443 E208.630
G1 X24.572 Y61.093 E208.695
G1 X24.920 Y60.629 E208.765
G1 X25.182 Y60.073 E208.839
G1 X25.345 Y59.453 E208.916
G1 X23.255 Y55.214 E209.483
G1 X23.418 Y54.594 E209.560
G1 X23.680 Y54.038 E209.633
G1 X24.028 Y53.573 E209.703
G1 X24.445 Y53.224 E209.768
G1 X24.910 Y53.007 E209.830
G1 X25.400 Y52.933 E209.889
G1 X25.400 Y52.933 E209.889
G1 X25.890 Y53.007 E209.949
G1 X26.355 Y53.224 E210.010
G1 X26.772 Y53.573 E210.076
G1 X27.120 Y54.038 E210.145
G1 X27.382 Y54.594 E210.219
G1 X27.545 Y55.214 E210.296
G1 X25.455 Y59.453 E210.863
G1 X25.618 Y60.073 E210.940
G1 X25.880 Y60.629 E211.014
G1 X26.228 Y61.093 E211.084
G1 X26.645 Y61.443 E211.149
G1 X27.110 Y61.660 E211.210
G1 X27.600 Y61.733 E211.270
G1 X28.090 Y61.660 E211.329
G1 X28.555 Y61.443 E211.391
G1 X28.972 Y61.093 E211.456
G1 X29.320 Y60.629 E211.526
G1 X29.582 Y60.073 E211.600
G1 X29.745 Y59.453 E211.677
G1 X27.655 Y55.214 E212.244
G1 X27.818 Y54.594 E212.321
G1 X28.080 Y54.038 E212.394
G1 X28.428 Y53.573 E212.464
G1 X28.845 Y53.224 E212.529
G1 X29.310 Y53.007 E212.591
G1 X29.800 Y52.933 E212.650
G1 X29.800 Y52.933 E212.650
G1 X30.290 Y53.007 E212.710
G1 X30.755 Y53.224 E212.771
G1 X31.172 Y53.573 E212.837
G1 X31.520 Y54.038 E212.906
G1 X31.782 Y54.594 E212.980
G1 X31.945 Y55.214 E213.057
G1 X29.855 Y59.453 E213.624
G1 X30.018 Y60.073 E213.701
G1 X30.280 Y60.629 E213.775
G1 X30.628 Y61.093 E213.844
G1 X31.045 Y61.443 E213.910
G1 X31.510 Y61.660 E213.971
G1 X32.000 Y61.733 E214.031
G1 X32.490 Y61.660 E214.090
G1 X32.955 Y61.443 E214.152
G1 X33.372 Y61.093 E214.217
G1 X33.720 Y60.629 E214.287
G1 X33.982 Y60.073 E214.361
G1 X34.145 Y59.453 E214.437
G1 X32.055 Y55.214 E215.005
G1 X32.218 Y54.594 E215.082
G1 X32.480 Y54.038 E215.155
G1 X32.828 Y53.573 E215.225
G1 X33.245 Y53.224 E215.290
G1 X33.710 Y53.007 E215.352
G1 X34.200 Y52.933 E215.411
G1 X34.200 Y52.933 E215.411
G1 X34.690 Y53.007 E215.471
G1 X35.155 Y53.224 E215.532
G1 X35.572 Y53.573 E215.598
G1 X35.920 Y54.038 E215.667
G1 X36.182 Y54.594 E215.741
G1 X36.345 Y55.214 E215.818
G1 X34.255 Y59.453 E216.385
G1 X34.418 Y60.073 E216.462
G1 X34.680 Y60.629 E216.536
G1 X35.028 Y61.093 E216.605
G1 X35.445 Y61.443 E216.671
G1 X35.910 Y61.660 E216.732
G1 X36.400 Y61.733 E216.792
G1 X36.890 Y61.660 E216.851
G1 X37.355 Y61.443 E216.913
G1 X37.772 Y61.093 E216.978
G1 X38.120 Y60.629 E217.048
G1 X38.382 Y60.073 E217.121
G1 X38.545 Y59.453 E217.198
G1 X36.455 Y55.214 E217.766
G1 X36.618 Y54.594 E217.842
G1 X36.880 Y54.038 E217.916
G1 X37.228 Y53.573 E217.986
G1 X37.645 Y53.224 E218.051
G1 X38.110 Y53.007 E218.113
G1 X38.600 Y52.933 E218.172
G1 X38.600 Y52.933 E218.172
G1 X39.090 Y53.007 E218.232
G1 X39.555 Y53.224 E218.293
G1 X39.972 Y53.573 E218.359
G1 X40.320 Y54.038 E218.428
G1 X40.582 Y54.594 E218.502
G1 X40.745 Y55.214 E218.579
G1 X38.655 Y59.453 E219.146
G1 X38.818 Y60.073 E219.223
G1 X39.080 Y60.629 E219.297
G1 X39.428 Y61.093 E219.366
G1 X39.845 Y61.443 E219.432
G1 X40.310 Y61.660 E219.493
G1 X40.800 Y61.733 E219.553
G1 X41.290 Y61.660 E219.612
G1 X41.755 Y61.443 E219.674
G1 X42.172 Y61.093 E219.739
G1 X42.520 Y60.629 E219.809
G1 X42.782 Y60.073 E219.882
G1 X42.945 Y59.453 E219.959
G1 X40.855 Y55.214 E220.526
G1 X41.018 Y54.594 E220.603
G1 X41.280 Y54.038 E220.677
G1 X41.628 Y53.573 E220.747
G1 X42.045 Y53.224 E220.812
G1 X42.510 Y53.007 E220.874
G1 X43.000 Y52.933 E220.933
G1 X43.000 Y52.933 E220.933
G1 X43.490 Y53.007 E220.993
G1 X43.955 Y53.224 E221.054
G1 X44.372 Y53.573 E221.119
G1 X44.720 Y54.038 E221.189
G1 X44.982 Y54.594 E221.263
G1 X45.145 Y55.214 E221.340
G1 X43.055 Y59.453 E221.907
G1 X43.218 Y60.073 E221.984
G1 X43.480 Y60.629 E222.058
G1 X43.828 Y61.093 E222.127
G1 X44.245 Y61.443 E222.193
G1 X44.710 Y61.660 E222.254
G1 X45.200 Y61.733 E222.314
G1 X45.690 Y61.660 E222.373
G1 X46.155 Y61.443 E222.435
G1 X46.572 Y61.093 E222.500
G1 X46.920 Y60.629 E222.570
G1 X47.182 Y60.073 E222.643
G1 X47.345 Y59.453 E222.720
G1 X45.255 Y55.214 E223.287
G1 X45.418 Y54.594 E223.364
G1 X45.680 Y54.038 E223.438
G1 X46.028 Y53.573 E223.508
G1 X46.445 Y53.224 E223.573
G1 X46.910 Y53.007 E223.635
G1 X47.400 Y52.933 E223.694
G1 X47.400 Y52.933 E223.694
G1 X47.890 Y53.007 E223.754
G1 X48.355 Y53.224 E223.815
G1 X48.772 Y53.573 E223.880
G1 X49.120 Y54.038 E223.950
G1 X49.382 Y54.594 E224.024
G1 X49.545 Y55.214 E224.101
G1 X47.455 Y59.453 E224.668
G1 X47.618 Y60.073 E224.745
G1 X47.880 Y60.629 E224.819
G1 X48.228 Y61.093 E224.888
G1 X48.645 Y61.443 E224.954
G1 X49.110 Y61.660 E225.015
G1 X49.600 Y61.733 E225.075
G1 X50.090 Y61.660 E225.134
G1 X50.555 Y61.443 E225.196
G1 X50.972 Y61.093 E225.261
G1 X51.320 Y60.629 E225.330
G1 X51.582 Y60.073 E225.404
G1 X51.745 Y59.453 E225.481
G1 X49.655 Y55.214 E226.048
G1 X49.818 Y54.594 E226.125
G1 X50.080 Y54.038 E226.199
G1 X50.428 Y53.573 E226.269
G1 X50.845 Y53.224 E226.334
G1 X51.310 Y53.007 E226.396
G1 X51.800 Y52.933 E226.455
G1 X51.800 Y52.933 E226.455
G1 X52.290 Y53.007 E226.514
G1 X52.755 Y53.224 E226.576
G1 X53.172 Y53.573 E226.641
G1 X53.520 Y54.038 E226.711
G1 X53.782 Y54.594 E226.785
G1 X53.945 Y55.214 E226.862
G1 X51.855 Y59.453 E227.429
G1 X52.018 Y60.073 E227.506
G1 X52.280 Y60.629 E227.580
G1 X52.628 Y61.093 E227.649
G1 X53.045 Y61.443 E227.714
G1 X53.510 Y61.660 E227.776
G1 X54.000 Y61.733 E227.835
G1 X54.490 Y61.660 E227.895
G1 X54.955 Y61.443 E227.956
G1 X55.372 Y61.093 E228.022
G1 X55.720 Y60.629 E228.091
G1 X55.982 Y60.073 E228.165
G1 X56.145 Y59.453 E228.242
G1 X54.055 Y55.214 E228.809
G1 X54.218 Y54.594 E228.886
G1 X54.480 Y54.038 E228.960
G1 X54.828 Y53.573 E229.030
G1 X55.245 Y53.224 E229.095
G1 X55.710 Y53.007 E229.156
G1 X56.200 Y52.933 E229.216
G1 X56.200 Y52.933 E229.216
G1 X56.690 Y53.007 E229.275
G1 X57.155 Y53.224 E229.337
G1 X57.572 Y53.573 E229.402
G1 X57.920 Y54.038 E229.472
G1 X58.182 Y54.594 E229.546
G1 X58.345 Y55.214 E229.623
G1 X56.255 Y59.453 E230.190
G1 X56.418 Y60.073 E230.267
G1 X56.680 Y60.629 E230.340
G1 X57.028 Y61.093 E230.410
G1 X57.445 Y61.443 E230.475
G1 X57.910 Y61.660 E230.537
G1 X58.400 Y61.733 E230.596
G1 X58.890 Y61.660 E230.656
G1 X59.355 Y61.443 E230.717
G1 X59.772 Y61.093 E230.783
G1 X60.120 Y60.629 E230.852
G1 X60.382 Y60.073 E230.926
G1 X60.545 Y59.453 E231.003
G1 X58.455 Y55.214 E231.570
G1 X58.618 Y54.594 E231.647
G1 X58.880 Y54.038 E231.721
G1 X59.228 Y53.573 E231.791
G1 X59.645 Y53.224 E231.856
G1 X60.110 Y53.007 E231.917
G1 X60.600 Y52.933 E231.977
G1 X60.600 Y52.933 E231.977
G1 X61.090 Y53.007 E232.036
G1 X61.555 Y53.224 E232.098
G1 X61.972 Y53.573 E232.163
G1 X62.320 Y54.038 E232.233
G1 X62.582 Y54.594 E232.307
G1 X62.745 Y55.214 E232.384
G1 X60.655 Y59.453 E232.951
G1 X60.818 Y60.073 E233.028
G1 X61.080 Y60.629 E233.101
G1 X61.428 Y61.093 E233.171
G1 X61.845 Y61.443 E233.236
G1 X62.310 Y61.660 E233.298
G1 X62.800 Y61.733 E233.357
G1 X63.290 Y61.660 E233.417
G1 X63.755 Y61.443 E233.478
G1 X64.172 Y61.093 E233.544
G1 X64.520 Y60.629 E233.613
G1 X64.782 Y60.073 E233.687
G1 X64.945 Y59.453 E233.764
G1 X62.855 Y55.214 E234.331
G1 X63.018 Y54.594 E234.408
G1 X63.280 Y54.038 E234.482
G1 X63.628 Y53.573 E234.552
G1 X64.045 Y53.224 E234.617
G1 X64.510 Y53.007 E234.678
G1 X65.000 Y52.933 E234.738
G1 X65.000 Y52.933 E234.738
G1 X65.490 Y53.007 E234.797
G1 X65.955 Y53.224 E234.859
G1 X66.372 Y53.573 E234.924
G1 X66.720 Y54.038 E234.994
G1 X66.982 Y54.594 E235.068
G1 X67.145 Y55.214 E235.144
G1 X65.055 Y59.453 E235.712
G1 X65.218 Y60.073 E235.789
G1 X65.480 Y60.629 E235.862
G1 X65.828 Y61.093 E235.932
G1 X66.245 Y61.443 E235.997
G1 X66.710 Y61.660 E236.059
G1 X67.200 Y61.733 E236.118
G1 X67.690 Y61.660 E236.178
G1 X68.155 Y61.443 E236.239
G1 X68.572 Y61.093 E236.305
G1 X68.920 Y60.629 E236.374
G1 X69.182 Y60.073 E236.448
G1 X69.345 Y59.453 E236.525
G1 X67.255 Y55.214 E237.092
G1 X67.418 Y54.594 E237.169
G1 X67.680 Y54.038 E237.243
G1 X68.028 Y53.573 E237.312
G1 X68.445 Y53.224 E237.378
G1 X68.910 Y53.007 E237.439
G1 X69.400 Y52.933 E237.499
G1 X69.400 Y52.933 E237.499
G1 X69.890 Y53.007 E237.558
G1 X70.355 Y53.224 E237.620
G1 X70.772 Y53.573 E237.685
G1 X71.120 Y54.038 E237.755
G1 X71.382 Y54.594 E237.828
G1 X71.545 Y55.214 E237.905
G1 X69.455 Y59.453 E238.473
G1 X69.618 Y60.073 E238.549
G1 X69.880 Y60.629 E238.623
G1 X70.228 Y61.093 E238.693
G1 X70.645 Y61.443 E238.758
G1 X71.110 Y61.660 E238.820
G1 X71.600 Y61.733 E238.879
G1 X72.090 Y61.660 E238.939
G1 X72.555 Y61.443 E239.000
G1 X72.972 Y61.093 E239.066
G1 X73.320 Y60.629 E239.135
G1 X73.582 Y60.073 E239.209
G1 X73.745 Y59.453 E239.286
G1 X71.655 Y55.214 E239.853
G1 X71.818 Y54.594 E239.930
G1 X72.080 Y54.038 E240.004
G1 X72.428 Y53.573 E240.073
G1 X72.845 Y53.224 E240.139
G1 X73.310 Y53.007 E240.200
G1 X73.800 Y52.933 E240.260
G1 X73.800 Y52.933 E240.260
G1 X74.290 Y53.007 E240.319
G1 X74.755 Y53.224 E240.381
G1 X75.172 Y53.573 E240.446
G1 X75.520 Y54.038 E240.516
G1 X75.782 Y54.594 E240.589
G1 X75.945 Y55.214 E240.666
G1 X73.855 Y59.453 E241.233
G1 X74.018 Y60.073 E241.310
G1 X74.280 Y60.629 E241.384
G1 X74.628 Y61.093 E241.454
G1 X75.045 Y61.443 E241.519
G1 X75.510 Y61.660 E241.581
G1 X76.000 Y61.733 E241.640
G1 X76.490 Y61.660 E241.700
G1 X76.955 Y61.443 E241.761
G1 X77.372 Y61.093 E241.826
G1 X77.720 Y60.629 E241.896
G1 X77.982 Y60.073 E241.970
G1 X78.145 Y59.453 E242.047
G1 X76.055 Y55.214 E242.614
G1 X76.218 Y54.594 E242.691
G1 X76.480 Y54.038 E242.765
G1 X76.828 Y53.573 E242.834
G1 X77.245 Y53.224 E242.900
G1 X77.710 Y53.007 E242.961
G1 X78.200 Y52.933 E243.021
G1 X78.200 Y52.933 E243.021
G1 X78.690 Y53.007 E243.080
G1 X79.155 Y53.224 E243.142
G1 X79.572 Y53.573 E243.207
G1 X79.920 Y54.038 E243.277
G1 X80.182 Y54.594 E243.350
G1 X80.345 Y55.214 E243.427
G1 X78.255 Y59.453 E243.994
G1 X78.418 Y60.073 E244.071
G1 X78.680 Y60.629 E244.145
G1 X79.028 Y61.093 E244.215
G1 X79.445 Y61.443 E244.280
G1 X79.910 Y61.660 E244.342
G1 X80.400 Y61.733 E244.401
G1 X80.890 Y61.660 E244.461
G1 X81.355 Y61.443 E244.522
G1 X81.772 Y61.093 E244.587
G1 X82.120 Y60.629 E244.657
G1 X82.382 Y60.073 E244.731
G1 X82.545 Y59.453 E244.808
G1 X80.455 Y55.214 E245.375
G1 X80.618 Y54.594 E245.452
G1 X80.880 Y54.038 E245.526
G1 X81.228 Y53.573 E245.595
G1 X81.645 Y53.224 E245.660
G1 X82.110 Y53.007 E245.722
G1 X82.600 Y52.933 E245.782
G1 X82.600 Y52.933 E245.782
G1 X83.090 Y53.007 E245.841
G1 X83.555 Y53.224 E245.903
G1 X83.972 Y53.573 E245.968
G1 X84.320 Y54.038 E246.038
G1 X84.582 Y54.594 E246.111
G1 X84.745 Y55.214 E246.188
G1 X82.655 Y59.453 E246.755
G1 X82.818 Y60.073 E246.832
G1 X83.080 Y60.629 E246.906
G1 X83.428 Y61.093 E246.976
G1 X83.845 Y61.443 E247.041
G1 X84.310 Y61.660 E247.103
G1 X84.800 Y61.733 E247.162
G1 X85.290 Y61.660 E247.221
G1 X85.755 Y61.443 E247.283
G1 X86.172 Y61.093 E247.348
G1 X86.520 Y60.629 E247.418
G1 X86.782 Y60.073 E247.492
G1 X86.945 Y59.453 E247.569
G1 X84.855 Y55.214 E248.136
G1 X85.018 Y54.594 E248.213
G1 X85.280 Y54.038 E248.286
G1 X85.628 Y53.573 E248.356
G1 X86.045 Y53.224 E248.421
G1 X86.510 Y53.007 E248.483
G1 X87.000 Y52.933 E248.542
G1 X87.000 Y52.933 E248.542
G1 X87.490 Y53.007 E248.602
G1 X87.955 Y53.224 E248.663
G1 X88.372 Y53.573 E248.729
G1 X88.720 Y54.038 E248.798
G1 X88.982 Y54.594 E248.872
G1 X89.145 Y55.214 E248.949
G1 X87.055 Y59.453 E249.516
G1 X87.218 Y60.073 E249.593
G1 X87.480 Y60.629 E249.667
G1 X87.828 Y61.093 E249.737
G1 X88.245 Y61.443 E249.802
G1 X88.710 Y61.660 E249.863
G1 X89.200 Y61.733 E249.923
G1 X89.690 Y61.660 E249.982
G1 X90.155 Y61.443 E250.044
G1 X90.572 Y61.093 E250.109
G1 X90.920 Y60.629 E250.179
G1 X91.182 Y60.073 E250.253
G1 X91.345 Y59.453 E250.330
G1 X89.255 Y55.214 E250.897
G1 X89.418 Y54.594 E250.974
G1 X89.680 Y54.038 E251.047
G1 X90.028 Y53.573 E251.117
G1 X90.445 Y53.224 E251.182
G1 X90.910 Y53.007 E251.244
G1 X91.400 Y52.933 E251.303
G1 X91.400 Y52.933 E251.303
G1 X91.890 Y53.007 E251.363
G1 X92.355 Y53.224 E251.424
G1 X92.772 Y53.573 E251.490
G1 X93.120 Y54.038 E251.559
G1 X93.382 Y54.594 E251.633
G1 X93.545 Y55.214 E251.710
G1 X91.455 Y59.453 E252.277
G1 X91.618 Y60.073 E252.354
G1 X91.880 Y60.629 E252.428
G1 X92.228 Y61.093 E252.497
G1 X92.645 Y61.443 E252.563
G1 X93.110 Y61.660 E252.624
G1 X93.600 Y61.733 E252.684
G1 X94.090 Y61.660 E252.743
G1 X94.555 Y61.443 E252.805
G1 X94.972 Y61.093 E252.870
G1 X95.320 Y60.629 E252.940
G1 X95.582 Y60.073 E253.014
G1 X95.745 Y59.453 E253.090
G1 X93.655 Y55.214 E253.658
G1 X93.818 Y54.594 E253.735
G1 X94.080 Y54.038 E253.808
G1 X94.428 Y53.573 E253.878
G1 X94.845 Y53.224 E253.943
G1 X95.310 Y53.007 E254.005
G1 X95.800 Y52.933 E254.064
G1 X95.800 Y52.933 E254.064
G1 X96.290 Y53.007 E254.124
G1 X96.755 Y53.224 E254.185
G1 X97.172 Y53.573 E254.251
G1 X97.520 Y54.038 E254.320
G1 X97.782 Y54.594 E254.394
G1 X97.945 Y55.214 E254.471
G1 X95.855 Y59.453 E255.038
G1 X96.018 Y60.073 E255.115
G1 X96.280 Y60.629 E255.189
G1 X96.628 Y61.093 E255.258
G1 X97.045 Y61.443 E255.324
G1 X97.510 Y61.660 E255.385
G1 X98.000 Y61.733 E255.445
G1 X98.490 Y61.660 E255.504
G1 X98.955 Y61.443 E255.566
G1 X99.372 Y61.093 E255.631
G1 X99.720 Y60.629 E255.701
G1 X99.982 Y60.073 E255.774
G1 X100.145 Y59.453 E255.851
G1 X98.055 Y55.214 E256.419
G1 X98.218 Y54.594 E256.495
G1 X98.480 Y54.038 E256.569
G1 X98.828 Y53.573 E256.639
G1 X99.245 Y53.224 E256.704
G1 X99.710 Y53.007 E256.766
G1 X100.200 Y52.933 E256.825
G1 X100.200 Y52.933 E256.825
G1 X100.690 Y53.007 E256.885
G1 X101.155 Y53.224 E256.946
G1 X101.572 Y53.573 E257.012
G1 X101.920 Y54.038 E257.081
G1 X102.182 Y54.594 E257.155
G1 X102.345 Y55.214 E257.232
G1 X100.255 Y59.453 E257.799
G1 X100.418 Y60.073 E257.876
G1 X100.680 Y60.629 E257.950
G1 X101.028 Y61.093 E258.019
G1 X101.445 Y61.443 E258.085
G1 X101.910 Y61.660 E258.146
G1 X102.400 Y61.733 E258.206
G1 X102.890 Y61.660 E258.265
G1 X103.355 Y61.443 E258.327
G1 X103.772 Y61.093 E258.392
G1 X104.120 Y60.629 E258.462
G1 X104.382 Y60.073 E258.535
G1 X104.545 Y59.453 E258.612
G1 X102.455 Y55.214 E259.179
G1 X102.618 Y54.594 E259.256
G1 X102.880 Y54.038 E259.330
G1 X103.228 Y53.573 E259.400
G1 X103.645 Y53.224 E259.465
G1 X104.110 Y53.007 E259.527
G1 X104.600 Y52.933 E259.586
G1 X104.600 Y52.933 E259.586
G1 X105.090 Y53.007 E259.646
G1 X105.555 Y53.224 E259.707
G1 X105.972 Y53.573 E259.772
G1 X106.320 Y54.038 E259.842
G1 X106.582 Y54.594 E259.916
G1 X106.745 Y55.214 E259.993
G1 X104.655 Y59.453 E260.560
G1 X104.818 Y60.073 E260.637
G1 X105.080 Y60.629 E260.711
G1 X105.428 Y61.093 E260.780
G1 X105.845 Y61.443 E260.846
G1 X106.310 Y61.660 E260.907
G1 X106.800 Y61.733 E260.967
G1 X107.290 Y61.660 E261.026
G1 X107.755 Y61.443 E261.088
G1 X108.172 Y61.093 E261.153
G1 X108.520 Y60.629 E261.223
G1 X108.782 Y60.073 E261.296
G1 X108.945 Y59.453 E261.373
G1 X106.855 Y55.214 E261.940
G1 X107.018 Y54.594 E262.017
G1 X107.280 Y54.038 E262.091
G1 X107.628 Y53.573 E262.161
G1 X108.045 Y53.224 E262.226
G1 X108.510 Y53.007 E262.288
G1 X109.000 Y52.933 E262.347
G1 X109.000 Y52.933 E262.347
G1 X109.490 Y53.007 E262.407
G1 X109.955 Y53.224 E262.468
G1 X110.372 Y53.573 E262.533
G1 X110.720 Y54.038 E262.603
G1 X110.982 Y54.594 E262.677
G1 X111.145 Y55.214 E262.754
G1 X109.055 Y59.453 E263.321
G1 X109.218 Y60.073 E263.398
G1 X109.480 Y60.629 E263.472
G1 X109.828 Y61.093 E263.541
G1 X110.245 Y61.443 E263.607
G1 X110.710 Y61.660 E263.668
G1 X111.200 Y61.733 E263.728
G1 X111.690 Y61.660 E263.787
G1 X112.155 Y61.443 E263.849
G1 X112.572 Y61.093 E263.914
G1 X112.920 Y60.629 E263.984
G1 X113.182 Y60.073 E264.057
G1 X113.345 Y59.453 E264.134
G1 X111.255 Y55.214 E264.701
G1 X111.418 Y54.594 E264.778
G1 X111.680 Y54.038 E264.852
G1 X112.028 Y53.573 E264.922
G1 X112.445 Y53.224 E264.987
G1 X112.910 Y53.007 E265.049
G1 X113.400 Y52.933 E265.108
G1 X113.400 Y52.933 E265.108
G1 X113.890 Y53.007 E265.168
G1 X114.355 Y53.224 E265.229
G1 X114.772 Y53.573 E265.294
G1 X115.120 Y54.038 E265.364
G1 X115.382 Y54.594 E265.438
G1 X115.545 Y55.214 E265.515
G1 X113.455 Y59.453 E266.082
G1 X113.618 Y60.073 E266.159
G1 X113.880 Y60.629 E266.233
G1 X114.228 Y61.093 E266.302
G1 X114.645 Y61.443 E266.367
G1 X115.110 Y61.660 E266.429
G1 X115.600 Y61.733 E266.489
G1 X116.090 Y61.660 E266.548
G1 X116.555 Y61.443 E266.610
G1 X116.972 Y61.093 E266.675
G1 X117.320 Y60.629 E266.744
G1 X117.582 Y60.073 E266.818
G1 X117.745 Y59.453 E266.895
G1 X115.655 Y55.214 E267.462
G1 X115.818 Y54.594 E267.539
G1 X116.080 Y54.038 E267.613
G1 X116.428 Y53.573 E267.683
G1 X116.845 Y53.224 E267.748
G1 X117.310 Y53.007 E267.810
G1 X117.800 Y52.933 E267.869
G1 X117.800 Y52.933 E267.869
G1 X118.290 Y53.007 E267.928
G1 X118.755 Y53.224 E267.990
G1 X119.172 Y53.573 E268.055
G1 X119.520 Y54.038 E268.125
G1 X119.782 Y54.594 E268.199
G1 X119.945 Y55.214 E268.276
G1 X117.855 Y59.453 E268.843
G1 X118.018 Y60.073 E268.920
G1 X118.280 Y60.629 E268.993
G1 X118.628 Y61.093 E269.063
G1 X119.045 Y61.443 E269.128
G1 X119.510 Y61.660 E269.190
G1 X120.000 Y61.733 E269.249
G1 X120.490 Y61.660 E269.309
G1 X120.955 Y61.443 E269.370
G1 X121.372 Y61.093 E269.436
G1 X121.720 Y60.629 E269.505
G1 X121.982 Y60.073 E269.579
G1 X122.145 Y59.453 E269.656
G1 X120.055 Y55.214 E270.223
G1 X120.218 Y54.594 E270.300
G1 X120.480 Y54.038 E270.374
G1 X120.828 Y53.573 E270.444
G1 X121.245 Y53.224 E270.509
G1 X121.710 Y53.007 E270.570
G1 X122.200 Y52.933 E270.630
G1 X122.200 Y52.933 E270.630
G1 X122.690 Y53.007 E270.689
G1 X123.155 Y53.224 E270.751
G1 X123.572 Y53.573 E270.816
G1 X123.920 Y54.038 E270.886
G1 X124.182 Y54.594 E270.960
G1 X124.345 Y55.214 E271.037
G1 X122.255 Y59.453 E271.604
G1 X122.418 Y60.073 E271.681
G1 X122.680 Y60.629 E271.754
G1 X123.028 Y61.093 E271.824
G1 X123.445 Y61.443 E271.889
G1 X123.910 Y61.660 E271.951
G1 X124.400 Y61.733 E272.010
G1 X124.890 Y61.660 E272.070
G1 X125.355 Y61.443 E272.131
G1 X125.772 Y61.093 E272.197
G1 X126.120 Y60.629 E272.266
G1 X126.382 Y60.073 E272.340
G1 X126.545 Y59.453 E272.417
G1 X124.455 Y55.214 E272.984
G1 X124.618 Y54.594 E273.061
G1 X124.880 Y54.038 E273.135
G1 X125.228 Y53.573 E273.205
G1 X125.645 Y53.224 E273.270
G1 X126.110 Y53.007 E273.331
G1 X126.600 Y52.933 E273.391
G1 X126.600 Y52.933 E273.391
G1 X127.090 Y53.007 E273.450
G1 X127.555 Y53.224 E273.512
G1 X127.972 Y53.573 E273.577
G1 X128.320 Y54.038 E273.647
G1 X128.582 Y54.594 E273.721
G1 X128.745 Y55.214 E273.798
G1 X126.655 Y59.453 E274.365
G1 X126.818 Y60.073 E274.442
G1 X127.080 Y60.629 E274.515
G1 X127.428 Y61.093 E274.585
G1 X127.845 Y61.443 E274.650
G1 X128.310 Y61.660 E274.712
G1 X128.800 Y61.733 E274.771
G1 X129.290 Y61.660 E274.831
G1 X129.755 Y61.443 E274.892
G1 X130.172 Y61.093 E274.958
G1 X130.520 Y60.629 E275.027
G1 X130.782 Y60.073 E275.101
G1 X130.945 Y59.453 E275.178
G1 X128.855 Y55.214 E275.745
G1 X129.018 Y54.594 E275.822
G1 X129.280 Y54.038 E275.896
G1 X129.628 Y53.573 E275.965
G1 X130.045 Y53.224 E276.031
G1 X130.510 Y53.007 E276.092
G1 X131.000 Y52.933 E276.152
G1 X131.000 Y52.933 E276.152
G1 X131.490 Y53.007 E276.211
G1 X131.955 Y53.224 E276.273
G1 X132.372 Y53.573 E276.338
G1 X132.720 Y54.038 E276.408
G1 X132.982 Y54.594 E276.482
G1 X133.145 Y55.214 E276.558
G1 X131.055 Y59.453 E277.126
G1 X131.218 Y60.073 E277.203
G1 X131.480 Y60.629 E277.276
G1 X131.828 Y61.093 E277.346
G1 X132.245 Y61.443 E277.411
G1 X132.710 Y61.660 E277.473
G1 X133.200 Y61.733 E277.532
G1 X133.690 Y61.660 E277.592
G1 X134.155 Y61.443 E277.653
G1 X134.572 Y61.093 E277.719
G1 X134.920 Y60.629 E277.788
G1 X135.182 Y60.073 E277.862
G1 X135.345 Y59.453 E277.939
G1 X133.255 Y55.214 E278.506
G1 X133.418 Y54.594 E278.583
G1 X133.680 Y54.038 E278.657
G1 X134.028 Y53.573 E278.726
G1 X134.445 Y53.224 E278.792
G1 X134.910 Y53.007 E278.853
G1 X135.400 Y52.933 E278.913
G1 X135.400 Y52.933 E278.913
G1 X135.890 Y53.007 E278.972
G1 X136.355 Y53.224 E279.034
G1 X136.772 Y53.573 E279.099
G1 X137.120 Y54.038 E279.169
G1 X137.382 Y54.594 E279.242
G1 X137.545 Y55.214 E279.319
G1 X135.455 Y59.453 E279.887
G1 X135.618 Y60.073 E279.963
G1 X135.880 Y60.629 E280.037
G1 X136.228 Y61.093 E280.107
G1 X136.645 Y61.443 E280.172
G1 X137.110 Y61.660 E280.234
G1 X137.600 Y61.733 E280.293
G1 X138.090 Y61.660 E280.353
G1 X138.555 Y61.443 E280.414
G1 X138.972 Y61.093 E280.480
G1 X139.320 Y60.629 E280.549
G1 X139.582 Y60.073 E280.623
G1 X139.745 Y59.453 E280.700
G1 X137.655 Y55.214 E281.267
G1 X137.818 Y54.594 E281.344
G1 X138.080 Y54.038 E281.418
G1 X138.428 Y53.573 E281.487
G1 X138.845 Y53.224 E281.553
G1 X139.310 Y53.007 E281.614
G1 X139.800 Y52.933 E281.674
G1 X139.800 Y52.933 E281.674
G1 X140.290 Y53.007 E281.733
G1 X140.755 Y53.224 E281.795
G1 X141.172 Y53.573 E281.860
G1 X141.520 Y54.038 E281.930
G1 X141.782 Y54.594 E282.003
G1 X141.945 Y55.214 E282.080
G1 X139.855 Y59.453 E282.647
G1 X140.018 Y60.073 E282.724
G1 X140.280 Y60.629 E282.798
G1 X140.628 Y61.093 E282.868
G1 X141.045 Y61.443 E282.933
G1 X141.510 Y61.660 E282.995
G1 X142.000 Y61.733 E283.054
G1 X142.490 Y61.660 E283.114
G1 X142.955 Y61.443 E283.175
G1 X143.372 Y61.093 E283.240
G1 X143.720 Y60.629 E283.310
G1 X143.982 Y60.073 E283.384
G1 X144.145 Y59.453 E283.461
G1 X142.055 Y55.214 E284.028
G1 X142.218 Y54.594 E284.105
G1 X142.480 Y54.038 E284.179
G1 X142.828 Y53.573 E284.248
G1 X143.245 Y53.224 E284.314
G1 X143.710 Y53.007 E284.375
G1 X144.200 Y52.933 E284.435
G1 X144.200 Y52.933 E284.435
G1 X144.690 Y53.007 E284.494
G1 X145.155 Y53.224 E284.556
G1 X145.572 Y53.573 E284.621
G1 X145.920 Y54.038 E284.691
G1 X146.182 Y54.594 E284.764
G1 X146.345 Y55.214 E284.841
G1 X144.255 Y59.453 E285.408
G1 X144.418 Y60.073 E285.485
G1 X144.680 Y60.629 E285.559
G1 X145.028 Y61.093 E285.629
G1 X145.445 Y61.443 E285.694
G1 X145.910 Y61.660 E285.756
G1 X146.400 Y61.733 E285.815
G1 X146.890 Y61.660 E285.874
G1 X147.355 Y61.443 E285.936
G1 X147.772 Y61.093 E286.001
G1 X148.120 Y60.629 E286.071
G1 X148.382 Y60.073 E286.145
G1 X148.545 Y59.453 E286.222
G1 X146.455 Y55.214 E286.789
G1 X146.618 Y54.594 E286.866
G1 X146.880 Y54.038 E286.939
G1 X147.228 Y53.573 E287.009
G1 X147.645 Y53.224 E287.074
G1 X148.110 Y53.007 E287.136
G1 X148.600 Y52.933 E287.195
G1 X148.600 Y52.933 E287.195
G1 X149.090 Y53.007 E287.255
G1 X149.555 Y53.224 E287.317
G1 X149.972 Y53.573 E287.382
G1 X150.320 Y54.038 E287.451
G1 X150.582 Y54.594 E287.525
G1 X150.745 Y55.214 E287.602
G1 X148.655 Y59.453 E288.169
G1 X148.818 Y60.073 E288.246
G1 X149.080 Y60.629 E288.320
G1 X149.428 Y61.093 E288.390
G1 X149.845 Y61.443 E288.455
G1 X150.310 Y61.660 E288.516
G1 X150.800 Y61.733 E288.576
G1 X151.290 Y61.660 E288.635
G1 X151.755 Y61.443 E288.697
G1 X152.172 Y61.093 E288.762
G1 X152.520 Y60.629 E288.832
G1 X152.782 Y60.073 E288.906
G1 X152.945 Y59.453 E288.983
G1 X150.855 Y55.214 E289.550
G1 X151.018 Y54.594 E289.627
G1 X151.280 Y54.038 E289.700
G1 X151.628 Y53.573 E289.770
G1 X152.045 Y53.224 E289.835
G1 X152.510 Y53.007 E289.897
G1 X153.000 Y52.933 E289.956
G1 X153.000 Y52.933 E289.956
G1 X153.490 Y53.007 E290.016
G1 X153.955 Y53.224 E290.077
G1 X154.372 Y53.573 E290.143
G1 X154.720 Y54.038 E290.212
G1 X154.982 Y54.594 E290.286
G1 X155.145 Y55.214 E290.363
G1 X153.055 Y59.453 E290.930
G1 X153.218 Y60.073 E291.007
G1 X153.480 Y60.629 E291.081
G1 X153.828 Y61.093 E291.151
G1 X154.245 Y61.443 E291.216
G1 X154.710 Y61.660 E291.277
G1 X155.200 Y61.733 E291.337
G1 X155.690 Y61.660 E291.396
G1 X156.155 Y61.443 E291.458
G1 X156.572 Y61.093 E291.523
G1 X156.920 Y60.629 E291.593
G1 X157.182 Y60.073 E291.667
G1 X157.345 Y59.453 E291.744
G1 X155.255 Y55.214 E292.311
G1 X155.418 Y54.594 E292.388
G1 X155.680 Y54.038 E292.461
G1 X156.028 Y53.573 E292.531
G1 X156.445 Y53.224 E292.596
G1 X156.910 Y53.007 E292.658
G1 X157.400 Y52.933 E292.717
G1 X157.400 Y52.933 E292.717
G1 X157.890 Y53.007 E292.777
G1 X158.355 Y53.224 E292.838
G1 X158.772 Y53.573 E292.904
G1 X159.120 Y54.038 E292.973
G1 X159.382 Y54.594 E293.047
G1 X159.545 Y55.214 E293.124
G1 X157.455 Y59.453 E293.691
G1 X157.618 Y60.073 E293.768
G1 X157.880 Y60.629 E293.842
G1 X158.228 Y61.093 E293.911
G1 X158.645 Y61.443 E293.977
G1 X159.110 Y61.660 E294.038
G1 X159.600 Y61.733 E294.098
G1 X160.090 Y61.660 E294.157
G1 X160.555 Y61.443 E294.219
G1 X160.972 Y61.093 E294.284
G1 X161.320 Y60.629 E294.354
G1 X161.582 Y60.073 E294.428
G1 X161.745 Y59.453 E294.504
G1 X159.655 Y55.214 E295.072
G1 X159.818 Y54.594 E295.149
G1 X160.080 Y54.038 E295.222
G1 X160.428 Y53.573 E295.292
G1 X160.845 Y53.224 E295.357
G1 X161.310 Y53.007 E295.419
G1 X161.800 Y52.933 E295.478
G1 X161.800 Y52.933 E295.478
G1 X162.290 Y53.007 E295.538
G1 X162.755 Y53.224 E295.599
G1 X163.172 Y53.573 E295.665
G1 X163.520 Y54.038 E295.734
G1 X163.782 Y54.594 E295.808
G1 X163.945 Y55.214 E295.885
G1 X161.855 Y59.453 E296.452
G1 X162.018 Y60.073 E296.529
G1 X162.280 Y60.629 E296.603
G1 X162.628 Y61.093 E296.672
G1 X163.045 Y61.443 E296.738
G1 X163.510 Y61.660 E296.799
G1 X164.000 Y61.733 E296.859
G1 X164.490 Y61.660 E296.918
G1 X164.955 Y61.443 E296.980
G1 X165.372 Y61.093 E297.045
G1 X165.720 Y60.629 E297.115
G1 X165.982 Y60.073 E297.188
G1 X166.145 Y59.453 E297.265
G1 X164.055 Y55.214 E297.833
G1 X164.218 Y54.594 E297.909
G1 X164.480 Y54.038 E297.983
G1 X164.828 Y53.573 E298.053
G1 X165.245 Y53.224 E298.118
G1 X165.710 Y53.007 E298.180
G1 X166.200 Y52.933 E298.239
G1 X166.200 Y52.933 E298.239
G1 X166.690 Y53.007 E298.299
G1 X167.155 Y53.224 E298.360
G1 X167.572 Y53.573 E298.426
G1 X167.920 Y54.038 E298.495
G1 X168.182 Y54.594 E298.569
G1 X168.345 Y55.214 E298.646
G1 X166.255 Y59.453 E299.213
G1 X166.418 Y60.073 E299.290
G1 X166.680 Y60.629 E299.364
G1 X167.028 Y61.093 E299.433
G1 X167.445 Y61.443 E299.499
G1 X167.910 Y61.660 E299.560
G1 X168.400 Y61.733 E299.620
G1 X168.890 Y61.660 E299.679
G1 X169.355 Y61.443 E299.741
G1 X169.772 Y61.093 E299.806
G1 X170.120 Y60.629 E299.876
G1 X170.382 Y60.073 E299.949
G1 X170.545 Y59.453 E300.026
G1 X168.455 Y55.214 E300.593
G1 X168.618 Y54.594 E300.670
G1 X168.880 Y54.038 E300.744
G1 X169.228 Y53.573 E300.814
G1 X169.645 Y53.224 E300.879
G1 X170.110 Y53.007 E300.941
G1 X170.600 Y52.933 E301.000
G1 X170.600 Y52.933 E301.000
G1 X171.090 Y53.007 E301.060
G1 X171.555 Y53.224 E301.121
G1 X171.972 Y53.573 E301.186
G1 X172.320 Y54.038 E301.256
G1 X172.582 Y54.594 E301.330
G1 X172.745 Y55.214 E301.407
G1 X170.655 Y59.453 E301.974
G1 X170.818 Y60.073 E302.051
G1 X171.080 Y60.629 E302.125
G1 X171.428 Y61.093 E302.194
G1 X171.845 Y61.443 E302.260
G1 X172.310 Y61.660 E302.321
G1 X172.800 Y61.733 E302.381
G1 X173.290 Y61.660 E302.440
G1 X173.755 Y61.443 E302.502
G1 X174.172 Y61.093 E302.567
G1 X174.520 Y60.629 E302.637
G1 X174.782 Y60.073 E302.710
G1 X174.945 Y59.453 E302.787
G1 X172.855 Y55.214 E303.354
G1 X173.018 Y54.594 E303.431
G1 X173.280 Y54.038 E303.505
G1 X173.628 Y53.573 E303.575
G1 X174.045 Y53.224 E303.640
G1 X174.510 Y53.007 E303.702
G1 X175.000 Y52.933 E303.761
G1 X175.000 Y52.933 E303.761
G1 X175.490 Y53.007 E303.821
G1 X175.955 Y53.224 E303.882
G1 X176.372 Y53.573 E303.947
G1 X176.720 Y54.038 E304.017
G1 X176.982 Y54.594 E304.091
G1 X177.145 Y55.214 E304.168
G1 X175.055 Y59.453 E304.735
G1 X175.218 Y60.073 E304.812
G1 X175.480 Y60.629 E304.886
G1 X175.828 Y61.093 E304.955
G1 X176.245 Y61.443 E305.021
G1 X176.710 Y61.660 E305.082
G1 X177.200 Y61.733 E305.142
G1 X177.690 Y61.660 E305.201
G1 X178.155 Y61.443 E305.263
G1 X178.572 Y61.093 E305.328
G1 X178.920 Y60.629 E305.397
G1 X179.182 Y60.073 E305.471
G1 X179.345 Y59.453 E305.548
G1 X177.255 Y55.214 E306.115
G1 X177.418 Y54.594 E306.192
G1 X177.680 Y54.038 E306.266
G1 X178.028 Y53.573 E306.336
G1 X178.445 Y53.224 E306.401
G1 X178.910 Y53.007 E306.463
G1 X179.400 Y52.933 E306.522
G1 X179.400 Y52.933 E306.522
G1 X179.890 Y53.007 E306.581
G1 X180.355 Y53.224 E306.643
G1 X180.772 Y53.573 E306.708
G1 X181.120 Y54.038 E306.778
G1 X181.382 Y54.594 E306.852
G1 X181.545 Y55.214 E306.929
G1 X179.455 Y59.453 E307.496
G1 X179.618 Y60.073 E307.573
G1 X179.880 Y60.629 E307.647
G1 X180.228 Y61.093 E307.716
G1 X180.645 Y61.443 E307.781
G1 X181.110 Y61.660 E307.843
G1 X181.600 Y61.733 E307.902
G1 X182.090 Y61.660 E307.962
G1 X182.555 Y61.443 E308.023
G1 X182.972 Y61.093 E308.089
G1 X183.320 Y60.629 E308.158
G1 X183.582 Y60.073 E308.232
G1 X183.745 Y59.453 E308.309
G1 X181.655 Y55.214 E308.876
G1 X181.818 Y54.594 E308.953
G1 X182.080 Y54.038 E309.027
G1 X182.428 Y53.573 E309.097
G1 X182.845 Y53.224 E309.162
G1 X183.310 Y53.007 E309.223
G1 X183.800 Y52.933 E309.283
G1 X183.800 Y52.933 E309.283
G1 X184.290 Y53.007 E309.342
G1 X184.755 Y53.224 E309.404
G1 X185.172 Y53.573 E309.469
G1 X185.520 Y54.038 E309.539
G1 X185.782 Y54.594 E309.613
G1 X185.945 Y55.214 E309.690
G1 X183.855 Y59.453 E310.257
G1 X184.018 Y60.073 E310.334
G1 X184.280 Y60.629 E310.407
G1 X184.628 Y61.093 E310.477
G1 X185.045 Y61.443 E310.542
G1 X185.510 Y61.660 E310.604
G1 X186.000 Y61.733 E310.663
G1 X186.490 Y61.660 E310.723
G1 X186.955 Y61.443 E310.784
G1 X187.372 Y61.093 E310.850
G1 X187.720 Y60.629 E310.919
G1 X187.982 Y60.073 E310.993
G1 X188.145 Y59.453 E311.070
G1 X186.055 Y55.214 E311.637
G1 X186.218 Y54.594 E311.714
G1 X186.480 Y54.038 E311.788
G1 X186.828 Y53.573 E311.858
G1 X187.245 Y53.224 E311.923
G1 X187.710 Y53.007 E311.984
G1 X188.200 Y52.933 E312.044
G1 X188.200 Y57.333 E312.572
G1 X187.710 Y57.407 E312.631
G1 X187.245 Y57.624 E312.693
G1 X186.828 Y57.973 E312.758
G1 X186.480 Y58.438 E312.828
G1 X186.218 Y58.994 E312.902
G1 X186.055 Y59.614 E312.979
G1 X188.145 Y63.853 E313.546
G1 X187.982 Y64.473 E313.623
G1 X187.720 Y65.029 E313.696
G1 X187.372 Y65.493 E313.766
G1 X186.955 Y65.843 E313.831
G1 X186.490 Y66.060 E313.893
G1 X186.000 Y66.133 E313.952
G1 X185.510 Y66.060 E314.012
G1 X185.045 Y65.843 E314.073
G1 X184.628 Y65.493 E314.139
G1 X184.280 Y65.029 E314.208
G1 X184.018 Y64.473 E314.282
G1 X183.855 Y63.853 E314.359
G1 X185.945 Y59.614 E314.926
G1 X185.782 Y58.994 E315.003
G1 X185.520 Y58.438 E315.077
G1 X185.172 Y57.973 E315.146
G1 X184.755 Y57.624 E315.212
G1 X184.290 Y57.407 E315.273
G1 X183.800 Y57.333 E315.333
G1 X183.800 Y57.333 E315.333
G1 X183.310 Y57.407 E315.392
G1 X182.845 Y57.624 E315.454
G1 X182.428 Y57.973 E315.519
G1 X182.080 Y58.438 E315.589
G1 X181.818 Y58.994 E315.663
G1 X181.655 Y59.614 E315.739
G1 X183.745 Y63.853 E316.307
G1 X183.582 Y64.473 E316.384
G1 X183.320 Y65.029 E316.457
G1 X182.972 Y65.493 E316.527
G1 X182.555 Y65.843 E316.592
G1 X182.090 Y66.060 E316.654
G1 X181.600 Y66.133 E316.713
G1 X181.110 Y66.060 E316.773
G1 X180.645 Y65.843 E316.834
G1 X180.228 Y65.493 E316.900
G1 X179.880 Y65.029 E316.969
G1 X179.618 Y64.473 E317.043
G1 X179.455 Y63.853 E317.120
G1 X181.545 Y59.614 E317.687
G1 X181.382 Y58.994 E317.764
G1 X181.120 Y58.438 E317.838
G1 X180.772 Y57.973 E317.907
G1 X180.355 Y57.624 E317.973
G1 X179.890 Y57.407 E318.034
G1 X179.400 Y57.333 E318.094
G1 X179.400 Y57.333 E318.094
G1 X178.910 Y57.407 E318.153
G1 X178.445 Y57.624 E318.215
G1 X178.028 Y57.973 E318.280
G1 X177.680 Y58.438 E318.350
G1 X177.418 Y58.994 E318.423
G1 X177.255 Y59.614 E318.500
G1 X179.345 Y63.853 E319.068
G1 X179.182 Y64.473 E319.144
G1 X178.920 Y65.029 E319.218
G1 X178.572 Y65.493 E319.288
G1 X178.155 Y65.843 E319.353
G1 X177.690 Y66.060 E319.415
G1 X177.200 Y66.133 E319.474
G1 X176.710 Y66.060 E319.534
G1 X176.245 Y65.843 E319.595
G1 X175.828 Y65.493 E319.661
G1 X175.480 Y65.029 E319.730
G1 X175.218 Y64.473 E319.804
G1 X175.055 Y63.853 E319.881
G1 X177.145 Y59.614 E320.448
G1 X176.982 Y58.994 E320.525
G1 X176.720 Y58.438 E320.599
G1 X176.372 Y57.973 E320.668
G1 X175.955 Y57.624 E320.734
G1 X175.490 Y57.407 E320.795
G1 X175.000 Y57.333 E320.855
G1 X175.000 Y57.333 E320.855
G1 X174.510 Y57.407 E320.914
G1 X174.045 Y57.624 E320.976
G1 X173.628 Y57.973 E321.041
G1 X173.280 Y58.438 E321.111
G1 X173.018 Y58.994 E321.184
G1 X172.855 Y59.614 E321.261
G1 X174.945 Y63.853 E321.828
G1 X174.782 Y64.473 E321.905
G1 X174.520 Y65.029 E321.979
G1 X174.172 Y65.493 E322.049
G1 X173.755 Y65.843 E322.114
G1 X173.290 Y66.060 E322.176
G1 X172.800 Y66.133 E322.235
G1 X172.310 Y66.060 E322.295
G1 X171.845 Y65.843 E322.356
G1 X171.428 Y65.493 E322.421
G1 X171.080 Y65.029 E322.491
G1 X170.818 Y64.473 E322.565
G1 X170.655 Y63.853 E322.642
G1 X172.745 Y59.614 E323.209
G1 X172.582 Y58.994 E323.286
G1 X172.320 Y58.438 E323.360
G1 X171.972 Y57.973 E323.429
G1 X171.555 Y57.624 E323.495
G1 X171.090 Y57.407 E323.556
G1 X170.600 Y57.333 E323.616
G1 X170.600 Y57.333 E323.616
G1 X170.110 Y57.407 E323.675
G1 X169.645 Y57.624 E323.737
G1 X169.228 Y57.973 E323.802
G1 X168.880 Y58.438 E323.872
G1 X168.618 Y58.994 E323.945
G1 X168.455 Y59.614 E324.022
G1 X170.545 Y63.853 E324.589
G1 X170.382 Y64.473 E324.666
G1 X170.120 Y65.029 E324.740
G1 X169.772 Y65.493 E324.810
G1 X169.355 Y65.843 E324.875
G1 X168.890 Y66.060 E324.937
G1 X168.400 Y66.133 E324.996
G1 X167.910 Y66.060 E325.055
G1 X167.445 Y65.843 E325.117
G1 X167.028 Y65.493 E325.182
G1 X166.680 Y65.029 E325.252
G1 X166.418 Y64.473 E325.326
G1 X166.255 Y63.853 E325.403
G1 X168.345 Y59.614 E325.970
G1 X168.182 Y58.994 E326.047
G1 X167.920 Y58.438 E326.121
G1 X167.572 Y57.973 E326.190
G1 X167.155 Y57.624 E326.255
G1 X166.690 Y57.407 E326.317
G1 X166.200 Y57.333 E326.377
G1 X166.200 Y57.333 E326.377
G1 X165.710 Y57.407 E326.436
G1 X165.245 Y57.624 E326.498
G1 X164.828 Y57.973 E326.563
G1 X164.480 Y58.438 E326.633
G1 X164.218 Y58.994 E326.706
G1 X164.055 Y59.614 E326.783
G1 X166.145 Y63.853 E327.350
G1 X165.982 Y64.473 E327.427
G1 X165.720 Y65.029 E327.501
G1 X165.372 Y65.493 E327.571
G1 X164.955 Y65.843 E327.636
G1 X164.490 Y66.060 E327.698
G1 X164.000 Y66.133 E327.757
G1 X163.510 Y66.060 E327.816
G1 X163.045 Y65.843 E327.878
G1 X162.628 Y65.493 E327.943
G1 X162.280 Y65.029 E328.013
G1 X162.018 Y64.473 E328.087
G1 X161.855 Y63.853 E328.164
G1 X163.945 Y59.614 E328.731
G1 X163.782 Y58.994 E328.808
G1 X163.520 Y58.438 E328.881
G1 X163.172 Y57.973 E328.951
G1 X162.755 Y57.624 E329.016
G1 X162.290 Y57.407 E329.078
G1 X161.800 Y57.333 E329.137
G1 X161.800 Y57.333 E329.137
G1 X161.310 Y57.407 E329.197
G1 X160.845 Y57.624 E329.258
G1 X160.428 Y57.973 E329.324
G1 X160.080 Y58.438 E329.393
G1 X159.818 Y58.994 E329.467
G1 X159.655 Y59.614 E329.544
G1 X161.745 Y63.853 E330.111
G1 X161.582 Y64.473 E330.188
G1 X161.320 Y65.029 E330.262
G1 X160.972 Y65.493 E330.332
G1 X160.555 Y65.843 E330.397
G1 X160.090 Y66.060 E330.458
G1 X159.600 Y66.133 E330.518
G1 X159.110 Y66.060 E330.577
G1 X158.645 Y65.843 E330.639
G1 X158.228 Y65.493 E330.704
G1 X157.880 Y65.029 E330.774
G1 X157.618 Y64.473 E330.848
G1 X157.455 Y63.853 E330.925
G1 X159.545 Y59.614 E331.492
G1 X159.382 Y58.994 E331.569
G1 X159.120 Y58.438 E331.642
G1 X158.772 Y57.973 E331.712
G1 X158.355 Y57.624 E331.777
G1 X157.890 Y57.407 E331.839
G1 X157.400 Y57.333 E331.898
G1 X157.400 Y57.333 E331.898
G1 X156.910 Y57.407 E331.958
G1 X156.445 Y57.624 E332.019
G1 X156.028 Y57.973 E332.085
G1 X155.680 Y58.438 E332.154
G1 X155.418 Y58.994 E332.228
G1 X155.255 Y59.614 E332.305
G1 X157.345 Y63.853 E332.872
G1 X157.182 Y64.473 E332.949
G1 X156.920 Y65.029 E333.023
G1 X156.572 Y65.493 E333.092
G1 X156.155 Y65.843 E333.158
G1 X155.690 Y66.060 E333.219
G1 X155.200 Y66.133 E333.279
G1 X154.710 Y66.060 E333.338
G1 X154.245 Y65.843 E333.400
G1 X153.828 Y65.493 E333.465
G1 X153.480 Y65.029 E333.535
G1 X153.218 Y64.473 E333.609
G1 X153.055 Y63.853 E333.685
G1 X155.145 Y59.614 E334.253
G1 X154.982 Y58.994 E334.330
G1 X154.720 Y58.438 E334.403
G1 X154.372 Y57.973 E334.473
G1 X153.955 Y57.624 E334.538
G1 X153.490 Y57.407 E334.600
G1 X153.000 Y57.333 E334.659
G1 X153.000 Y57.333 E334.659
G1 X152.510 Y57.407 E334.719
G1 X152.045 Y57.624 E334.780
G1 X151.628 Y57.973 E334.846
G1 X151.280 Y58.438 E334.915
G1 X151.018 Y58.994 E334.989
G1 X150.855 Y59.614 E335.066
G1 X152.945 Y63.853 E335.633
G1 X152.782 Y64.473 E335.710
G1 X152.520 Y65.029 E335.784
G1 X152.172 Y65.493 E335.853
G1 X151.755 Y65.843 E335.919
G1 X151.290 Y66.060 E335.980
G1 X150.800 Y66.133 E336.040
G1 X150.310 Y66.060 E336.099
G1 X149.845 Y65.843 E336.161
G1 X149.428 Y65.493 E336.226
G1 X149.080 Y65.029 E336.296
G1 X148.818 Y64.473 E336.369
G1 X148.655 Y63.853 E336.446
G1 X150.745 Y59.614 E337.014
G1 X150.582 Y58.994 E337.090
G1 X150.320 Y58.438 E337.164
G1 X149.972 Y57.973 E337.234
G1 X149.555 Y57.624 E337.299
G1 X149.090 Y57.407 E337.361
G1 X148.600 Y57.333 E337.420
G1 X148.600 Y57.333 E337.420
G1 X148.110 Y57.407 E337.480
G1 X147.645 Y57.624 E337.541
G1 X147.228 Y57.973 E337.607
G1 X146.880 Y58.438 E337.676
G1 X146.618 Y58.994 E337.750
G1 X146.455 Y59.614 E337.827
G1 X148.545 Y63.853 E338.394
G1 X148.382 Y64.473 E338.471
G1 X148.120 Y65.029 E338.545
G1 X147.772 Y65.493 E338.614
G1 X147.355 Y65.843 E338.680
G1 X146.890 Y66.060 E338.741
G1 X146.400 Y66.133 E338.801
G1 X145.910 Y66.060 E338.860
G1 X145.445 Y65.843 E338.922
G1 X145.028 Y65.493 E338.987
G1 X144.680 Y65.029 E339.057
G1 X144.418 Y64.473 E339.130
G1 X144.255 Y63.853 E339.207
G1 X146.345 Y59.614 E339.774
G1 X146.182 Y58.994 E339.851
G1 X145.920 Y58.438 E339.925
G1 X145.572 Y57.973 E339.995
G1 X145.155 Y57.624 E340.060
G1 X144.690 Y57.407 E340.122
G1 X144.200 Y57.333 E340.181
G1 X144.200 Y57.333 E340.181
G1 X143.710 Y57.407 E340.241
G1 X143.245 Y57.624 E340.302
G1 X142.828 Y57.973 E340.367
G1 X142.480 Y58.438 E340.437
G1 X142.218 Y58.994 E340.511
G1 X142.055 Y59.614 E340.588
G1 X144.145 Y63.853 E341.155
G1 X143.982 Y64.473 E341.232
G1 X143.720 Y65.029 E341.306
G1 X143.372 Y65.493 E341.375
G1 X142.955 Y65.843 E341.441
G1 X142.490 Y66.060 E341.502
G1 X142.000 Y66.133 E341.562
G1 X141.510 Y66.060 E341.621
G1 X141.045 Y65.843 E341.683
G1 X140.628 Y65.493 E341.748
G1 X140.280 Y65.029 E341.818
G1 X140.018 Y64.473 E341.891
G1 X139.855 Y63.853 E341.968
G1 X141.945 Y59.614 E342.535
G1 X141.782 Y58.994 E342.612
G1 X141.520 Y58.438 E342.686
G1 X141.172 Y57.973 E342.756
G1 X140.755 Y57.624 E342.821
G1 X140.290 Y57.407 E342.883
G1 X139.800 Y57.333 E342.942
G1 X139.800 Y57.333 E342.942
G1 X139.310 Y57.407 E343.002
G1 X138.845 Y57.624 E343.063
G1 X138.428 Y57.973 E343.128
G1 X138.080 Y58.438 E343.198
G1 X137.818 Y58.994 E343.272
G1 X137.655 Y59.614 E343.349
G1 X139.745 Y63.853 E343.916
G1 X139.582 Y64.473 E343.993
G1 X139.320 Y65.029 E344.067
G1 X138.972 Y65.493 E344.136
G1 X138.555 Y65.843 E344.202
G1 X138.090 Y66.060 E344.263
G1 X137.600 Y66.133 E344.323
G1 X137.110 Y66.060 E344.382
G1 X136.645 Y65.843 E344.444
G1 X136.228 Y65.493 E344.509
G1 X135.880 Y65.029 E344.579
G1 X135.618 Y64.473 E344.652
G1 X135.455 Y63.853 E344.729
G1 X137.545 Y59.614 E345.296
G1 X137.382 Y58.994 E345.373
G1 X137.120 Y58.438 E345.447
G1 X136.772 Y57.973 E345.517
G1 X136.355 Y57.624 E345.582
G1 X135.890 Y57.407 E345.644
G1 X135.400 Y57.333 E345.703
G1 X135.400 Y57.333 E345.703
G1 X134.910 Y57.407 E345.762
G1 X134.445 Y57.624 E345.824
G1 X134.028 Y57.973 E345.889
G1 X133.680 Y58.438 E345.959
G1 X133.418 Y58.994 E346.033
G1 X133.255 Y59.614 E346.110
G1 X135.345 Y63.853 E346.677
G1 X135.182 Y64.473 E346.754
G1 X134.920 Y65.029 E346.828
G1 X134.572 Y65.493 E346.897
G1 X134.155 Y65.843 E346.962
G1 X133.690 Y66.060 E347.024
G1 X133.200 Y66.133 E347.083
G1 X132.710 Y66.060 E347.143
G1 X132.245 Y65.843 E347.205
G1 X131.828 Y65.493 E347.270
G1 X131.480 Y65.029 E347.339
G1 X131.218 Y64.473 E347.413
G1 X131.055 Y63.853 E347.490
G1 X133.145 Y59.614 E348.057
G1 X132.982 Y58.994 E348.134
G1 X132.720 Y58.438 E348.208
G1 X132.372 Y57.973 E348.278
G1 X131.955 Y57.624 E348.343
G1 X131.490 Y57.407 E348.404
G1 X131.000 Y57.333 E348.464
G1 X131.000 Y57.333 E348.464
G1 X130.510 Y57.407 E348.523
G1 X130.045 Y57.624 E348.585
G1 X129.628 Y57.973 E348.650
G1 X129.280 Y58.438 E348.720
G1 X129.018 Y58.994 E348.794
G1 X128.855 Y59.614 E348.871
G1 X130.945 Y63.853 E349.438
G1 X130.782 Y64.473 E349.515
G1 X130.520 Y65.029 E349.588
G1 X130.172 Y65.493 E349.658
G1 X129.755 Y65.843 E349.723
G1 X129.290 Y66.060 E349.785
G1 X128.800 Y66.133 E349.844
G1 X128.310 Y66.060 E349.904
G1 X127.845 Y65.843 E349.965
G1 X127.428 Y65.493 E350.031
G1 X127.080 Y65.029 E350.100
G1 X126.818 Y64.473 E350.174
G1 X126.655 Y63.853 E350.251
G1 X128.745 Y59.614 E350.818
G1 X128.582 Y58.994 E350.895
G1 X128.320 Y58.438 E350.969
G1 X127.972 Y57.973 E351.039
G1 X127.555 Y57.624 E351.104
G1 X127.090 Y57.407 E351.165
G1 X126.600 Y57.333 E351.225
G1 X126.600 Y57.333 E351.225
G1 X126.110 Y57.407 E351.284
G1 X125.645 Y57.624 E351.346
G1 X125.228 Y57.973 E351.411
G1 X124.880 Y58.438 E351.481
G1 X124.618 Y58.994 E351.555
G1 X124.455 Y59.614 E351.632
G1 X126.545 Y63.853 E352.199
G1 X126.382 Y64.473 E352.276
G1 X126.120 Y65.029 E352.349
G1 X125.772 Y65.493 E352.419
G1 X125.355 Y65.843 E352.484
G1 X124.890 Y66.060 E352.546
G1 X124.400 Y66.133 E352.605
G1 X123.910 Y66.060 E352.665
G1 X123.445 Y65.843 E352.726
G1 X123.028 Y65.493 E352.792
G1 X122.680 Y65.029 E352.861
G1 X122.418 Y64.473 E352.935
G1 X122.255 Y63.853 E353.012
