;Generated GCode by Ria Stroes
;Project: Generated Knittings
;3D-printer: Ultimaker 2+
;tempbed = 70
;tempextruder = 210
;nozzle = 0.4
;firstlayerheight = 0.27
;layerheight = 0.3
;speed = 2400
;outlinerounds = 10
;outlinerounddist = 4
;maxlayers = 5
;starting commands
G21 ;metric values
M82 ;set extruder to absolute mode
G90 ;absolute positioning
M107 ;start with the fan off
M109 S180 B210 F1;activate auto temp min 180 max 210 scaling factor 1 (for PLA)
G28; Home Axis
G29; Z-Probe the bed (requires Z-Probe!)
G1 Z5.0 F9000 ;move the head 5mm up for CYA clearance
G92 E0 ;zero the extruded length
M117 Cleaning...;Put Cleaning message on screen
G1 X100 Y0 F4000 ; move half way along the front edge
G1 Z1 ; move nozzle close to bed
M109 S200 ; heat nozzle to 200 degC and wait until reached
G4 P10000 ; wait 10 seconds for nozzle length to stabilize
G1 E10 ; extrude 10 mm of filament
G1 z15 F12000 E5 ; move 15 mm up, fast, while extruding 5mm
G92 E0 ; reset extruder
M117 Printing...;Put printing message on LCD screen
;move to start positions
G0 F9000 X84.200 Y106.350 Z0.27     ;move to Z position
G0 X84.200 Y106.350 F2400 ;move to beginning of outline
;create outline
G0 F4800
G1 X113.600 Y106.350 E0.000
G1 X113.600 Y106.350 E0.000
G1 X115.034 Y106.491 E0.156
G1 X116.413 Y106.909 E0.311
G1 X117.683 Y107.589 E0.467
G1 X118.797 Y108.503 E0.622
G1 X119.711 Y109.617 E0.778
G1 X120.391 Y110.887 E0.934
G1 X120.809 Y112.266 E1.089
G1 X120.950 Y157.800 E6.007
G1 X120.809 Y159.234 E6.163
G1 X120.391 Y160.613 E6.318
G1 X119.711 Y161.883 E6.474
G1 X118.797 Y162.997 E6.629
G1 X117.683 Y163.911 E6.785
G1 X116.413 Y164.591 E6.941
G1 X115.034 Y165.009 E7.096
G1 X84.200 Y165.150 E10.426
G1 X82.766 Y165.009 E10.582
G1 X81.387 Y164.591 E10.738
G1 X80.117 Y163.911 E10.893
G1 X79.003 Y162.997 E11.049
G1 X78.089 Y161.883 E11.204
G1 X77.409 Y160.613 E11.360
G1 X76.991 Y159.234 E11.516
G1 X76.850 Y113.700 E16.433
G1 X76.991 Y112.266 E16.589
G1 X77.409 Y110.887 E16.745
G1 X78.089 Y109.617 E16.900
G1 X79.003 Y108.503 E17.056
G1 X80.117 Y107.589 E17.211
G1 X81.387 Y106.909 E17.367
G1 X82.766 Y106.491 E17.523
G1 X84.200 Y106.350 E17.678
G1 X84.200 Y106.770 E17.724
G1 X113.600 Y106.770 E20.899
G1 X113.600 Y106.770 E20.899
G1 X114.952 Y106.903 E21.046
G1 X116.252 Y107.298 E21.192
G1 X117.450 Y107.938 E21.339
G1 X118.500 Y108.800 E21.486
G1 X119.362 Y109.850 E21.632
G1 X120.002 Y111.048 E21.779
G1 X120.397 Y112.348 E21.926
G1 X120.530 Y157.800 E26.835
G1 X120.397 Y159.152 E26.981
G1 X120.002 Y160.452 E27.128
G1 X119.362 Y161.650 E27.275
G1 X118.500 Y162.700 E27.422
G1 X117.450 Y163.562 E27.568
G1 X116.252 Y164.202 E27.715
G1 X114.952 Y164.597 E27.862
G1 X84.200 Y164.730 E31.183
G1 X82.848 Y164.597 E31.330
G1 X81.548 Y164.202 E31.476
G1 X80.350 Y163.562 E31.623
G1 X79.300 Y162.700 E31.770
G1 X78.438 Y161.650 E31.917
G1 X77.798 Y160.452 E32.063
G1 X77.403 Y159.152 E32.210
G1 X77.270 Y113.700 E37.119
G1 X77.403 Y112.348 E37.265
G1 X77.798 Y111.048 E37.412
G1 X78.438 Y109.850 E37.559
G1 X79.300 Y108.800 E37.706
G1 X80.350 Y107.938 E37.852
G1 X81.548 Y107.298 E37.999
G1 X82.848 Y106.903 E38.146
G1 X84.200 Y106.770 E38.293
G1 X84.200 Y107.190 E38.338
G1 X113.600 Y107.190 E41.513
G1 X113.600 Y107.190 E41.513
G1 X114.870 Y107.315 E41.651
G1 X116.091 Y107.686 E41.789
G1 X117.217 Y108.287 E41.927
G1 X118.203 Y109.097 E42.064
G1 X119.013 Y110.083 E42.202
G1 X119.614 Y111.209 E42.340
G1 X119.985 Y112.430 E42.478
G1 X120.110 Y157.800 E47.378
G1 X119.985 Y159.070 E47.516
G1 X119.614 Y160.291 E47.653
G1 X119.013 Y161.417 E47.791
G1 X118.203 Y162.403 E47.929
G1 X117.217 Y163.213 E48.067
G1 X116.091 Y163.814 E48.205
G1 X114.870 Y164.185 E48.343
G1 X84.200 Y164.310 E51.655
G1 X82.930 Y164.185 E51.793
G1 X81.709 Y163.814 E51.931
G1 X80.583 Y163.213 E52.068
G1 X79.597 Y162.403 E52.206
G1 X78.787 Y161.417 E52.344
G1 X78.186 Y160.291 E52.482
G1 X77.815 Y159.070 E52.620
G1 X77.690 Y113.700 E57.520
G1 X77.815 Y112.430 E57.658
G1 X78.186 Y111.209 E57.795
G1 X78.787 Y110.083 E57.933
G1 X79.597 Y109.097 E58.071
G1 X80.583 Y108.287 E58.209
G1 X81.709 Y107.686 E58.347
G1 X82.930 Y107.315 E58.485
G1 X84.200 Y107.190 E58.622
G1 X84.200 Y107.610 E58.668
G1 X113.600 Y107.610 E61.843
G1 X113.600 Y107.610 E61.843
G1 X114.788 Y107.727 E61.972
G1 X115.931 Y108.074 E62.101
G1 X116.983 Y108.636 E62.230
G1 X117.906 Y109.394 E62.359
G1 X118.664 Y110.317 E62.488
G1 X119.226 Y111.369 E62.616
G1 X119.573 Y112.512 E62.745
G1 X119.690 Y157.800 E67.637
G1 X119.573 Y158.988 E67.766
G1 X119.226 Y160.131 E67.895
G1 X118.664 Y161.183 E68.023
G1 X117.906 Y162.106 E68.152
G1 X116.983 Y162.864 E68.281
G1 X115.931 Y163.426 E68.410
G1 X114.788 Y163.773 E68.539
G1 X84.200 Y163.890 E71.843
G1 X83.012 Y163.773 E71.972
G1 X81.869 Y163.426 E72.101
G1 X80.817 Y162.864 E72.229
G1 X79.894 Y162.106 E72.358
G1 X79.136 Y161.183 E72.487
G1 X78.574 Y160.131 E72.616
G1 X78.227 Y158.988 E72.745
G1 X78.110 Y113.700 E77.636
G1 X78.227 Y112.512 E77.765
G1 X78.574 Y111.369 E77.894
G1 X79.136 Y110.317 E78.023
G1 X79.894 Y109.394 E78.152
G1 X80.817 Y108.636 E78.281
G1 X81.869 Y108.074 E78.410
G1 X83.012 Y107.727 E78.539
G1 X84.200 Y107.610 E78.668
G1 X84.200 Y108.030 E78.713
G1 X113.600 Y108.030 E81.888
G1 X113.600 Y108.030 E81.888
G1 X114.706 Y108.139 E82.008
G1 X115.770 Y108.462 E82.128
G1 X116.750 Y108.986 E82.248
G1 X117.609 Y109.691 E82.369
G1 X118.314 Y110.550 E82.489
G1 X118.838 Y111.530 E82.609
G1 X119.161 Y112.594 E82.729
G1 X119.270 Y157.800 E87.611
G1 X119.161 Y158.906 E87.731
G1 X118.838 Y159.970 E87.851
G1 X118.314 Y160.950 E87.971
G1 X117.609 Y161.809 E88.091
G1 X116.750 Y162.514 E88.211
G1 X115.770 Y163.038 E88.331
G1 X114.706 Y163.361 E88.451
G1 X84.200 Y163.470 E91.746
G1 X83.094 Y163.361 E91.866
G1 X82.030 Y163.038 E91.986
G1 X81.050 Y162.514 E92.106
G1 X80.191 Y161.809 E92.226
G1 X79.486 Y160.950 E92.346
G1 X78.962 Y159.970 E92.466
G1 X78.639 Y158.906 E92.586
G1 X78.530 Y113.700 E97.468
G1 X78.639 Y112.594 E97.588
G1 X78.962 Y111.530 E97.709
G1 X79.486 Y110.550 E97.829
G1 X80.191 Y109.691 E97.949
G1 X81.050 Y108.986 E98.069
G1 X82.030 Y108.462 E98.189
G1 X83.094 Y108.139 E98.309
G1 X84.200 Y108.030 E98.429
G1 X84.200 Y108.450 E98.474
G1 X113.600 Y108.450 E101.649
G1 X113.600 Y108.450 E101.649
G1 X114.624 Y108.551 E101.760
G1 X115.609 Y108.850 E101.872
G1 X116.517 Y109.335 E101.983
G1 X117.312 Y109.988 E102.094
G1 X117.965 Y110.783 E102.205
G1 X118.450 Y111.691 E102.316
G1 X118.749 Y112.676 E102.427
G1 X118.850 Y157.800 E107.301
G1 X118.749 Y158.824 E107.412
G1 X118.450 Y159.809 E107.523
G1 X117.965 Y160.717 E107.634
G1 X117.312 Y161.512 E107.745
G1 X116.517 Y162.165 E107.856
G1 X115.609 Y162.650 E107.968
G1 X114.624 Y162.949 E108.079
G1 X84.200 Y163.050 E111.365
G1 X83.176 Y162.949 E111.476
G1 X82.191 Y162.650 E111.587
G1 X81.283 Y162.165 E111.698
G1 X80.488 Y161.512 E111.809
G1 X79.835 Y160.717 E111.920
G1 X79.350 Y159.809 E112.031
G1 X79.051 Y158.824 E112.143
G1 X78.950 Y113.700 E117.016
G1 X79.051 Y112.676 E117.127
G1 X79.350 Y111.691 E117.238
G1 X79.835 Y110.783 E117.350
G1 X80.488 Y109.988 E117.461
G1 X81.283 Y109.335 E117.572
G1 X82.191 Y108.850 E117.683
G1 X83.176 Y108.551 E117.794
G1 X84.200 Y108.450 E117.905
G1 X84.200 Y108.870 E117.951
G1 X113.600 Y108.870 E121.126
G1 X113.600 Y108.870 E121.126
G1 X114.542 Y108.963 E121.228
G1 X115.448 Y109.238 E121.330
G1 X116.283 Y109.684 E121.432
G1 X117.015 Y110.285 E121.535
G1 X117.616 Y111.017 E121.637
G1 X118.062 Y111.852 E121.739
G1 X118.337 Y112.758 E121.842
G1 X118.430 Y157.800 E126.706
G1 X118.337 Y158.742 E126.808
G1 X118.062 Y159.648 E126.911
G1 X117.616 Y160.483 E127.013
G1 X117.015 Y161.215 E127.115
G1 X116.283 Y161.816 E127.217
G1 X115.448 Y162.262 E127.320
G1 X114.542 Y162.537 E127.422
G1 X84.200 Y162.630 E130.699
G1 X83.258 Y162.537 E130.801
G1 X82.352 Y162.262 E130.903
G1 X81.517 Y161.816 E131.006
G1 X80.785 Y161.215 E131.108
G1 X80.184 Y160.483 E131.210
G1 X79.738 Y159.648 E131.312
G1 X79.463 Y158.742 E131.415
G1 X79.370 Y113.700 E136.279
G1 X79.463 Y112.758 E136.381
G1 X79.738 Y111.852 E136.484
G1 X80.184 Y111.017 E136.586
G1 X80.785 Y110.285 E136.688
G1 X81.517 Y109.684 E136.790
G1 X82.352 Y109.238 E136.893
G1 X83.258 Y108.963 E136.995
G1 X84.200 Y108.870 E137.097
G1 X84.200 Y109.290 E137.143
G1 X113.600 Y109.290 E140.318
G1 X113.600 Y109.290 E140.318
G1 X114.460 Y109.375 E140.411
G1 X115.288 Y109.626 E140.505
G1 X116.050 Y110.033 E140.598
G1 X116.718 Y110.582 E140.691
G1 X117.267 Y111.250 E140.785
G1 X117.674 Y112.012 E140.878
G1 X117.925 Y112.840 E140.971
G1 X118.010 Y157.800 E145.827
G1 X117.925 Y158.660 E145.920
G1 X117.674 Y159.488 E146.014
G1 X117.267 Y160.250 E146.107
G1 X116.718 Y160.918 E146.201
G1 X116.050 Y161.467 E146.294
G1 X115.288 Y161.874 E146.387
G1 X114.460 Y162.125 E146.481
G1 X84.200 Y162.210 E149.749
G1 X83.340 Y162.125 E149.842
G1 X82.512 Y161.874 E149.935
G1 X81.750 Y161.467 E150.029
G1 X81.082 Y160.918 E150.122
G1 X80.533 Y160.250 E150.216
G1 X80.126 Y159.488 E150.309
G1 X79.875 Y158.660 E150.402
G1 X79.790 Y113.700 E155.258
G1 X79.875 Y112.840 E155.351
G1 X80.126 Y112.012 E155.445
G1 X80.533 Y111.250 E155.538
G1 X81.082 Y110.582 E155.631
G1 X81.750 Y110.033 E155.725
G1 X82.512 Y109.626 E155.818
G1 X83.340 Y109.375 E155.912
G1 X84.200 Y109.290 E156.005
G1 X84.200 Y109.710 E156.050
G1 X113.600 Y109.710 E159.225
G1 X113.600 Y109.710 E159.225
G1 X114.378 Y109.787 E159.310
G1 X115.127 Y110.014 E159.394
G1 X115.817 Y110.382 E159.479
G1 X116.421 Y110.879 E159.563
G1 X116.918 Y111.483 E159.648
G1 X117.286 Y112.173 E159.732
G1 X117.513 Y112.922 E159.817
G1 X117.590 Y157.800 E164.664
G1 X117.513 Y158.578 E164.748
G1 X117.286 Y159.327 E164.833
G1 X116.918 Y160.017 E164.917
G1 X116.421 Y160.621 E165.002
G1 X115.817 Y161.118 E165.086
G1 X115.127 Y161.486 E165.170
G1 X114.378 Y161.713 E165.255
G1 X84.200 Y161.790 E168.514
G1 X83.422 Y161.713 E168.599
G1 X82.673 Y161.486 E168.683
G1 X81.983 Y161.118 E168.768
G1 X81.379 Y160.621 E168.852
G1 X80.882 Y160.017 E168.937
G1 X80.514 Y159.327 E169.021
G1 X80.287 Y158.578 E169.106
G1 X80.210 Y113.700 E173.952
G1 X80.287 Y112.922 E174.037
G1 X80.514 Y112.173 E174.121
G1 X80.882 Y111.483 E174.206
G1 X81.379 Y110.879 E174.290
G1 X81.983 Y110.382 E174.375
G1 X82.673 Y110.014 E174.459
G1 X83.422 Y109.787 E174.544
G1 X84.200 Y109.710 E174.628
G1 X84.200 Y110.130 E174.674
G1 X113.600 Y110.130 E177.849
G1 X113.600 Y110.130 E177.849
G1 X114.296 Y110.199 E177.924
G1 X114.966 Y110.402 E178.000
G1 X115.583 Y110.732 E178.075
G1 X116.124 Y111.176 E178.151
G1 X116.568 Y111.717 E178.227
G1 X116.898 Y112.334 E178.302
G1 X117.101 Y113.004 E178.378
G1 X117.170 Y157.800 E183.216
G1 X117.101 Y158.496 E183.291
G1 X116.898 Y159.166 E183.367
G1 X116.568 Y159.783 E183.443
G1 X116.124 Y160.324 E183.518
G1 X115.583 Y160.768 E183.594
G1 X114.966 Y161.098 E183.669
G1 X114.296 Y161.301 E183.745
G1 X84.200 Y161.370 E186.995
G1 X83.504 Y161.301 E187.071
G1 X82.834 Y161.098 E187.146
G1 X82.217 Y160.768 E187.222
G1 X81.676 Y160.324 E187.298
G1 X81.232 Y159.783 E187.373
G1 X80.902 Y159.166 E187.449
G1 X80.699 Y158.496 E187.524
G1 X80.630 Y113.700 E192.362
G1 X80.699 Y113.004 E192.438
G1 X80.902 Y112.334 E192.513
G1 X81.232 Y111.717 E192.589
G1 X81.676 Y111.176 E192.665
G1 X82.217 Y110.732 E192.740
G1 X82.834 Y110.402 E192.816
G1 X83.504 Y110.199 E192.891
G1 X84.200 Y110.130 E192.967
G1 X84.200 Y110.550 E193.012
G1 X113.600 Y110.550 E196.187
G1 X113.600 Y110.550 E196.187
G1 X114.215 Y110.611 E196.254
G1 X114.805 Y110.790 E196.321
G1 X115.350 Y111.081 E196.387
G1 X115.827 Y111.473 E196.454
G1 X116.219 Y111.950 E196.521
G1 X116.510 Y112.495 E196.588
G1 X116.689 Y113.085 E196.654
G1 X116.750 Y157.800 E201.483
G1 X116.689 Y158.415 E201.550
G1 X116.510 Y159.005 E201.617
G1 X116.219 Y159.550 E201.683
G1 X115.827 Y160.027 E201.750
G1 X115.350 Y160.419 E201.817
G1 X114.805 Y160.710 E201.884
G1 X114.215 Y160.889 E201.950
G1 X84.200 Y160.950 E205.192
G1 X83.585 Y160.889 E205.258
G1 X82.995 Y160.710 E205.325
G1 X82.450 Y160.419 E205.392
G1 X81.973 Y160.027 E205.458
G1 X81.581 Y159.550 E205.525
G1 X81.290 Y159.005 E205.592
G1 X81.111 Y158.415 E205.658
G1 X81.050 Y113.700 E210.488
G1 X81.111 Y113.085 E210.554
G1 X81.290 Y112.495 E210.621
G1 X81.581 Y111.950 E210.688
G1 X81.973 Y111.473 E210.754
G1 X82.450 Y111.081 E210.821
G1 X82.995 Y110.790 E210.888
G1 X83.585 Y110.611 E210.954
G1 X84.200 Y110.550 E211.021
G1 X84.200 Y106.350 E211.475
;END create outline
;move to
G1 Z0.47000000000000003 F4800       ;move to Z position
G92 E0                     ;reset Extruder position
G1 X84.725 Y113.700 F2400     ;move to beginning of knitting
G1 Z0.27 F4800       ;move to Z position
;create path
G1 F2400
G1 X86.828 Y113.858 E0.228
G1 X88.825 Y114.324 E0.449
G1 X90.617 Y115.074 E0.659
G1 X92.113 Y116.072 E0.853
G1 X93.239 Y117.267 E1.031
G1 X93.938 Y118.598 E1.193
G1 X94.175 Y120.000 E1.347
G1 X94.057 Y121.402 E1.498
G1 X93.707 Y122.733 E1.647
G1 X93.144 Y123.928 E1.790
G1 X92.396 Y124.926 E1.924
G1 X91.500 Y125.676 E2.051
G1 X90.501 Y126.142 E2.170
G1 X89.450 Y126.300 E2.284
G1 X88.399 Y126.142 E2.399
G1 X87.400 Y125.676 E2.518
G1 X86.504 Y124.926 E2.645
G1 X85.756 Y123.928 E2.779
G1 X85.193 Y122.733 E2.922
G1 X84.843 Y121.402 E3.071
G1 X94.175 Y113.700 E4.377
G1 X96.278 Y113.858 E4.605
G1 X98.275 Y114.324 E4.827
G1 X100.067 Y115.074 E5.036
G1 X101.563 Y116.072 E5.231
G1 X102.689 Y117.267 E5.408
G1 X103.388 Y118.598 E5.570
G1 X103.625 Y120.000 E5.724
G1 X103.507 Y121.402 E5.876
G1 X103.157 Y122.733 E6.024
G1 X102.594 Y123.928 E6.167
G1 X101.846 Y124.926 E6.302
G1 X100.950 Y125.676 E6.428
G1 X99.951 Y126.142 E6.547
G1 X98.900 Y126.300 E6.662
G1 X97.849 Y126.142 E6.777
G1 X96.850 Y125.676 E6.896
G1 X95.954 Y124.926 E7.022
G1 X95.206 Y123.928 E7.157
G1 X94.643 Y122.733 E7.299
G1 X94.293 Y121.402 E7.448
G1 X103.625 Y113.700 E8.755
G1 X105.728 Y113.858 E8.982
G1 X107.725 Y114.324 E9.204
G1 X109.517 Y115.074 E9.414
G1 X111.013 Y116.072 E9.608
G1 X112.139 Y117.267 E9.785
G1 X112.838 Y118.598 E9.948
G1 X113.075 Y120.000 E10.101
G1 X112.957 Y121.402 E10.253
G1 X112.607 Y122.733 E10.402
G1 X112.044 Y123.928 E10.544
G1 X111.296 Y124.926 E10.679
G1 X110.400 Y125.676 E10.805
G1 X109.401 Y126.142 E10.924
G1 X108.350 Y126.300 E11.039
G1 X107.299 Y126.142 E11.154
G1 X106.300 Y125.676 E11.273
G1 X105.404 Y124.926 E11.399
G1 X104.656 Y123.928 E11.534
G1 X104.093 Y122.733 E11.677
G1 X103.743 Y121.402 E11.825
G1 X113.075 Y113.700 E13.132
G1 X113.075 Y116.850 E13.472
G1 X112.024 Y117.008 E13.587
G1 X111.025 Y117.474 E13.706
G1 X110.129 Y118.224 E13.832
G1 X109.381 Y119.222 E13.967
G1 X108.818 Y120.417 E14.110
G1 X108.468 Y121.748 E14.258
G1 X112.957 Y130.852 E15.354
G1 X112.607 Y132.183 E15.503
G1 X112.044 Y133.378 E15.646
G1 X111.296 Y134.376 E15.780
G1 X110.400 Y135.126 E15.907
G1 X109.401 Y135.592 E16.026
G1 X108.350 Y135.750 E16.140
G1 X107.299 Y135.592 E16.255
G1 X106.300 Y135.126 E16.374
G1 X105.404 Y134.376 E16.500
G1 X104.656 Y133.378 E16.635
G1 X104.093 Y132.183 E16.778
G1 X103.743 Y130.852 E16.926
G1 X108.232 Y121.748 E18.023
G1 X107.882 Y120.417 E18.171
G1 X107.319 Y119.222 E18.314
G1 X106.571 Y118.224 E18.449
G1 X105.675 Y117.474 E18.575
G1 X104.676 Y117.008 E18.694
G1 X103.625 Y116.850 E18.809
G1 X103.625 Y116.850 E18.809
G1 X102.574 Y117.008 E18.924
G1 X101.575 Y117.474 E19.043
G1 X100.679 Y118.224 E19.169
G1 X99.931 Y119.222 E19.304
G1 X99.368 Y120.417 E19.446
G1 X99.018 Y121.748 E19.595
G1 X103.507 Y130.852 E20.691
G1 X103.157 Y132.183 E20.840
G1 X102.594 Y133.378 E20.982
G1 X101.846 Y134.376 E21.117
G1 X100.950 Y135.126 E21.243
G1 X99.951 Y135.592 E21.362
G1 X98.900 Y135.750 E21.477
G1 X97.849 Y135.592 E21.592
G1 X96.850 Y135.126 E21.711
G1 X95.954 Y134.376 E21.837
G1 X95.206 Y133.378 E21.972
G1 X94.643 Y132.183 E22.114
G1 X94.293 Y130.852 E22.263
G1 X98.782 Y121.748 E23.359
G1 X98.432 Y120.417 E23.508
G1 X97.869 Y119.222 E23.651
G1 X97.121 Y118.224 E23.785
G1 X96.225 Y117.474 E23.912
G1 X95.226 Y117.008 E24.031
G1 X94.175 Y116.850 E24.145
G1 X94.175 Y116.850 E24.145
G1 X93.124 Y117.008 E24.260
G1 X92.125 Y117.474 E24.379
G1 X91.229 Y118.224 E24.505
G1 X90.481 Y119.222 E24.640
G1 X89.918 Y120.417 E24.783
G1 X89.568 Y121.748 E24.931
G1 X94.057 Y130.852 E26.028
G1 X93.707 Y132.183 E26.176
G1 X93.144 Y133.378 E26.319
G1 X92.396 Y134.376 E26.454
G1 X91.500 Y135.126 E26.580
G1 X90.501 Y135.592 E26.699
G1 X89.450 Y135.750 E26.814
G1 X88.399 Y135.592 E26.929
G1 X87.400 Y135.126 E27.048
G1 X86.504 Y134.376 E27.174
G1 X85.756 Y133.378 E27.308
G1 X85.193 Y132.183 E27.451
G1 X84.843 Y130.852 E27.600
G1 X89.332 Y121.748 E28.696
G1 X88.982 Y120.417 E28.845
G1 X88.419 Y119.222 E28.987
G1 X87.671 Y118.224 E29.122
G1 X86.775 Y117.474 E29.248
G1 X85.776 Y117.008 E29.367
G1 X84.725 Y116.850 E29.482
G1 X84.725 Y126.300 E30.503
G1 X85.776 Y126.458 E30.617
G1 X86.775 Y126.924 E30.736
G1 X87.671 Y127.674 E30.863
G1 X88.419 Y128.672 E30.997
G1 X88.982 Y129.867 E31.140
G1 X89.332 Y131.198 E31.289
G1 X84.843 Y140.302 E32.385
G1 X85.193 Y141.633 E32.534
G1 X85.756 Y142.828 E32.676
G1 X86.504 Y143.826 E32.811
G1 X87.400 Y144.576 E32.937
G1 X88.399 Y145.042 E33.056
G1 X89.450 Y145.200 E33.171
G1 X90.501 Y145.042 E33.286
G1 X91.500 Y144.576 E33.405
G1 X92.396 Y143.826 E33.531
G1 X93.144 Y142.828 E33.666
G1 X93.707 Y141.633 E33.808
G1 X94.057 Y140.302 E33.957
G1 X89.568 Y131.198 E35.053
G1 X89.918 Y129.867 E35.202
G1 X90.481 Y128.672 E35.345
G1 X91.229 Y127.674 E35.479
G1 X92.125 Y126.924 E35.605
G1 X93.124 Y126.458 E35.725
G1 X94.175 Y126.300 E35.839
G1 X94.175 Y126.300 E35.839
G1 X95.226 Y126.458 E35.954
G1 X96.225 Y126.924 E36.073
G1 X97.121 Y127.674 E36.199
G1 X97.869 Y128.672 E36.334
G1 X98.432 Y129.867 E36.477
G1 X98.782 Y131.198 E36.625
G1 X94.293 Y140.302 E37.722
G1 X94.643 Y141.633 E37.870
G1 X95.206 Y142.828 E38.013
G1 X95.954 Y143.826 E38.148
G1 X96.850 Y144.576 E38.274
G1 X97.849 Y145.042 E38.393
G1 X98.900 Y145.200 E38.508
G1 X99.951 Y145.042 E38.622
G1 X100.950 Y144.576 E38.741
G1 X101.846 Y143.826 E38.868
G1 X102.594 Y142.828 E39.002
G1 X103.157 Y141.633 E39.145
G1 X103.507 Y140.302 E39.294
G1 X99.018 Y131.198 E40.390
G1 X99.368 Y129.867 E40.539
G1 X99.931 Y128.672 E40.681
G1 X100.679 Y127.674 E40.816
G1 X101.575 Y126.924 E40.942
G1 X102.574 Y126.458 E41.061
G1 X103.625 Y126.300 E41.176
G1 X103.625 Y126.300 E41.176
G1 X104.676 Y126.458 E41.291
G1 X105.675 Y126.924 E41.410
G1 X106.571 Y127.674 E41.536
G1 X107.319 Y128.672 E41.671
G1 X107.882 Y129.867 E41.813
G1 X108.232 Y131.198 E41.962
G1 X103.743 Y140.302 E43.058
G1 X104.093 Y141.633 E43.207
G1 X104.656 Y142.828 E43.350
G1 X105.404 Y143.826 E43.484
G1 X106.300 Y144.576 E43.610
G1 X107.299 Y145.042 E43.729
G1 X108.350 Y145.200 E43.844
G1 X109.401 Y145.042 E43.959
G1 X110.400 Y144.576 E44.078
G1 X111.296 Y143.826 E44.204
G1 X112.044 Y142.828 E44.339
G1 X112.607 Y141.633 E44.482
G1 X112.957 Y140.302 E44.630
G1 X108.468 Y131.198 E45.727
G1 X108.818 Y129.867 E45.875
G1 X109.381 Y128.672 E46.018
G1 X110.129 Y127.674 E46.153
G1 X111.025 Y126.924 E46.279
G1 X112.024 Y126.458 E46.398
G1 X113.075 Y126.300 E46.513
G1 X113.075 Y135.750 E47.533
G1 X112.024 Y135.908 E47.648
G1 X111.025 Y136.374 E47.767
G1 X110.129 Y137.124 E47.893
G1 X109.381 Y138.122 E48.028
G1 X108.818 Y139.317 E48.171
G1 X108.468 Y140.648 E48.319
G1 X112.957 Y149.752 E49.415
G1 X112.607 Y151.083 E49.564
G1 X112.044 Y152.278 E49.707
G1 X111.296 Y153.276 E49.841
G1 X110.400 Y154.026 E49.968
G1 X109.401 Y154.492 E50.087
G1 X108.350 Y154.650 E50.201
G1 X107.299 Y154.492 E50.316
G1 X106.300 Y154.026 E50.435
G1 X105.404 Y153.276 E50.562
G1 X104.656 Y152.278 E50.696
G1 X104.093 Y151.083 E50.839
G1 X103.743 Y149.752 E50.988
G1 X108.232 Y140.648 E52.084
G1 X107.882 Y139.317 E52.232
G1 X107.319 Y138.122 E52.375
G1 X106.571 Y137.124 E52.510
G1 X105.675 Y136.374 E52.636
G1 X104.676 Y135.908 E52.755
G1 X103.625 Y135.750 E52.870
G1 X103.625 Y135.750 E52.870
G1 X102.574 Y135.908 E52.985
G1 X101.575 Y136.374 E53.104
G1 X100.679 Y137.124 E53.230
G1 X99.931 Y138.122 E53.365
G1 X99.368 Y139.317 E53.507
G1 X99.018 Y140.648 E53.656
G1 X103.507 Y149.752 E54.752
G1 X103.157 Y151.083 E54.901
G1 X102.594 Y152.278 E55.043
G1 X101.846 Y153.276 E55.178
G1 X100.950 Y154.026 E55.304
G1 X99.951 Y154.492 E55.423
G1 X98.900 Y154.650 E55.538
G1 X97.849 Y154.492 E55.653
G1 X96.850 Y154.026 E55.772
G1 X95.954 Y153.276 E55.898
G1 X95.206 Y152.278 E56.033
G1 X94.643 Y151.083 E56.176
G1 X94.293 Y149.752 E56.324
G1 X98.782 Y140.648 E57.420
G1 X98.432 Y139.317 E57.569
G1 X97.869 Y138.122 E57.712
G1 X97.121 Y137.124 E57.846
G1 X96.225 Y136.374 E57.973
G1 X95.226 Y135.908 E58.092
G1 X94.175 Y135.750 E58.206
G1 X94.175 Y135.750 E58.206
G1 X93.124 Y135.908 E58.321
G1 X92.125 Y136.374 E58.440
G1 X91.229 Y137.124 E58.566
G1 X90.481 Y138.122 E58.701
G1 X89.918 Y139.317 E58.844
G1 X89.568 Y140.648 E58.992
G1 X94.057 Y149.752 E60.089
G1 X93.707 Y151.083 E60.237
G1 X93.144 Y152.278 E60.380
G1 X92.396 Y153.276 E60.515
G1 X91.500 Y154.026 E60.641
G1 X90.501 Y154.492 E60.760
G1 X89.450 Y154.650 E60.875
G1 X88.399 Y154.492 E60.990
G1 X87.400 Y154.026 E61.109
G1 X86.504 Y153.276 E61.235
G1 X85.756 Y152.278 E61.369
G1 X85.193 Y151.083 E61.512
G1 X84.843 Y149.752 E61.661
G1 X89.332 Y140.648 E62.757
G1 X88.982 Y139.317 E62.906
G1 X88.419 Y138.122 E63.048
G1 X87.671 Y137.124 E63.183
G1 X86.775 Y136.374 E63.309
G1 X85.776 Y135.908 E63.428
G1 X84.725 Y135.750 E63.543
G1 X84.725 Y154.650 E65.584
G1 X89.450 Y151.500 E66.198
G1 X89.332 Y150.098 E66.350
G1 X88.982 Y148.767 E66.498
G1 X88.419 Y147.572 E66.641
G1 X87.671 Y146.574 E66.776
G1 X86.775 Y145.824 E66.902
G1 X85.776 Y145.358 E67.021
G1 X84.725 Y145.200 E67.136
G1 X84.200 Y151.500 E67.818
G1 X84.200 Y151.500 E67.818
G1 X84.200 Y152.902 E67.970
G1 X84.200 Y152.902 E67.970
G1 X84.200 Y154.233 E68.113
G1 X84.200 Y154.233 E68.113
G1 X84.200 Y155.428 E68.243
G1 X84.200 Y155.428 E68.243
G1 X84.200 Y156.426 E68.350
G1 X84.200 Y156.426 E68.350
G1 X85.350 Y157.176 E68.499
G1 X87.347 Y157.642 E68.720
G1 X89.450 Y157.800 E68.948
G1 X91.553 Y157.642 E69.176
G1 X93.550 Y157.176 E69.397
G1 X95.342 Y156.426 E69.607
G1 X96.838 Y155.428 E69.801
G1 X97.964 Y154.233 E69.978
G1 X98.663 Y152.902 E70.141
G1 X98.900 Y151.500 E70.294
G1 X98.782 Y150.098 E70.446
G1 X98.432 Y148.767 E70.595
G1 X97.869 Y147.572 E70.738
G1 X97.121 Y146.574 E70.872
G1 X96.225 Y145.824 E70.999
G1 X95.226 Y145.358 E71.118
G1 X94.175 Y145.200 E71.232
G1 X93.124 Y145.358 E71.347
G1 X92.125 Y145.824 E71.466
G1 X91.229 Y146.574 E71.592
G1 X90.481 Y147.572 E71.727
G1 X89.918 Y148.767 E71.870
G1 X89.568 Y150.098 E72.018
G1 X89.450 Y151.500 E72.170
G1 X89.687 Y152.902 E72.324
G1 X90.386 Y154.233 E72.486
G1 X91.512 Y155.428 E72.664
G1 X93.008 Y156.426 E72.858
G1 X94.800 Y157.176 E73.068
G1 X96.797 Y157.642 E73.289
G1 X98.900 Y157.800 E73.517
G1 X101.003 Y157.642 E73.745
G1 X103.000 Y157.176 E73.966
G1 X104.792 Y156.426 E74.176
G1 X106.288 Y155.428 E74.370
G1 X107.414 Y154.233 E74.547
G1 X108.113 Y152.902 E74.710
G1 X108.350 Y151.500 E74.863
G1 X108.232 Y150.098 E75.015
G1 X107.882 Y148.767 E75.164
G1 X107.319 Y147.572 E75.307
G1 X106.571 Y146.574 E75.441
G1 X105.675 Y145.824 E75.568
G1 X104.676 Y145.358 E75.687
G1 X103.625 Y145.200 E75.801
G1 X102.574 Y145.358 E75.916
G1 X101.575 Y145.824 E76.035
G1 X100.679 Y146.574 E76.161
G1 X99.931 Y147.572 E76.296
G1 X99.368 Y148.767 E76.439
G1 X99.018 Y150.098 E76.587
G1 X98.900 Y151.500 E76.739
G1 X99.137 Y152.902 E76.893
G1 X99.836 Y154.233 E77.055
G1 X100.962 Y155.428 E77.233
G1 X102.458 Y156.426 E77.427
G1 X104.250 Y157.176 E77.637
G1 X106.247 Y157.642 E77.858
G1 X108.350 Y157.800 E78.086
G1 X110.453 Y157.642 E78.314
G1 X112.450 Y157.176 E78.535
G1 X113.600 Y156.426 E78.683
G1 X113.600 Y155.428 E78.791
G1 X113.600 Y154.233 E78.920
G1 X113.600 Y152.902 E79.064
G1 X113.075 Y145.200 E79.898
G1 X112.024 Y145.358 E80.012
G1 X111.025 Y145.824 E80.132
G1 X110.129 Y146.574 E80.258
G1 X109.381 Y147.572 E80.392
G1 X108.818 Y148.767 E80.535
G1 X108.468 Y150.098 E80.684
G1 X108.350 Y151.500 E80.836
G1 X108.587 Y152.902 E80.989
G1 X109.286 Y154.233 E81.152
G1 X110.412 Y155.428 E81.329
G1 X111.908 Y156.426 E81.523
G1 X113.600 Y157.176 E81.723
;End create path
M107         ;turn off fan
M104 S0      ;turn off temperature
M140 S0      ;heated bed heater off
G91          ;relative positioning
G1 E-1 F300  ;retract the filament a bit before lifting the nozzle, to release some of the pressure 
G1 Z+0.5 E-5 X-20 Y-20 F9000 ;move Z up a bit and retract filament even more
G28 X0 Y0      ;home X axis 
G1 Y150 F5000  ;move completed part out
M84          ;disable motors
G90          ;absolute positioning
;End of gcode