;Generated GCode by Ria Stroes
;Project: Generated Knittings
;3D-printer: Ultimaker 2+
;tempbed = 70
;tempextruder = 210
;nozzle = 0.4
;firstlayerheight = 0.27
;layerheight = 0.3
;speed = 2400
;outlinerounds = 10
;outlinerounddist = 4
;maxlayers = 5
;starting commands
G21 ;metric values
M82 ;set extruder to absolute mode
G90 ;absolute positioning
M107 ;start with the fan off
M109 S180 B210 F1;activate auto temp min 180 max 210 scaling factor 1 (for PLA)
M140 S60
M190 S60
G28; Home Axis

G1 Z5.0 F9000 ;move the head 5mm up for CYA clearance
G92 E0 ;zero the extruded length
M117 Cleaning...;Put Cleaning message on screen
G1 X100 Y0 F4000 ; move half way along the front edge
G1 Z5 ; move nozzle close to bed
M109 S200 ; heat nozzle to 200 degC and wait until reached
G4 P10000 ; wait 10 seconds for nozzle length to stabilize
G1 Z20 
G1 E60 ; extrude 60 mm of filament
G92 E0 ; reset extruder
M117 Printing...;Put printing message on LCD screen
;move to start positions
G0 F9000 X100.000 Y43.000 Z0.27     ;move to Z position
G0 X100.000 Y43.000 F2400 ;move to beginning of outline
;create outline
G0 F4800
G1 X150.000 Y43.000 E0.000
G1 X150.000 Y43.000 E0.000
G1 X151.366 Y43.135 E0.148
G1 X152.679 Y43.533 E0.296
G1 X153.889 Y44.180 E0.445
G1 X154.950 Y45.050 E0.593
G1 X155.820 Y46.111 E0.741
G1 X156.467 Y47.321 E0.889
G1 X156.865 Y48.634 E1.037
G1 X157.000 Y60.000 E2.265
G1 X156.865 Y61.366 E2.413
G1 X156.467 Y62.679 E2.561
G1 X155.820 Y63.889 E2.710
G1 X154.950 Y64.950 E2.858
G1 X153.889 Y65.820 E3.006
G1 X152.679 Y66.467 E3.154
G1 X151.366 Y66.865 E3.302
G1 X100.000 Y67.000 E8.850
G1 X98.634 Y66.865 E8.998
G1 X97.321 Y66.467 E9.146
G1 X96.111 Y65.820 E9.294
G1 X95.050 Y64.950 E9.443
G1 X94.180 Y63.889 E9.591
G1 X93.533 Y62.679 E9.739
G1 X93.135 Y61.366 E9.887
G1 X93.000 Y50.000 E11.115
G1 X93.135 Y48.634 E11.263
G1 X93.533 Y47.321 E11.411
G1 X94.180 Y46.111 E11.559
G1 X95.050 Y45.050 E11.708
G1 X96.111 Y44.180 E11.856
G1 X97.321 Y43.533 E12.004
G1 X98.634 Y43.135 E12.152
G1 X100.000 Y43.000 E12.300
G1 X100.000 Y43.400 E12.344
G1 X150.000 Y43.400 E17.744
G1 X150.000 Y43.400 E17.744
G1 X151.288 Y43.527 E17.883
G1 X152.526 Y43.902 E18.023
G1 X153.667 Y44.512 E18.163
G1 X154.667 Y45.333 E18.303
G1 X155.488 Y46.333 E18.442
G1 X156.098 Y47.474 E18.582
G1 X156.473 Y48.712 E18.722
G1 X156.600 Y60.000 E19.941
G1 X156.473 Y61.288 E20.081
G1 X156.098 Y62.526 E20.220
G1 X155.488 Y63.667 E20.360
G1 X154.667 Y64.667 E20.500
G1 X153.667 Y65.488 E20.640
G1 X152.526 Y66.098 E20.779
G1 X151.288 Y66.473 E20.919
G1 X100.000 Y66.600 E26.458
G1 X98.712 Y66.473 E26.598
G1 X97.474 Y66.098 E26.738
G1 X96.333 Y65.488 E26.877
G1 X95.333 Y64.667 E27.017
G1 X94.512 Y63.667 E27.157
G1 X93.902 Y62.526 E27.297
G1 X93.527 Y61.288 E27.436
G1 X93.400 Y50.000 E28.655
G1 X93.527 Y48.712 E28.795
G1 X93.902 Y47.474 E28.935
G1 X94.512 Y46.333 E29.075
G1 X95.333 Y45.333 E29.214
G1 X96.333 Y44.512 E29.354
G1 X97.474 Y43.902 E29.494
G1 X98.712 Y43.527 E29.634
G1 X100.000 Y43.400 E29.773
G1 X100.000 Y43.800 E29.817
G1 X150.000 Y43.800 E35.217
G1 X150.000 Y43.800 E35.217
G1 X151.210 Y43.919 E35.348
G1 X152.373 Y44.272 E35.479
G1 X153.445 Y44.845 E35.610
G1 X154.384 Y45.616 E35.742
G1 X155.155 Y46.555 E35.873
G1 X155.728 Y47.627 E36.004
G1 X156.081 Y48.790 E36.135
G1 X156.200 Y60.000 E37.346
G1 X156.081 Y61.210 E37.477
G1 X155.728 Y62.373 E37.609
G1 X155.155 Y63.445 E37.740
G1 X154.384 Y64.384 E37.871
G1 X153.445 Y65.155 E38.002
G1 X152.373 Y65.728 E38.134
G1 X151.210 Y66.081 E38.265
G1 X100.000 Y66.200 E43.796
G1 X98.790 Y66.081 E43.927
G1 X97.627 Y65.728 E44.058
G1 X96.555 Y65.155 E44.189
G1 X95.616 Y64.384 E44.321
G1 X94.845 Y63.445 E44.452
G1 X94.272 Y62.373 E44.583
G1 X93.919 Y61.210 E44.714
G1 X93.800 Y50.000 E45.925
G1 X93.919 Y48.790 E46.057
G1 X94.272 Y47.627 E46.188
G1 X94.845 Y46.555 E46.319
G1 X95.616 Y45.616 E46.450
G1 X96.555 Y44.845 E46.582
G1 X97.627 Y44.272 E46.713
G1 X98.790 Y43.919 E46.844
G1 X100.000 Y43.800 E46.975
G1 X100.000 Y44.200 E47.019
G1 X150.000 Y44.200 E52.419
G1 X150.000 Y44.200 E52.419
G1 X151.132 Y44.311 E52.541
G1 X152.220 Y44.641 E52.664
G1 X153.222 Y45.177 E52.787
G1 X154.101 Y45.899 E52.910
G1 X154.823 Y46.778 E53.033
G1 X155.359 Y47.780 E53.155
G1 X155.689 Y48.868 E53.278
G1 X155.800 Y60.000 E54.480
G1 X155.689 Y61.132 E54.603
G1 X155.359 Y62.220 E54.726
G1 X154.823 Y63.222 E54.849
G1 X154.101 Y64.101 E54.972
G1 X153.222 Y64.823 E55.095
G1 X152.220 Y65.359 E55.217
G1 X151.132 Y65.689 E55.340
G1 X100.000 Y65.800 E60.862
G1 X98.868 Y65.689 E60.985
G1 X97.780 Y65.359 E61.108
G1 X96.778 Y64.823 E61.231
G1 X95.899 Y64.101 E61.354
G1 X95.177 Y63.222 E61.476
G1 X94.641 Y62.220 E61.599
G1 X94.311 Y61.132 E61.722
G1 X94.200 Y50.000 E62.924
G1 X94.311 Y48.868 E63.047
G1 X94.641 Y47.780 E63.170
G1 X95.177 Y46.778 E63.293
G1 X95.899 Y45.899 E63.415
G1 X96.778 Y45.177 E63.538
G1 X97.780 Y44.641 E63.661
G1 X98.868 Y44.311 E63.784
G1 X100.000 Y44.200 E63.907
G1 X100.000 Y44.600 E63.950
G1 X150.000 Y44.600 E69.350
G1 X150.000 Y44.600 E69.350
G1 X151.053 Y44.704 E69.464
G1 X152.066 Y45.011 E69.578
G1 X153.000 Y45.510 E69.693
G1 X153.818 Y46.182 E69.807
G1 X154.490 Y47.000 E69.921
G1 X154.989 Y47.934 E70.036
G1 X155.296 Y48.947 E70.150
G1 X155.400 Y60.000 E71.344
G1 X155.296 Y61.053 E71.458
G1 X154.989 Y62.066 E71.572
G1 X154.490 Y63.000 E71.687
G1 X153.818 Y63.818 E71.801
G1 X153.000 Y64.490 E71.916
G1 X152.066 Y64.989 E72.030
G1 X151.053 Y65.296 E72.144
G1 X100.000 Y65.400 E77.658
G1 X98.947 Y65.296 E77.772
G1 X97.934 Y64.989 E77.887
G1 X97.000 Y64.490 E78.001
G1 X96.182 Y63.818 E78.115
G1 X95.510 Y63.000 E78.230
G1 X95.011 Y62.066 E78.344
G1 X94.704 Y61.053 E78.458
G1 X94.600 Y50.000 E79.652
G1 X94.704 Y48.947 E79.766
G1 X95.011 Y47.934 E79.881
G1 X95.510 Y47.000 E79.995
G1 X96.182 Y46.182 E80.109
G1 X97.000 Y45.510 E80.224
G1 X97.934 Y45.011 E80.338
G1 X98.947 Y44.704 E80.452
G1 X100.000 Y44.600 E80.567
G1 X100.000 Y45.000 E80.610
G1 X150.000 Y45.000 E86.010
G1 X150.000 Y45.000 E86.010
G1 X150.975 Y45.096 E86.116
G1 X151.913 Y45.381 E86.221
G1 X152.778 Y45.843 E86.327
G1 X153.536 Y46.464 E86.433
G1 X154.157 Y47.222 E86.539
G1 X154.619 Y48.087 E86.645
G1 X154.904 Y49.025 E86.751
G1 X155.000 Y60.000 E87.936
G1 X154.904 Y60.975 E88.042
G1 X154.619 Y61.913 E88.148
G1 X154.157 Y62.778 E88.254
G1 X153.536 Y63.536 E88.360
G1 X152.778 Y64.157 E88.465
G1 X151.913 Y64.619 E88.571
G1 X150.975 Y64.904 E88.677
G1 X100.000 Y65.000 E94.183
G1 X99.025 Y64.904 E94.288
G1 X98.087 Y64.619 E94.394
G1 X97.222 Y64.157 E94.500
G1 X96.464 Y63.536 E94.606
G1 X95.843 Y62.778 E94.712
G1 X95.381 Y61.913 E94.818
G1 X95.096 Y60.975 E94.924
G1 X95.000 Y50.000 E96.109
G1 X95.096 Y49.025 E96.215
G1 X95.381 Y48.087 E96.321
G1 X95.843 Y47.222 E96.427
G1 X96.464 Y46.464 E96.532
G1 X97.222 Y45.843 E96.638
G1 X98.087 Y45.381 E96.744
G1 X99.025 Y45.096 E96.850
G1 X100.000 Y45.000 E96.956
G1 X100.000 Y45.400 E96.999
G1 X150.000 Y45.400 E102.399
G1 X150.000 Y45.400 E102.399
G1 X150.897 Y45.488 E102.496
G1 X151.760 Y45.750 E102.594
G1 X152.556 Y46.175 E102.691
G1 X153.253 Y46.747 E102.789
G1 X153.825 Y47.444 E102.886
G1 X154.250 Y48.240 E102.983
G1 X154.512 Y49.103 E103.081
G1 X154.600 Y60.000 E104.258
G1 X154.512 Y60.897 E104.355
G1 X154.250 Y61.760 E104.452
G1 X153.825 Y62.556 E104.550
G1 X153.253 Y63.253 E104.647
G1 X152.556 Y63.825 E104.745
G1 X151.760 Y64.250 E104.842
G1 X150.897 Y64.512 E104.940
G1 X100.000 Y64.600 E110.436
G1 X99.103 Y64.512 E110.534
G1 X98.240 Y64.250 E110.631
G1 X97.444 Y63.825 E110.729
G1 X96.747 Y63.253 E110.826
G1 X96.175 Y62.556 E110.923
G1 X95.750 Y61.760 E111.021
G1 X95.488 Y60.897 E111.118
G1 X95.400 Y50.000 E112.295
G1 X95.488 Y49.103 E112.392
G1 X95.750 Y48.240 E112.490
G1 X96.175 Y47.444 E112.587
G1 X96.747 Y46.747 E112.685
G1 X97.444 Y46.175 E112.782
G1 X98.240 Y45.750 E112.880
G1 X99.103 Y45.488 E112.977
G1 X100.000 Y45.400 E113.074
G1 X100.000 Y45.800 E113.118
G1 X150.000 Y45.800 E118.518
G1 X150.000 Y45.800 E118.518
G1 X150.819 Y45.881 E118.606
G1 X151.607 Y46.120 E118.695
G1 X152.333 Y46.508 E118.784
G1 X152.970 Y47.030 E118.873
G1 X153.492 Y47.667 E118.962
G1 X153.880 Y48.393 E119.051
G1 X154.119 Y49.181 E119.140
G1 X154.200 Y60.000 E120.308
G1 X154.119 Y60.819 E120.397
G1 X153.880 Y61.607 E120.486
G1 X153.492 Y62.333 E120.575
G1 X152.970 Y62.970 E120.664
G1 X152.333 Y63.492 E120.753
G1 X151.607 Y63.880 E120.842
G1 X150.819 Y64.119 E120.931
G1 X100.000 Y64.200 E126.419
G1 X99.181 Y64.119 E126.508
G1 X98.393 Y63.880 E126.597
G1 X97.667 Y63.492 E126.686
G1 X97.030 Y62.970 E126.775
G1 X96.508 Y62.333 E126.864
G1 X96.120 Y61.607 E126.953
G1 X95.881 Y60.819 E127.042
G1 X95.800 Y50.000 E128.210
G1 X95.881 Y49.181 E128.299
G1 X96.120 Y48.393 E128.388
G1 X96.508 Y47.667 E128.477
G1 X97.030 Y47.030 E128.566
G1 X97.667 Y46.508 E128.655
G1 X98.393 Y46.120 E128.744
G1 X99.181 Y45.881 E128.833
G1 X100.000 Y45.800 E128.922
G1 X100.000 Y46.200 E128.965
G1 X150.000 Y46.200 E134.365
G1 X150.000 Y46.200 E134.365
G1 X150.741 Y46.273 E134.445
G1 X151.454 Y46.489 E134.526
G1 X152.111 Y46.840 E134.606
G1 X152.687 Y47.313 E134.687
G1 X153.160 Y47.889 E134.767
G1 X153.511 Y48.546 E134.848
G1 X153.727 Y49.259 E134.928
G1 X153.800 Y60.000 E136.088
G1 X153.727 Y60.741 E136.168
G1 X153.511 Y61.454 E136.249
G1 X153.160 Y62.111 E136.329
G1 X152.687 Y62.687 E136.410
G1 X152.111 Y63.160 E136.490
G1 X151.454 Y63.511 E136.571
G1 X150.741 Y63.727 E136.651
G1 X100.000 Y63.800 E142.131
G1 X99.259 Y63.727 E142.212
G1 X98.546 Y63.511 E142.292
G1 X97.889 Y63.160 E142.373
G1 X97.313 Y62.687 E142.453
G1 X96.840 Y62.111 E142.534
G1 X96.489 Y61.454 E142.614
G1 X96.273 Y60.741 E142.695
G1 X96.200 Y50.000 E143.855
G1 X96.273 Y49.259 E143.935
G1 X96.489 Y48.546 E144.015
G1 X96.840 Y47.889 E144.096
G1 X97.313 Y47.313 E144.176
G1 X97.889 Y46.840 E144.257
G1 X98.546 Y46.489 E144.337
G1 X99.259 Y46.273 E144.418
G1 X100.000 Y46.200 E144.498
G1 X100.000 Y46.600 E144.541
G1 X150.000 Y46.600 E149.941
G1 X150.000 Y46.600 E149.941
G1 X150.663 Y46.665 E150.013
G1 X151.301 Y46.859 E150.085
G1 X151.889 Y47.173 E150.157
G1 X152.404 Y47.596 E150.229
G1 X152.827 Y48.111 E150.301
G1 X153.141 Y48.699 E150.373
G1 X153.335 Y49.337 E150.445
G1 X153.400 Y60.000 E151.597
G1 X153.335 Y60.663 E151.669
G1 X153.141 Y61.301 E151.741
G1 X152.827 Y61.889 E151.813
G1 X152.404 Y62.404 E151.885
G1 X151.889 Y62.827 E151.957
G1 X151.301 Y63.141 E152.029
G1 X150.663 Y63.335 E152.101
G1 X100.000 Y63.400 E157.573
G1 X99.337 Y63.335 E157.644
G1 X98.699 Y63.141 E157.716
G1 X98.111 Y62.827 E157.788
G1 X97.596 Y62.404 E157.860
G1 X97.173 Y61.889 E157.932
G1 X96.859 Y61.301 E158.004
G1 X96.665 Y60.663 E158.076
G1 X96.600 Y50.000 E159.228
G1 X96.665 Y49.337 E159.300
G1 X96.859 Y48.699 E159.372
G1 X97.173 Y48.111 E159.444
G1 X97.596 Y47.596 E159.516
G1 X98.111 Y47.173 E159.588
G1 X98.699 Y46.859 E159.660
G1 X99.337 Y46.665 E159.732
G1 X100.000 Y46.600 E159.804
G1 X100.000 Y47.000 E159.847
G1 X150.000 Y47.000 E165.247
G1 X150.000 Y47.000 E165.247
G1 X150.585 Y47.058 E165.311
G1 X151.148 Y47.228 E165.374
G1 X151.667 Y47.506 E165.438
G1 X152.121 Y47.879 E165.501
G1 X152.494 Y48.333 E165.565
G1 X152.772 Y48.852 E165.628
G1 X152.942 Y49.415 E165.692
G1 X153.000 Y60.000 E166.835
G1 X152.942 Y60.585 E166.898
G1 X152.772 Y61.148 E166.962
G1 X152.494 Y61.667 E167.026
G1 X152.121 Y62.121 E167.089
G1 X151.667 Y62.494 E167.152
G1 X151.148 Y62.772 E167.216
G1 X150.585 Y62.942 E167.280
G1 X100.000 Y63.000 E172.743
G1 X99.415 Y62.942 E172.806
G1 X98.852 Y62.772 E172.870
G1 X98.333 Y62.494 E172.933
G1 X97.879 Y62.121 E172.997
G1 X97.506 Y61.667 E173.060
G1 X97.228 Y61.148 E173.124
G1 X97.058 Y60.585 E173.187
G1 X97.000 Y50.000 E174.331
G1 X97.058 Y49.415 E174.394
G1 X97.228 Y48.852 E174.458
G1 X97.506 Y48.333 E174.521
G1 X97.879 Y47.879 E174.585
G1 X98.333 Y47.506 E174.648
G1 X98.852 Y47.228 E174.712
G1 X99.415 Y47.058 E174.775
G1 X100.000 Y47.000 E174.839
G1 X100.000 Y43.000 E175.271
;END create outline
;move to
G1 Z0.47000000000000003 F4800       ;move to Z position
G92 E0                     ;reset Extruder position
G1 X100 Y100 F2400     ;move to beginning of knitting
G1 Z0.27 F4800       ;move to Z position
;create path
G1 F2400
G1 X100.000 Y140.000 E179.591
G1 X150.000 Y140.000 E184.991
G1 X100.000 Y145.000 E190.418
G1 X150.000 Y145.000 E195.818
G1 X100.000 Y150.000 E201.244
G1 X160.000 Y150.000 E207.724
;End create path
M107         ;turn off fan
M104 S0      ;turn off temperature
M140 S0      ;heated bed heater off
G91          ;relative positioning
G1 E-1 F300  ;retract the filament a bit before lifting the nozzle, to release some of the pressure 
G1 Z+0.5 E-5 X-20 Y-20 F9000 ;move Z up a bit and retract filament even more
G28 X0      ;home X axis 
G28 Y0      ;home Y axis 
G1 Y150 F5000  ;move completed part out
M84          ;disable motors
G90          ;absolute positioning
;End of gcode