;Generated GCode by Ria Stroes
;Project: Generated Knittings
;3D-printer: Ultimaker 2+
;tempbed = 70
;tempextruder = 210
;nozzle = 0.4
;firstlayerheight = 0.27
;layerheight = 0.3
;speed = 2400
;outlinerounds = 10
;outlinerounddist = 4
;maxlayers = 5
;starting commands
G21 ;metric values
M82 ;set extruder to absolute mode
G90 ;absolute positioning
M107 ;start with the fan off
M109 S180 B210 F1;activate auto temp min 180 max 210 scaling factor 1 (for PLA)
M140 S60
M190 S60
G28; Home Axis

G1 Z5.0 F9000 ;move the head 5mm up for CYA clearance
G92 E0 ;zero the extruded length
M117 Cleaning...;Put Cleaning message on screen
G1 X100 Y0 F4000 ; move half way along the front edge
G1 Z5 ; move nozzle close to bed
M109 S200 ; heat nozzle to 200 degC and wait until reached
G4 P10000 ; wait 10 seconds for nozzle length to stabilize
G1 Z15 
G1 E20 ; extrude 20 mm of filament
G92 E0 ; reset extruder
M117 Printing...;Put printing message on LCD screen
;move to start positions
G0 F9000 X100 Y100 Z0.27     ;move to Z position
G0 F2400 ;move to beginning of outline
G10
G0 X130.000 Y120.000
G11
G1 X100.000 Y120.000 E3.240
G10
G0 X140.000 Y130.000
G11
G1 X100.000 Y130.000 E7.560
G10
G0 X150.000 Y140.000
G11
G1 X100.000 Y140.000 E12.960
G10
G0 X150.000 Y145.000
G11
G1 X100.000 Y145.000 E18.360
G10
G0 X160.000 Y150.000
G11
G1 X100.000 Y150.000 E24.840
G10
G0 X150.000 Y155.000
G11
G1 X100.000 Y155.000 E30.240
G10
G0 X170.000 Y160.000
G11
G1 X100.000 Y160.000 E37.800
G10
G0 X170.000 Y165.000
G11
G1 X100.000 Y165.000 E45.360
G10
G0 X150.000 Y168.000
G11
G1 X100.000 Y168.000 E50.760
G10
G0 X170.000 Y170.000
G11
G1 X100.000 Y170.000 E58.320
G10
G0 X170.000 Y172.000
G11
G1 X100.000 Y172.000 E65.880
G10
G0 X170.000 Y174.000
G11
G1 X100.000 Y174.000 E73.440
G10
G0 X170.000 Y176.000
G11
G1 X100.000 Y176.000 E81.000
G10
G0 X170.000 Y178.000
G11
G1 X100.000 Y178.000 E88.560
G10
G0 X170.000 Y180.000
G11
G1 X100.000 Y180.000 E96.120
;move to start positions
G0 F9000 X100 Y100 Z0.27     ;move to Z position
G0 F2400 ;move to beginning of outline
G10
G0 X130.000 Y120.000
G11
G1 X100.000 Y120.000 E3.240
G10
G0 X140.000 Y130.000
G11
G1 X100.000 Y130.000 E7.560
G10
G0 X150.000 Y140.000
G11
G1 X100.000 Y140.000 E12.960
G10
G0 X150.000 Y145.000
G11
G1 X100.000 Y145.000 E18.360
G10
G0 X160.000 Y150.000
G11
G1 X100.000 Y150.000 E24.840
G10
G0 X150.000 Y155.000
G11
G1 X100.000 Y155.000 E30.240
G10
G0 X170.000 Y160.000
G11
G1 X100.000 Y160.000 E37.800
G10
G0 X170.000 Y165.000
G11
G1 X100.000 Y165.000 E45.360
G10
G0 X150.000 Y168.000
G11
G1 X100.000 Y168.000 E50.760
G10
G0 X170.000 Y170.000
G11
G1 X100.000 Y170.000 E58.320
G10
G0 X170.000 Y172.000
G11
G1 X100.000 Y172.000 E65.880
G10
G0 X170.000 Y174.000
G11
G1 X100.000 Y174.000 E73.440
G10
G0 X170.000 Y176.000
G11
G1 X100.000 Y176.000 E81.000
G10
G0 X170.000 Y178.000
G11
G1 X100.000 Y178.000 E88.560
G10
G0 X170.000 Y180.000
G11
G1 X100.000 Y180.000 E96.120
;move to start positions
G0 F9000 X100 Y100 Z0.5700000000000001     ;move to Z position
G0 F2400 ;move to beginning of outline
G10
G0 X130.000 Y120.000
G11
G1 X100.000 Y120.000 E3.600
G10
G0 X140.000 Y130.000
G11
G1 X100.000 Y130.000 E8.400
G10
G0 X150.000 Y140.000
G11
G1 X100.000 Y140.000 E14.400
G10
G0 X150.000 Y145.000
G11
G1 X100.000 Y145.000 E20.400
G10
G0 X160.000 Y150.000
G11
G1 X100.000 Y150.000 E27.600
G10
G0 X150.000 Y155.000
G11
G1 X100.000 Y155.000 E33.600
G10
G0 X170.000 Y160.000
G11
G1 X100.000 Y160.000 E42.000
G10
G0 X170.000 Y165.000
G11
G1 X100.000 Y165.000 E50.400
G10
G0 X150.000 Y168.000
G11
G1 X100.000 Y168.000 E56.400
G10
G0 X170.000 Y170.000
G11
G1 X100.000 Y170.000 E64.800
G10
G0 X170.000 Y172.000
G11
G1 X100.000 Y172.000 E73.200
G10
G0 X170.000 Y174.000
G11
G1 X100.000 Y174.000 E81.600
G10
G0 X170.000 Y176.000
G11
G1 X100.000 Y176.000 E90.000
G10
G0 X170.000 Y178.000
G11
G1 X100.000 Y178.000 E98.400
G10
G0 X170.000 Y180.000
G11
G1 X100.000 Y180.000 E106.800
M107         ;turn off fan
M104 S0      ;turn off temperature
M140 S0      ;heated bed heater off
G91          ;relative positioning
G1 E-1 F300  ;retract the filament a bit before lifting the nozzle, to release some of the pressure 
G1 Z+0.5 E-5 X-20 Y-20 F9000 ;move Z up a bit and retract filament even more
G28 X0      ;home X axis 
G28 Y0      ;home Y axis 
G1 Y150 F5000  ;move completed part out
M84          ;disable motors
G90          ;absolute positioning
;End of gcode