;Generated GCode by Ria Stroes
;Project: Generated Knittings
;3D-printer: Ultimaker Original
;starting commands
G28          ;all axes to home position.
G1 Z15 F2000 ;move extruder 15mm up
M107         ;turn fan off
G90          ;absolute position mode
M82          ;extruder in absolute mode
M190 S70     ;set bed temerature
M104 S210    ;set temperature extruder
G92 E0       ;reset Extruder position
M109 S210;wait for reach temperature
M140 S70     ;wait for reach bed temperature
;move to start positions
G1 Z0F7800.000     ;move to Z position
G1 E-2.00000 F2400.000     ;move to Extruder position
G92 E0                     ;reset Extruder position
G1 X110 Y62 F7800.000     ;move to beginning of knitting
G1 E2.00000 F2400.000     ;move to Extruder position
;draw outline
G1 X151.25 Y62 F2400.000
G1 X151.75 Y62.5 F2400.000
G1 X152.25 Y63 F2400.000
G1 X152.75 Y63.5 F2400.000
G1 X153.25 Y64 F2400.000
G1 X153.75 Y64.5 F2400.000
G1 X154.25 Y65 F2400.000
G1 X154.25 Y90 F2400.000
G1 X153.75 Y90.5 F2400.000
G1 X153.25 Y91 F2400.000
G1 X152.75 Y91.5 F2400.000
G1 X152.25 Y92 F2400.000
G1 X151.75 Y92.5 F2400.000
G1 X151.25 Y93 F2400.000
G1 X110 Y93 F2400.000
G1 X109.5 Y92.5 F2400.000
G1 X109 Y92 F2400.000
G1 X108.5 Y91.5 F2400.000
G1 X108 Y91 F2400.000
G1 X107.5 Y90.5 F2400.000
G1 X107 Y90 F2400.000
G1 X107 Y65 F2400.000
G1 X107.5 Y64.5 F2400.000
G1 X108 Y64 F2400.000
G1 X108.5 Y63.5 F2400.000
G1 X109 Y63 F2400.000
G1 X109.5 Y62.5 F2400.000
;END draw outline
;move to
G1 Z0F7800.000        ;move to Z position
G1 E-2.00000 F2400.000     ;move to Extruder position
G92 E0                     ;reset Extruder position
G1 X106.25 Y65 F7800.000     ;move to beginning of knitting
G1 E2.00000 F2400.000     ;move to Extruder position
;create path
G1 X110 Y65 E0.6000000000000001 F4800
G1 X113.75 Y70 E1.0000000000000002 F4800
G1 X113.75 Y75 E0.8000000000000002 F4800
G1 X110 Y80 E1.0000000000000002 F4800
G1 X110 Y85 E0.8000000000000002 F4800
G1 X113.75 Y90 E1.0000000000000002 F4800
G1 X117.5 Y90 E0.6000000000000001 F4800
G1 X121.25 Y85 E1.0000000000000002 F4800
G1 X121.25 Y80 E0.8000000000000002 F4800
G1 X117.5 Y75 E1.0000000000000002 F4800
G1 X117.5 Y70 E0.8000000000000002 F4800
G1 X121.25 Y65 E1.0000000000000002 F4800
G1 X125 Y65 E0.6000000000000001 F4800
G1 X128.75 Y70 E1.0000000000000002 F4800
G1 X128.75 Y75 E0.8000000000000002 F4800
G1 X125 Y80 E1.0000000000000002 F4800
G1 X125 Y85 E0.8000000000000002 F4800
G1 X128.75 Y90 E1.0000000000000002 F4800
G1 X132.5 Y90 E0.6000000000000001 F4800
G1 X136.25 Y85 E1.0000000000000002 F4800
G1 X136.25 Y80 E0.8000000000000002 F4800
G1 X132.5 Y75 E1.0000000000000002 F4800
G1 X132.5 Y70 E0.8000000000000002 F4800
G1 X136.25 Y65 E1.0000000000000002 F4800
G1 X140 Y65 E0.6000000000000001 F4800
G1 X143.75 Y70 E1.0000000000000002 F4800
G1 X143.75 Y75 E0.8000000000000002 F4800
G1 X140 Y80 E1.0000000000000002 F4800
G1 X140 Y85 E0.8000000000000002 F4800
G1 X143.75 Y90 E1.0000000000000002 F4800
G1 X147.5 Y90 E0.6000000000000001 F4800
G1 X151.25 Y85 E1.0000000000000002 F4800
G1 X151.25 Y80 E0.8000000000000002 F4800
G1 X147.5 Y75 E1.0000000000000002 F4800
G1 X147.5 Y70 E0.8000000000000002 F4800
G1 X151.25 Y65 E1.0000000000000002 F4800
G1 X170 Y65 E3.0000000000000004 F4800
;End create path
M107         ;turn off fan
M104 S0      ;turn off temperature
G28 X0       ;home X axis 
M84          ;disable motors
;End of gcode