;Generated GCode by Ria Stroes
;Project: Generated Knittings
;3D-printer: Ultimaker Original
;starting commands
G28          ;all axes to home position.
G1 Z15 F2000 ;move extruder 15mm up
M107         ;turn fan off
G90          ;absolute position mode
M82          ;extruder in absolute mode
M190 S70     ;set bed temerature
M104 S210    ;set temperature extruder
G92 E0       ;reset Extruder position
M109 S210;wait for reach temperature
M140 S70     ;wait for reach bed temperature
;move to start positions
G1 Z0 F7800.000     ;move to Z position
G1 E-2.00000 F2400.000     ;move to Extruder position
G92 E0                     ;reset Extruder position
G1 X110.000 Y62.000 F7800.000     ;move to beginning of outline
G1 E2.00000 F2400.000     ;move to Extruder position
;create outline
G1 F4800
G1 X151.250 Y62.000 E6.600
G1 X151.250 Y62.000 E6.600
G1 X151.835 Y62.058 E6.694
G1 X152.398 Y62.228 E6.788
G1 X152.917 Y62.506 E6.882
G1 X153.371 Y62.879 E6.976
G1 X153.744 Y63.333 E7.070
G1 X154.022 Y63.852 E7.165
G1 X154.192 Y64.415 E7.259
G1 X154.250 Y90.000 E11.352
G1 X154.192 Y90.585 E11.446
G1 X154.022 Y91.148 E11.540
G1 X153.744 Y91.667 E11.635
G1 X153.371 Y92.121 E11.729
G1 X152.917 Y92.494 E11.823
G1 X152.398 Y92.772 E11.917
G1 X151.835 Y92.942 E12.011
G1 X110.000 Y93.000 E18.705
G1 X110.000 Y93.000 E18.705
G1 X109.415 Y92.942 E18.799
G1 X108.852 Y92.772 E18.893
G1 X108.333 Y92.494 E18.987
G1 X107.879 Y92.121 E19.081
G1 X107.506 Y91.667 E19.175
G1 X107.228 Y91.148 E19.269
G1 X107.058 Y90.585 E19.363
G1 X107.000 Y65.000 E23.457
G1 X107.000 Y65.000 E23.457
G1 X107.058 Y64.415 E23.551
G1 X107.228 Y63.852 E23.645
G1 X107.506 Y63.333 E23.739
G1 X107.879 Y62.879 E23.833
G1 X108.333 Y62.506 E23.927
G1 X108.852 Y62.228 E24.021
G1 X109.415 Y62.058 E24.116
G1 X110.000 Y62.000 E24.210
G1 X110.000 Y62.000 E24.210
;END create outline
;move to
G1 Z0 F7800.000        ;move to Z position
G92 E0                     ;reset Extruder position
G1 X110.000 Y65.000 F7800.000     ;move to beginning of knitting
;create path
G1 F4800
G1 X113.750 Y70.000 E1.000
G1 X113.750 Y75.000 E1.800
G1 X110.000 Y80.000 E2.800
G1 X110.000 Y85.000 E3.600
G1 X113.750 Y90.000 E4.600
G1 X117.500 Y90.000 E5.200
G1 X121.250 Y85.000 E6.200
G1 X121.250 Y80.000 E7.000
G1 X117.500 Y75.000 E8.000
G1 X117.500 Y70.000 E8.800
G1 X121.250 Y65.000 E9.800
G1 X125.000 Y65.000 E10.400
G1 X128.750 Y70.000 E11.400
G1 X128.750 Y75.000 E12.200
G1 X125.000 Y80.000 E13.200
G1 X125.000 Y85.000 E14.000
G1 X128.750 Y90.000 E15.000
G1 X132.500 Y90.000 E15.600
G1 X136.250 Y85.000 E16.600
G1 X136.250 Y80.000 E17.400
G1 X132.500 Y75.000 E18.400
G1 X132.500 Y70.000 E19.200
G1 X136.250 Y65.000 E20.200
G1 X140.000 Y65.000 E20.800
G1 X143.750 Y70.000 E21.800
G1 X143.750 Y75.000 E22.600
G1 X140.000 Y80.000 E23.600
G1 X140.000 Y85.000 E24.400
G1 X143.750 Y90.000 E25.400
G1 X147.500 Y90.000 E26.000
G1 X151.250 Y85.000 E27.000
G1 X151.250 Y80.000 E27.800
G1 X147.500 Y75.000 E28.800
G1 X147.500 Y70.000 E29.600
G1 X151.250 Y65.000 E30.600
;End create path
M107         ;turn off fan
M104 S0      ;turn off temperature
G28 X0       ;home X axis 
M84          ;disable motors
;End of gcode