;Generated GCode by Ria Stroes
;Project: Generated Knittings
;3D-printer: Ultimaker 2+
;tempbed = 70
;tempextruder = 210
;nozzle = 0.4
;firstlayerheight = 0.27
;layerheight = 0.3
;speed = 2400
;outlinerounds = 10
;outlinerounddist = 4
;maxlayers = 5
;starting commands
G21 ;metric values
M82 ;set extruder to absolute mode
G90 ;absolute positioning
M107 ;start with the fan off
M109 S180 B210 F1;activate auto temp min 180 max 210 scaling factor 1 (for PLA)
G28; Home Axis
G29; Z-Probe the bed (requires Z-Probe!)
G1 Z5.0 F9000 ;move the head 5mm up for CYA clearance
G92 E0 ;zero the extruded length
M117 Cleaning...;Put Cleaning message on screen
G1 X100 Y0 F4000 ; move half way along the front edge
G1 Z1 ; move nozzle close to bed
M109 S200 ; heat nozzle to 200 degC and wait until reached
G4 P10000 ; wait 10 seconds for nozzle length to stabilize
G1 E10 ; extrude 10 mm of filament
G1 z15 F12000 E5 ; move 15 mm up, fast, while extruding 5mm
G92 E0 ; reset extruder
M117 Printing...;Put printing message on LCD screen
;move to start positions
G0 F9000 X51.750 Y90.000 Z0.27     ;move to Z position
G0 X51.750 Y90.000 F2400 ;move to beginning of outline
;create outline
G0 F4800
G1 X142.750 Y90.000 E0.000
G1 X142.750 Y90.000 E0.000
G1 X144.116 Y90.135 E0.148
G1 X145.429 Y90.533 E0.296
G1 X146.639 Y91.180 E0.445
G1 X147.700 Y92.050 E0.593
G1 X148.570 Y93.111 E0.741
G1 X149.217 Y94.321 E0.889
G1 X149.615 Y95.634 E1.037
G1 X149.750 Y118.000 E3.453
G1 X149.615 Y119.366 E3.601
G1 X149.217 Y120.679 E3.749
G1 X148.570 Y121.889 E3.898
G1 X147.700 Y122.950 E4.046
G1 X146.639 Y123.820 E4.194
G1 X145.429 Y124.467 E4.342
G1 X144.116 Y124.865 E4.490
G1 X51.750 Y125.000 E14.466
G1 X50.384 Y124.865 E14.614
G1 X49.071 Y124.467 E14.762
G1 X47.861 Y123.820 E14.910
G1 X46.800 Y122.950 E15.059
G1 X45.930 Y121.889 E15.207
G1 X45.283 Y120.679 E15.355
G1 X44.885 Y119.366 E15.503
G1 X44.750 Y97.000 E17.919
G1 X44.885 Y95.634 E18.067
G1 X45.283 Y94.321 E18.215
G1 X45.930 Y93.111 E18.363
G1 X46.800 Y92.050 E18.512
G1 X47.861 Y91.180 E18.660
G1 X49.071 Y90.533 E18.808
G1 X50.384 Y90.135 E18.956
G1 X51.750 Y90.000 E19.104
G1 X51.750 Y90.400 E19.148
G1 X142.750 Y90.400 E28.976
G1 X142.750 Y90.400 E28.976
G1 X144.038 Y90.527 E29.115
G1 X145.276 Y90.902 E29.255
G1 X146.417 Y91.512 E29.395
G1 X147.417 Y92.333 E29.534
G1 X148.238 Y93.333 E29.674
G1 X148.848 Y94.474 E29.814
G1 X149.223 Y95.712 E29.954
G1 X149.350 Y118.000 E32.361
G1 X149.223 Y119.288 E32.501
G1 X148.848 Y120.526 E32.640
G1 X148.238 Y121.667 E32.780
G1 X147.417 Y122.667 E32.920
G1 X146.417 Y123.488 E33.059
G1 X145.276 Y124.098 E33.199
G1 X144.038 Y124.473 E33.339
G1 X51.750 Y124.600 E43.306
G1 X50.462 Y124.473 E43.446
G1 X49.224 Y124.098 E43.585
G1 X48.083 Y123.488 E43.725
G1 X47.083 Y122.667 E43.865
G1 X46.262 Y121.667 E44.005
G1 X45.652 Y120.526 E44.144
G1 X45.277 Y119.288 E44.284
G1 X45.150 Y97.000 E46.691
G1 X45.277 Y95.712 E46.831
G1 X45.652 Y94.474 E46.971
G1 X46.262 Y93.333 E47.110
G1 X47.083 Y92.333 E47.250
G1 X48.083 Y91.512 E47.390
G1 X49.224 Y90.902 E47.530
G1 X50.462 Y90.527 E47.669
G1 X51.750 Y90.400 E47.809
G1 X51.750 Y90.800 E47.852
G1 X142.750 Y90.800 E57.680
G1 X142.750 Y90.800 E57.680
G1 X143.960 Y90.919 E57.812
G1 X145.123 Y91.272 E57.943
G1 X146.195 Y91.845 E58.074
G1 X147.134 Y92.616 E58.205
G1 X147.905 Y93.555 E58.337
G1 X148.478 Y94.627 E58.468
G1 X148.831 Y95.790 E58.599
G1 X148.950 Y118.000 E60.998
G1 X148.831 Y119.210 E61.129
G1 X148.478 Y120.373 E61.260
G1 X147.905 Y121.445 E61.392
G1 X147.134 Y122.384 E61.523
G1 X146.195 Y123.155 E61.654
G1 X145.123 Y123.728 E61.785
G1 X143.960 Y124.081 E61.917
G1 X51.750 Y124.200 E71.875
G1 X50.540 Y124.081 E72.007
G1 X49.377 Y123.728 E72.138
G1 X48.305 Y123.155 E72.269
G1 X47.366 Y122.384 E72.400
G1 X46.595 Y121.445 E72.532
G1 X46.022 Y120.373 E72.663
G1 X45.669 Y119.210 E72.794
G1 X45.550 Y97.000 E75.193
G1 X45.669 Y95.790 E75.324
G1 X46.022 Y94.627 E75.456
G1 X46.595 Y93.555 E75.587
G1 X47.366 Y92.616 E75.718
G1 X48.305 Y91.845 E75.849
G1 X49.377 Y91.272 E75.981
G1 X50.540 Y90.919 E76.112
G1 X51.750 Y90.800 E76.243
G1 X51.750 Y91.200 E76.286
G1 X142.750 Y91.200 E86.114
G1 X142.750 Y91.200 E86.114
G1 X143.882 Y91.311 E86.237
G1 X144.970 Y91.641 E86.360
G1 X145.972 Y92.177 E86.483
G1 X146.851 Y92.899 E86.606
G1 X147.573 Y93.778 E86.728
G1 X148.109 Y94.780 E86.851
G1 X148.439 Y95.868 E86.974
G1 X148.550 Y118.000 E89.364
G1 X148.439 Y119.132 E89.487
G1 X148.109 Y120.220 E89.610
G1 X147.573 Y121.222 E89.733
G1 X146.851 Y122.101 E89.855
G1 X145.972 Y122.823 E89.978
G1 X144.970 Y123.359 E90.101
G1 X143.882 Y123.689 E90.224
G1 X51.750 Y123.800 E100.174
G1 X50.618 Y123.689 E100.297
G1 X49.530 Y123.359 E100.420
G1 X48.528 Y122.823 E100.542
G1 X47.649 Y122.101 E100.665
G1 X46.927 Y121.222 E100.788
G1 X46.391 Y120.220 E100.911
G1 X46.061 Y119.132 E101.034
G1 X45.950 Y97.000 E103.424
G1 X46.061 Y95.868 E103.547
G1 X46.391 Y94.780 E103.670
G1 X46.927 Y93.778 E103.792
G1 X47.649 Y92.899 E103.915
G1 X48.528 Y92.177 E104.038
G1 X49.530 Y91.641 E104.161
G1 X50.618 Y91.311 E104.283
G1 X51.750 Y91.200 E104.406
G1 X51.750 Y91.600 E104.449
G1 X142.750 Y91.600 E114.277
G1 X142.750 Y91.600 E114.277
G1 X143.803 Y91.704 E114.392
G1 X144.816 Y92.011 E114.506
G1 X145.750 Y92.510 E114.620
G1 X146.568 Y93.182 E114.735
G1 X147.240 Y94.000 E114.849
G1 X147.739 Y94.934 E114.963
G1 X148.046 Y95.947 E115.078
G1 X148.150 Y118.000 E117.460
G1 X148.046 Y119.053 E117.574
G1 X147.739 Y120.066 E117.688
G1 X147.240 Y121.000 E117.803
G1 X146.568 Y121.818 E117.917
G1 X145.750 Y122.490 E118.031
G1 X144.816 Y122.989 E118.146
G1 X143.803 Y123.296 E118.260
G1 X51.750 Y123.400 E128.202
G1 X50.697 Y123.296 E128.316
G1 X49.684 Y122.989 E128.430
G1 X48.750 Y122.490 E128.545
G1 X47.932 Y121.818 E128.659
G1 X47.260 Y121.000 E128.773
G1 X46.761 Y120.066 E128.888
G1 X46.454 Y119.053 E129.002
G1 X46.350 Y97.000 E131.384
G1 X46.454 Y95.947 E131.498
G1 X46.761 Y94.934 E131.612
G1 X47.260 Y94.000 E131.727
G1 X47.932 Y93.182 E131.841
G1 X48.750 Y92.510 E131.955
G1 X49.684 Y92.011 E132.070
G1 X50.697 Y91.704 E132.184
G1 X51.750 Y91.600 E132.298
G1 X51.750 Y92.000 E132.341
G1 X142.750 Y92.000 E142.169
G1 X142.750 Y92.000 E142.169
G1 X143.725 Y92.096 E142.275
G1 X144.663 Y92.381 E142.381
G1 X145.528 Y92.843 E142.487
G1 X146.286 Y93.464 E142.593
G1 X146.907 Y94.222 E142.699
G1 X147.369 Y95.087 E142.805
G1 X147.654 Y96.025 E142.910
G1 X147.750 Y118.000 E145.284
G1 X147.654 Y118.975 E145.390
G1 X147.369 Y119.913 E145.495
G1 X146.907 Y120.778 E145.601
G1 X146.286 Y121.536 E145.707
G1 X145.528 Y122.157 E145.813
G1 X144.663 Y122.619 E145.919
G1 X143.725 Y122.904 E146.025
G1 X51.750 Y123.000 E155.958
G1 X50.775 Y122.904 E156.064
G1 X49.837 Y122.619 E156.170
G1 X48.972 Y122.157 E156.276
G1 X48.214 Y121.536 E156.382
G1 X47.593 Y120.778 E156.487
G1 X47.131 Y119.913 E156.593
G1 X46.846 Y118.975 E156.699
G1 X46.750 Y97.000 E159.073
G1 X46.846 Y96.025 E159.178
G1 X47.131 Y95.087 E159.284
G1 X47.593 Y94.222 E159.390
G1 X48.214 Y93.464 E159.496
G1 X48.972 Y92.843 E159.602
G1 X49.837 Y92.381 E159.708
G1 X50.775 Y92.096 E159.814
G1 X51.750 Y92.000 E159.919
G1 X51.750 Y92.400 E159.963
G1 X142.750 Y92.400 E169.791
G1 X142.750 Y92.400 E169.791
G1 X143.647 Y92.488 E169.888
G1 X144.510 Y92.750 E169.985
G1 X145.306 Y93.175 E170.083
G1 X146.003 Y93.747 E170.180
G1 X146.575 Y94.444 E170.278
G1 X147.000 Y95.240 E170.375
G1 X147.262 Y96.103 E170.472
G1 X147.350 Y118.000 E172.837
G1 X147.262 Y118.897 E172.935
G1 X147.000 Y119.760 E173.032
G1 X146.575 Y120.556 E173.129
G1 X146.003 Y121.253 E173.227
G1 X145.306 Y121.825 E173.324
G1 X144.510 Y122.250 E173.422
G1 X143.647 Y122.512 E173.519
G1 X51.750 Y122.600 E183.444
G1 X50.853 Y122.512 E183.541
G1 X49.990 Y122.250 E183.639
G1 X49.194 Y121.825 E183.736
G1 X48.497 Y121.253 E183.834
G1 X47.925 Y120.556 E183.931
G1 X47.500 Y119.760 E184.028
G1 X47.238 Y118.897 E184.126
G1 X47.150 Y97.000 E186.491
G1 X47.238 Y96.103 E186.588
G1 X47.500 Y95.240 E186.685
G1 X47.925 Y94.444 E186.783
G1 X48.497 Y93.747 E186.880
G1 X49.194 Y93.175 E186.978
G1 X49.990 Y92.750 E187.075
G1 X50.853 Y92.488 E187.172
G1 X51.750 Y92.400 E187.270
G1 X51.750 Y92.800 E187.313
G1 X142.750 Y92.800 E197.141
G1 X142.750 Y92.800 E197.141
G1 X143.569 Y92.881 E197.230
G1 X144.357 Y93.120 E197.319
G1 X145.083 Y93.508 E197.408
G1 X145.720 Y94.030 E197.497
G1 X146.242 Y94.667 E197.586
G1 X146.630 Y95.393 E197.675
G1 X146.869 Y96.181 E197.763
G1 X146.950 Y118.000 E200.120
G1 X146.869 Y118.819 E200.209
G1 X146.630 Y119.607 E200.298
G1 X146.242 Y120.333 E200.387
G1 X145.720 Y120.970 E200.476
G1 X145.083 Y121.492 E200.565
G1 X144.357 Y121.880 E200.653
G1 X143.569 Y122.119 E200.742
G1 X51.750 Y122.200 E210.659
G1 X50.931 Y122.119 E210.748
G1 X50.143 Y121.880 E210.837
G1 X49.417 Y121.492 E210.926
G1 X48.780 Y120.970 E211.015
G1 X48.258 Y120.333 E211.103
G1 X47.870 Y119.607 E211.192
G1 X47.631 Y118.819 E211.281
G1 X47.550 Y97.000 E213.638
G1 X47.631 Y96.181 E213.727
G1 X47.870 Y95.393 E213.816
G1 X48.258 Y94.667 E213.904
G1 X48.780 Y94.030 E213.993
G1 X49.417 Y93.508 E214.082
G1 X50.143 Y93.120 E214.171
G1 X50.931 Y92.881 E214.260
G1 X51.750 Y92.800 E214.349
G1 X51.750 Y93.200 E214.392
G1 X142.750 Y93.200 E224.220
G1 X142.750 Y93.200 E224.220
G1 X143.491 Y93.273 E224.301
G1 X144.204 Y93.489 E224.381
G1 X144.861 Y93.840 E224.462
G1 X145.437 Y94.313 E224.542
G1 X145.910 Y94.889 E224.623
G1 X146.261 Y95.546 E224.703
G1 X146.477 Y96.259 E224.784
G1 X146.550 Y118.000 E227.132
G1 X146.477 Y118.741 E227.212
G1 X146.261 Y119.454 E227.292
G1 X145.910 Y120.111 E227.373
G1 X145.437 Y120.687 E227.453
G1 X144.861 Y121.160 E227.534
G1 X144.204 Y121.511 E227.614
G1 X143.491 Y121.727 E227.695
G1 X51.750 Y121.800 E237.603
G1 X51.009 Y121.727 E237.683
G1 X50.296 Y121.511 E237.764
G1 X49.639 Y121.160 E237.844
G1 X49.063 Y120.687 E237.925
G1 X48.590 Y120.111 E238.005
G1 X48.239 Y119.454 E238.086
G1 X48.023 Y118.741 E238.166
G1 X47.950 Y97.000 E240.514
G1 X48.023 Y96.259 E240.594
G1 X48.239 Y95.546 E240.675
G1 X48.590 Y94.889 E240.755
G1 X49.063 Y94.313 E240.836
G1 X49.639 Y93.840 E240.916
G1 X50.296 Y93.489 E240.997
G1 X51.009 Y93.273 E241.077
G1 X51.750 Y93.200 E241.158
G1 X51.750 Y93.600 E241.201
G1 X142.750 Y93.600 E251.029
G1 X142.750 Y93.600 E251.029
G1 X143.413 Y93.665 E251.101
G1 X144.051 Y93.859 E251.173
G1 X144.639 Y94.173 E251.245
G1 X145.154 Y94.596 E251.317
G1 X145.577 Y95.111 E251.389
G1 X145.891 Y95.699 E251.461
G1 X146.085 Y96.337 E251.533
G1 X146.150 Y118.000 E253.872
G1 X146.085 Y118.663 E253.944
G1 X145.891 Y119.301 E254.016
G1 X145.577 Y119.889 E254.088
G1 X145.154 Y120.404 E254.160
G1 X144.639 Y120.827 E254.232
G1 X144.051 Y121.141 E254.304
G1 X143.413 Y121.335 E254.376
G1 X51.750 Y121.400 E264.276
G1 X51.087 Y121.335 E264.348
G1 X50.449 Y121.141 E264.420
G1 X49.861 Y120.827 E264.492
G1 X49.346 Y120.404 E264.564
G1 X48.923 Y119.889 E264.636
G1 X48.609 Y119.301 E264.708
G1 X48.415 Y118.663 E264.780
G1 X48.350 Y97.000 E267.119
G1 X48.415 Y96.337 E267.191
G1 X48.609 Y95.699 E267.263
G1 X48.923 Y95.111 E267.335
G1 X49.346 Y94.596 E267.407
G1 X49.861 Y94.173 E267.479
G1 X50.449 Y93.859 E267.551
G1 X51.087 Y93.665 E267.623
G1 X51.750 Y93.600 E267.695
G1 X51.750 Y94.000 E267.739
G1 X142.750 Y94.000 E277.567
G1 X142.750 Y94.000 E277.567
G1 X143.335 Y94.058 E277.630
G1 X143.898 Y94.228 E277.694
G1 X144.417 Y94.506 E277.757
G1 X144.871 Y94.879 E277.821
G1 X145.244 Y95.333 E277.884
G1 X145.522 Y95.852 E277.948
G1 X145.692 Y96.415 E278.011
G1 X145.750 Y118.000 E280.342
G1 X145.692 Y118.585 E280.406
G1 X145.522 Y119.148 E280.469
G1 X145.244 Y119.667 E280.533
G1 X144.871 Y120.121 E280.596
G1 X144.417 Y120.494 E280.660
G1 X143.898 Y120.772 E280.723
G1 X143.335 Y120.942 E280.787
G1 X51.750 Y121.000 E290.678
G1 X51.165 Y120.942 E290.742
G1 X50.602 Y120.772 E290.805
G1 X50.083 Y120.494 E290.869
G1 X49.629 Y120.121 E290.932
G1 X49.256 Y119.667 E290.996
G1 X48.978 Y119.148 E291.059
G1 X48.808 Y118.585 E291.123
G1 X48.750 Y97.000 E293.454
G1 X48.808 Y96.415 E293.517
G1 X48.978 Y95.852 E293.581
G1 X49.256 Y95.333 E293.645
G1 X49.629 Y94.879 E293.708
G1 X50.083 Y94.506 E293.771
G1 X50.602 Y94.228 E293.835
G1 X51.165 Y94.058 E293.899
G1 X51.750 Y94.000 E293.962
G1 X51.750 Y90.000 E294.394
;END create outline
;move to
G1 Z0.47000000000000003 F4800       ;move to Z position
G92 E0                     ;reset Extruder position
G1 X52.250 Y97.000 F2400     ;move to beginning of knitting
G1 Z0.27 F4800       ;move to Z position
;create path
G1 F2400
G1 X53.251 Y97.075 E0.108
G1 X54.202 Y97.297 E0.214
G1 X55.056 Y97.655 E0.314
G1 X55.768 Y98.130 E0.406
G1 X56.304 Y98.698 E0.491
G1 X56.637 Y99.332 E0.568
G1 X56.750 Y100.000 E0.641
G1 X56.694 Y100.668 E0.714
G1 X56.527 Y101.302 E0.784
G1 X56.259 Y101.870 E0.852
G1 X55.903 Y102.345 E0.916
G1 X55.476 Y102.703 E0.977
G1 X55.001 Y102.925 E1.033
G1 X54.500 Y103.000 E1.088
G1 X53.999 Y102.925 E1.143
G1 X53.524 Y102.703 E1.199
G1 X53.097 Y102.345 E1.259
G1 X52.741 Y101.870 E1.323
G1 X52.473 Y101.302 E1.391
G1 X52.306 Y100.668 E1.462
G1 X56.750 Y97.000 E2.084
G1 X57.751 Y97.075 E2.193
G1 X58.702 Y97.297 E2.298
G1 X59.556 Y97.655 E2.398
G1 X60.268 Y98.130 E2.491
G1 X60.804 Y98.698 E2.575
G1 X61.137 Y99.332 E2.652
G1 X61.250 Y100.000 E2.726
G1 X61.194 Y100.668 E2.798
G1 X61.027 Y101.302 E2.869
G1 X60.759 Y101.870 E2.937
G1 X60.403 Y102.345 E3.001
G1 X59.976 Y102.703 E3.061
G1 X59.501 Y102.925 E3.118
G1 X59.000 Y103.000 E3.172
G1 X58.499 Y102.925 E3.227
G1 X58.024 Y102.703 E3.284
G1 X57.597 Y102.345 E3.344
G1 X57.241 Y101.870 E3.408
G1 X56.973 Y101.302 E3.476
G1 X56.806 Y100.668 E3.547
G1 X61.250 Y97.000 E4.169
G1 X62.251 Y97.075 E4.277
G1 X63.202 Y97.297 E4.383
G1 X64.056 Y97.655 E4.483
G1 X64.768 Y98.130 E4.575
G1 X65.304 Y98.698 E4.660
G1 X65.637 Y99.332 E4.737
G1 X65.750 Y100.000 E4.810
G1 X65.694 Y100.668 E4.882
G1 X65.527 Y101.302 E4.953
G1 X65.259 Y101.870 E5.021
G1 X64.903 Y102.345 E5.085
G1 X64.476 Y102.703 E5.145
G1 X64.001 Y102.925 E5.202
G1 X63.500 Y103.000 E5.257
G1 X62.999 Y102.925 E5.311
G1 X62.524 Y102.703 E5.368
G1 X62.097 Y102.345 E5.428
G1 X61.741 Y101.870 E5.492
G1 X61.473 Y101.302 E5.560
G1 X61.306 Y100.668 E5.631
G1 X65.750 Y97.000 E6.253
G1 X66.751 Y97.075 E6.362
G1 X67.702 Y97.297 E6.467
G1 X68.556 Y97.655 E6.567
G1 X69.268 Y98.130 E6.660
G1 X69.804 Y98.698 E6.744
G1 X70.137 Y99.332 E6.821
G1 X70.250 Y100.000 E6.894
G1 X70.194 Y100.668 E6.967
G1 X70.027 Y101.302 E7.038
G1 X69.759 Y101.870 E7.105
G1 X69.403 Y102.345 E7.170
G1 X68.976 Y102.703 E7.230
G1 X68.501 Y102.925 E7.286
G1 X68.000 Y103.000 E7.341
G1 X67.499 Y102.925 E7.396
G1 X67.024 Y102.703 E7.452
G1 X66.597 Y102.345 E7.513
G1 X66.241 Y101.870 E7.577
G1 X65.973 Y101.302 E7.645
G1 X65.806 Y100.668 E7.715
G1 X70.250 Y97.000 E8.338
G1 X71.251 Y97.075 E8.446
G1 X72.202 Y97.297 E8.552
G1 X73.056 Y97.655 E8.652
G1 X73.768 Y98.130 E8.744
G1 X74.304 Y98.698 E8.828
G1 X74.637 Y99.332 E8.906
G1 X74.750 Y100.000 E8.979
G1 X74.694 Y100.668 E9.051
G1 X74.527 Y101.302 E9.122
G1 X74.259 Y101.870 E9.190
G1 X73.903 Y102.345 E9.254
G1 X73.476 Y102.703 E9.314
G1 X73.001 Y102.925 E9.371
G1 X72.500 Y103.000 E9.426
G1 X71.999 Y102.925 E9.480
G1 X71.524 Y102.703 E9.537
G1 X71.097 Y102.345 E9.597
G1 X70.741 Y101.870 E9.661
G1 X70.473 Y101.302 E9.729
G1 X70.306 Y100.668 E9.800
G1 X74.750 Y97.000 E10.422
G1 X75.751 Y97.075 E10.531
G1 X76.702 Y97.297 E10.636
G1 X77.556 Y97.655 E10.736
G1 X78.268 Y98.130 E10.828
G1 X78.804 Y98.698 E10.913
G1 X79.137 Y99.332 E10.990
G1 X79.250 Y100.000 E11.063
G1 X79.194 Y100.668 E11.136
G1 X79.027 Y101.302 E11.207
G1 X78.759 Y101.870 E11.274
G1 X78.403 Y102.345 E11.338
G1 X77.976 Y102.703 E11.399
G1 X77.501 Y102.925 E11.455
G1 X77.000 Y103.000 E11.510
G1 X76.499 Y102.925 E11.565
G1 X76.024 Y102.703 E11.621
G1 X75.597 Y102.345 E11.681
G1 X75.241 Y101.870 E11.746
G1 X74.973 Y101.302 E11.813
G1 X74.806 Y100.668 E11.884
G1 X79.250 Y97.000 E12.507
G1 X80.251 Y97.075 E12.615
G1 X81.202 Y97.297 E12.720
G1 X82.056 Y97.655 E12.820
G1 X82.768 Y98.130 E12.913
G1 X83.304 Y98.698 E12.997
G1 X83.637 Y99.332 E13.075
G1 X83.750 Y100.000 E13.148
G1 X83.694 Y100.668 E13.220
G1 X83.527 Y101.302 E13.291
G1 X83.259 Y101.870 E13.359
G1 X82.903 Y102.345 E13.423
G1 X82.476 Y102.703 E13.483
G1 X82.001 Y102.925 E13.540
G1 X81.500 Y103.000 E13.594
G1 X80.999 Y102.925 E13.649
G1 X80.524 Y102.703 E13.706
G1 X80.097 Y102.345 E13.766
G1 X79.741 Y101.870 E13.830
G1 X79.473 Y101.302 E13.898
G1 X79.306 Y100.668 E13.969
G1 X83.750 Y97.000 E14.591
G1 X84.751 Y97.075 E14.699
G1 X85.702 Y97.297 E14.805
G1 X86.556 Y97.655 E14.905
G1 X87.268 Y98.130 E14.997
G1 X87.804 Y98.698 E15.082
G1 X88.137 Y99.332 E15.159
G1 X88.250 Y100.000 E15.232
G1 X88.194 Y100.668 E15.305
G1 X88.027 Y101.302 E15.375
G1 X87.759 Y101.870 E15.443
G1 X87.403 Y102.345 E15.507
G1 X86.976 Y102.703 E15.567
G1 X86.501 Y102.925 E15.624
G1 X86.000 Y103.000 E15.679
G1 X85.499 Y102.925 E15.734
G1 X85.024 Y102.703 E15.790
G1 X84.597 Y102.345 E15.850
G1 X84.241 Y101.870 E15.914
G1 X83.973 Y101.302 E15.982
G1 X83.806 Y100.668 E16.053
G1 X88.250 Y97.000 E16.675
G1 X89.251 Y97.075 E16.784
G1 X90.202 Y97.297 E16.889
G1 X91.056 Y97.655 E16.989
G1 X91.768 Y98.130 E17.082
G1 X92.304 Y98.698 E17.166
G1 X92.637 Y99.332 E17.243
G1 X92.750 Y100.000 E17.317
G1 X92.694 Y100.668 E17.389
G1 X92.527 Y101.302 E17.460
G1 X92.259 Y101.870 E17.528
G1 X91.903 Y102.345 E17.592
G1 X91.476 Y102.703 E17.652
G1 X91.001 Y102.925 E17.709
G1 X90.500 Y103.000 E17.763
G1 X89.999 Y102.925 E17.818
G1 X89.524 Y102.703 E17.875
G1 X89.097 Y102.345 E17.935
G1 X88.741 Y101.870 E17.999
G1 X88.473 Y101.302 E18.067
G1 X88.306 Y100.668 E18.138
G1 X92.750 Y97.000 E18.760
G1 X93.751 Y97.075 E18.868
G1 X94.702 Y97.297 E18.974
G1 X95.556 Y97.655 E19.074
G1 X96.268 Y98.130 E19.166
G1 X96.804 Y98.698 E19.251
G1 X97.137 Y99.332 E19.328
G1 X97.250 Y100.000 E19.401
G1 X97.194 Y100.668 E19.473
G1 X97.027 Y101.302 E19.544
G1 X96.759 Y101.870 E19.612
G1 X96.403 Y102.345 E19.676
G1 X95.976 Y102.703 E19.736
G1 X95.501 Y102.925 E19.793
G1 X95.000 Y103.000 E19.848
G1 X94.499 Y102.925 E19.902
G1 X94.024 Y102.703 E19.959
G1 X93.597 Y102.345 E20.019
G1 X93.241 Y101.870 E20.083
G1 X92.973 Y101.302 E20.151
G1 X92.806 Y100.668 E20.222
G1 X97.250 Y97.000 E20.844
G1 X98.251 Y97.075 E20.953
G1 X99.202 Y97.297 E21.058
G1 X100.056 Y97.655 E21.158
G1 X100.768 Y98.130 E21.251
G1 X101.304 Y98.698 E21.335
G1 X101.637 Y99.332 E21.412
G1 X101.750 Y100.000 E21.485
G1 X101.694 Y100.668 E21.558
G1 X101.527 Y101.302 E21.629
G1 X101.259 Y101.870 E21.696
G1 X100.903 Y102.345 E21.761
G1 X100.476 Y102.703 E21.821
G1 X100.001 Y102.925 E21.877
G1 X99.500 Y103.000 E21.932
G1 X98.999 Y102.925 E21.987
G1 X98.524 Y102.703 E22.043
G1 X98.097 Y102.345 E22.104
G1 X97.741 Y101.870 E22.168
G1 X97.473 Y101.302 E22.236
G1 X97.306 Y100.668 E22.306
G1 X101.750 Y97.000 E22.929
G1 X102.751 Y97.075 E23.037
G1 X103.702 Y97.297 E23.143
G1 X104.556 Y97.655 E23.243
G1 X105.268 Y98.130 E23.335
G1 X105.804 Y98.698 E23.419
G1 X106.137 Y99.332 E23.497
G1 X106.250 Y100.000 E23.570
G1 X106.194 Y100.668 E23.642
G1 X106.027 Y101.302 E23.713
G1 X105.759 Y101.870 E23.781
G1 X105.403 Y102.345 E23.845
G1 X104.976 Y102.703 E23.905
G1 X104.501 Y102.925 E23.962
G1 X104.000 Y103.000 E24.017
G1 X103.499 Y102.925 E24.071
G1 X103.024 Y102.703 E24.128
G1 X102.597 Y102.345 E24.188
G1 X102.241 Y101.870 E24.252
G1 X101.973 Y101.302 E24.320
G1 X101.806 Y100.668 E24.391
G1 X106.250 Y97.000 E25.013
G1 X107.251 Y97.075 E25.122
G1 X108.202 Y97.297 E25.227
G1 X109.056 Y97.655 E25.327
G1 X109.768 Y98.130 E25.419
G1 X110.304 Y98.698 E25.504
G1 X110.637 Y99.332 E25.581
G1 X110.750 Y100.000 E25.654
G1 X110.694 Y100.668 E25.727
G1 X110.527 Y101.302 E25.798
G1 X110.259 Y101.870 E25.865
G1 X109.903 Y102.345 E25.929
G1 X109.476 Y102.703 E25.990
G1 X109.001 Y102.925 E26.046
G1 X108.500 Y103.000 E26.101
G1 X107.999 Y102.925 E26.156
G1 X107.524 Y102.703 E26.212
G1 X107.097 Y102.345 E26.272
G1 X106.741 Y101.870 E26.337
G1 X106.473 Y101.302 E26.404
G1 X106.306 Y100.668 E26.475
G1 X110.750 Y97.000 E27.098
G1 X111.751 Y97.075 E27.206
G1 X112.702 Y97.297 E27.311
G1 X113.556 Y97.655 E27.411
G1 X114.268 Y98.130 E27.504
G1 X114.804 Y98.698 E27.588
G1 X115.137 Y99.332 E27.666
G1 X115.250 Y100.000 E27.739
G1 X115.194 Y100.668 E27.811
G1 X115.027 Y101.302 E27.882
G1 X114.759 Y101.870 E27.950
G1 X114.403 Y102.345 E28.014
G1 X113.976 Y102.703 E28.074
G1 X113.501 Y102.925 E28.131
G1 X113.000 Y103.000 E28.185
G1 X112.499 Y102.925 E28.240
G1 X112.024 Y102.703 E28.297
G1 X111.597 Y102.345 E28.357
G1 X111.241 Y101.870 E28.421
G1 X110.973 Y101.302 E28.489
G1 X110.806 Y100.668 E28.560
G1 X115.250 Y97.000 E29.182
G1 X116.251 Y97.075 E29.290
G1 X117.202 Y97.297 E29.396
G1 X118.056 Y97.655 E29.496
G1 X118.768 Y98.130 E29.588
G1 X119.304 Y98.698 E29.673
G1 X119.637 Y99.332 E29.750
G1 X119.750 Y100.000 E29.823
G1 X119.694 Y100.668 E29.896
G1 X119.527 Y101.302 E29.966
G1 X119.259 Y101.870 E30.034
G1 X118.903 Y102.345 E30.098
G1 X118.476 Y102.703 E30.158
G1 X118.001 Y102.925 E30.215
G1 X117.500 Y103.000 E30.270
G1 X116.999 Y102.925 E30.325
G1 X116.524 Y102.703 E30.381
G1 X116.097 Y102.345 E30.441
G1 X115.741 Y101.870 E30.505
G1 X115.473 Y101.302 E30.573
G1 X115.306 Y100.668 E30.644
G1 X119.750 Y97.000 E31.266
G1 X120.751 Y97.075 E31.375
G1 X121.702 Y97.297 E31.480
G1 X122.556 Y97.655 E31.580
G1 X123.268 Y98.130 E31.673
G1 X123.804 Y98.698 E31.757
G1 X124.137 Y99.332 E31.834
G1 X124.250 Y100.000 E31.908
G1 X124.194 Y100.668 E31.980
G1 X124.027 Y101.302 E32.051
G1 X123.759 Y101.870 E32.119
G1 X123.403 Y102.345 E32.183
G1 X122.976 Y102.703 E32.243
G1 X122.501 Y102.925 E32.300
G1 X122.000 Y103.000 E32.354
G1 X121.499 Y102.925 E32.409
G1 X121.024 Y102.703 E32.466
G1 X120.597 Y102.345 E32.526
G1 X120.241 Y101.870 E32.590
G1 X119.973 Y101.302 E32.658
G1 X119.806 Y100.668 E32.729
G1 X124.250 Y97.000 E33.351
G1 X125.251 Y97.075 E33.459
G1 X126.202 Y97.297 E33.565
G1 X127.056 Y97.655 E33.665
G1 X127.768 Y98.130 E33.757
G1 X128.304 Y98.698 E33.841
G1 X128.637 Y99.332 E33.919
G1 X128.750 Y100.000 E33.992
G1 X128.694 Y100.668 E34.064
G1 X128.527 Y101.302 E34.135
G1 X128.259 Y101.870 E34.203
G1 X127.903 Y102.345 E34.267
G1 X127.476 Y102.703 E34.327
G1 X127.001 Y102.925 E34.384
G1 X126.500 Y103.000 E34.439
G1 X125.999 Y102.925 E34.493
G1 X125.524 Y102.703 E34.550
G1 X125.097 Y102.345 E34.610
G1 X124.741 Y101.870 E34.674
G1 X124.473 Y101.302 E34.742
G1 X124.306 Y100.668 E34.813
G1 X128.750 Y97.000 E35.435
G1 X129.751 Y97.075 E35.544
G1 X130.702 Y97.297 E35.649
G1 X131.556 Y97.655 E35.749
G1 X132.268 Y98.130 E35.842
G1 X132.804 Y98.698 E35.926
G1 X133.137 Y99.332 E36.003
G1 X133.250 Y100.000 E36.076
G1 X133.194 Y100.668 E36.149
G1 X133.027 Y101.302 E36.220
G1 X132.759 Y101.870 E36.287
G1 X132.403 Y102.345 E36.352
G1 X131.976 Y102.703 E36.412
G1 X131.501 Y102.925 E36.468
G1 X131.000 Y103.000 E36.523
G1 X130.499 Y102.925 E36.578
G1 X130.024 Y102.703 E36.634
G1 X129.597 Y102.345 E36.695
G1 X129.241 Y101.870 E36.759
G1 X128.973 Y101.302 E36.827
G1 X128.806 Y100.668 E36.897
G1 X133.250 Y97.000 E37.520
G1 X134.251 Y97.075 E37.628
G1 X135.202 Y97.297 E37.734
G1 X136.056 Y97.655 E37.834
G1 X136.768 Y98.130 E37.926
G1 X137.304 Y98.698 E38.010
G1 X137.637 Y99.332 E38.088
G1 X137.750 Y100.000 E38.161
G1 X137.694 Y100.668 E38.233
G1 X137.527 Y101.302 E38.304
G1 X137.259 Y101.870 E38.372
G1 X136.903 Y102.345 E38.436
G1 X136.476 Y102.703 E38.496
G1 X136.001 Y102.925 E38.553
G1 X135.500 Y103.000 E38.608
G1 X134.999 Y102.925 E38.662
G1 X134.524 Y102.703 E38.719
G1 X134.097 Y102.345 E38.779
G1 X133.741 Y101.870 E38.843
G1 X133.473 Y101.302 E38.911
G1 X133.306 Y100.668 E38.982
G1 X137.750 Y97.000 E39.604
G1 X138.751 Y97.075 E39.713
G1 X139.702 Y97.297 E39.818
G1 X140.556 Y97.655 E39.918
G1 X141.268 Y98.130 E40.010
G1 X141.804 Y98.698 E40.095
G1 X142.137 Y99.332 E40.172
G1 X142.250 Y100.000 E40.245
G1 X142.194 Y100.668 E40.318
G1 X142.027 Y101.302 E40.388
G1 X141.759 Y101.870 E40.456
G1 X141.403 Y102.345 E40.520
G1 X140.976 Y102.703 E40.581
G1 X140.501 Y102.925 E40.637
G1 X140.000 Y103.000 E40.692
G1 X139.499 Y102.925 E40.747
G1 X139.024 Y102.703 E40.803
G1 X138.597 Y102.345 E40.863
G1 X138.241 Y101.870 E40.928
G1 X137.973 Y101.302 E40.995
G1 X137.806 Y100.668 E41.066
G1 X142.250 Y97.000 E41.689
G1 X142.250 Y98.500 E41.851
G1 X141.749 Y98.575 E41.905
G1 X141.274 Y98.797 E41.962
G1 X140.847 Y99.155 E42.022
G1 X140.491 Y99.630 E42.086
G1 X140.223 Y100.198 E42.154
G1 X140.056 Y100.832 E42.225
G1 X142.194 Y105.168 E42.747
G1 X142.027 Y105.802 E42.818
G1 X141.759 Y106.370 E42.886
G1 X141.403 Y106.845 E42.950
G1 X140.976 Y107.203 E43.010
G1 X140.501 Y107.425 E43.066
G1 X140.000 Y107.500 E43.121
G1 X139.499 Y107.425 E43.176
G1 X139.024 Y107.203 E43.233
G1 X138.597 Y106.845 E43.293
G1 X138.241 Y106.370 E43.357
G1 X137.973 Y105.802 E43.425
G1 X137.806 Y105.168 E43.495
G1 X139.944 Y100.832 E44.018
G1 X139.777 Y100.198 E44.088
G1 X139.509 Y99.630 E44.156
G1 X139.153 Y99.155 E44.220
G1 X138.726 Y98.797 E44.280
G1 X138.251 Y98.575 E44.337
G1 X137.750 Y98.500 E44.392
G1 X137.750 Y98.500 E44.392
G1 X137.249 Y98.575 E44.447
G1 X136.774 Y98.797 E44.503
G1 X136.347 Y99.155 E44.563
G1 X135.991 Y99.630 E44.627
G1 X135.723 Y100.198 E44.695
G1 X135.556 Y100.832 E44.766
G1 X137.694 Y105.168 E45.288
G1 X137.527 Y105.802 E45.359
G1 X137.259 Y106.370 E45.427
G1 X136.903 Y106.845 E45.491
G1 X136.476 Y107.203 E45.551
G1 X136.001 Y107.425 E45.608
G1 X135.500 Y107.500 E45.662
G1 X134.999 Y107.425 E45.717
G1 X134.524 Y107.203 E45.774
G1 X134.097 Y106.845 E45.834
G1 X133.741 Y106.370 E45.898
G1 X133.473 Y105.802 E45.966
G1 X133.306 Y105.168 E46.037
G1 X135.444 Y100.832 E46.559
G1 X135.277 Y100.198 E46.630
G1 X135.009 Y99.630 E46.697
G1 X134.653 Y99.155 E46.762
G1 X134.226 Y98.797 E46.822
G1 X133.751 Y98.575 E46.878
G1 X133.250 Y98.500 E46.933
G1 X133.250 Y98.500 E46.933
G1 X132.749 Y98.575 E46.988
G1 X132.274 Y98.797 E47.044
G1 X131.847 Y99.155 E47.105
G1 X131.491 Y99.630 E47.169
G1 X131.223 Y100.198 E47.237
G1 X131.056 Y100.832 E47.307
G1 X133.194 Y105.168 E47.829
G1 X133.027 Y105.802 E47.900
G1 X132.759 Y106.370 E47.968
G1 X132.403 Y106.845 E48.032
G1 X131.976 Y107.203 E48.092
G1 X131.501 Y107.425 E48.149
G1 X131.000 Y107.500 E48.204
G1 X130.499 Y107.425 E48.258
G1 X130.024 Y107.203 E48.315
G1 X129.597 Y106.845 E48.375
G1 X129.241 Y106.370 E48.439
G1 X128.973 Y105.802 E48.507
G1 X128.806 Y105.168 E48.578
G1 X130.944 Y100.832 E49.100
G1 X130.777 Y100.198 E49.171
G1 X130.509 Y99.630 E49.239
G1 X130.153 Y99.155 E49.303
G1 X129.726 Y98.797 E49.363
G1 X129.251 Y98.575 E49.420
G1 X128.750 Y98.500 E49.474
G1 X128.750 Y98.500 E49.474
G1 X128.249 Y98.575 E49.529
G1 X127.774 Y98.797 E49.586
G1 X127.347 Y99.155 E49.646
G1 X126.991 Y99.630 E49.710
G1 X126.723 Y100.198 E49.778
G1 X126.556 Y100.832 E49.849
G1 X128.694 Y105.168 E50.371
G1 X128.527 Y105.802 E50.442
G1 X128.259 Y106.370 E50.509
G1 X127.903 Y106.845 E50.574
G1 X127.476 Y107.203 E50.634
G1 X127.001 Y107.425 E50.690
G1 X126.500 Y107.500 E50.745
G1 X125.999 Y107.425 E50.800
G1 X125.524 Y107.203 E50.856
G1 X125.097 Y106.845 E50.917
G1 X124.741 Y106.370 E50.981
G1 X124.473 Y105.802 E51.049
G1 X124.306 Y105.168 E51.119
G1 X126.444 Y100.832 E51.641
G1 X126.277 Y100.198 E51.712
G1 X126.009 Y99.630 E51.780
G1 X125.653 Y99.155 E51.844
G1 X125.226 Y98.797 E51.904
G1 X124.751 Y98.575 E51.961
G1 X124.250 Y98.500 E52.016
G1 X124.250 Y98.500 E52.016
G1 X123.749 Y98.575 E52.070
G1 X123.274 Y98.797 E52.127
G1 X122.847 Y99.155 E52.187
G1 X122.491 Y99.630 E52.251
G1 X122.223 Y100.198 E52.319
G1 X122.056 Y100.832 E52.390
G1 X124.194 Y105.168 E52.912
G1 X124.027 Y105.802 E52.983
G1 X123.759 Y106.370 E53.051
G1 X123.403 Y106.845 E53.115
G1 X122.976 Y107.203 E53.175
G1 X122.501 Y107.425 E53.232
G1 X122.000 Y107.500 E53.286
G1 X121.499 Y107.425 E53.341
G1 X121.024 Y107.203 E53.398
G1 X120.597 Y106.845 E53.458
G1 X120.241 Y106.370 E53.522
G1 X119.973 Y105.802 E53.590
G1 X119.806 Y105.168 E53.661
G1 X121.944 Y100.832 E54.183
G1 X121.777 Y100.198 E54.254
G1 X121.509 Y99.630 E54.321
G1 X121.153 Y99.155 E54.385
G1 X120.726 Y98.797 E54.446
G1 X120.251 Y98.575 E54.502
G1 X119.750 Y98.500 E54.557
G1 X119.750 Y98.500 E54.557
G1 X119.249 Y98.575 E54.612
G1 X118.774 Y98.797 E54.668
G1 X118.347 Y99.155 E54.729
G1 X117.991 Y99.630 E54.793
G1 X117.723 Y100.198 E54.860
G1 X117.556 Y100.832 E54.931
G1 X119.694 Y105.168 E55.453
G1 X119.527 Y105.802 E55.524
G1 X119.259 Y106.370 E55.592
G1 X118.903 Y106.845 E55.656
G1 X118.476 Y107.203 E55.716
G1 X118.001 Y107.425 E55.773
G1 X117.500 Y107.500 E55.828
G1 X116.999 Y107.425 E55.882
G1 X116.524 Y107.203 E55.939
G1 X116.097 Y106.845 E55.999
G1 X115.741 Y106.370 E56.063
G1 X115.473 Y105.802 E56.131
G1 X115.306 Y105.168 E56.202
G1 X117.444 Y100.832 E56.724
G1 X117.277 Y100.198 E56.795
G1 X117.009 Y99.630 E56.863
G1 X116.653 Y99.155 E56.927
G1 X116.226 Y98.797 E56.987
G1 X115.751 Y98.575 E57.044
G1 X115.250 Y98.500 E57.098
G1 X115.250 Y98.500 E57.098
G1 X114.749 Y98.575 E57.153
G1 X114.274 Y98.797 E57.210
G1 X113.847 Y99.155 E57.270
G1 X113.491 Y99.630 E57.334
G1 X113.223 Y100.198 E57.402
G1 X113.056 Y100.832 E57.473
G1 X115.194 Y105.168 E57.995
G1 X115.027 Y105.802 E58.065
G1 X114.759 Y106.370 E58.133
G1 X114.403 Y106.845 E58.197
G1 X113.976 Y107.203 E58.258
G1 X113.501 Y107.425 E58.314
G1 X113.000 Y107.500 E58.369
G1 X112.499 Y107.425 E58.424
G1 X112.024 Y107.203 E58.480
G1 X111.597 Y106.845 E58.540
G1 X111.241 Y106.370 E58.605
G1 X110.973 Y105.802 E58.672
G1 X110.806 Y105.168 E58.743
G1 X112.944 Y100.832 E59.265
G1 X112.777 Y100.198 E59.336
G1 X112.509 Y99.630 E59.404
G1 X112.153 Y99.155 E59.468
G1 X111.726 Y98.797 E59.528
G1 X111.251 Y98.575 E59.585
G1 X110.750 Y98.500 E59.640
G1 X110.750 Y98.500 E59.640
G1 X110.249 Y98.575 E59.694
G1 X109.774 Y98.797 E59.751
G1 X109.347 Y99.155 E59.811
G1 X108.991 Y99.630 E59.875
G1 X108.723 Y100.198 E59.943
G1 X108.556 Y100.832 E60.014
G1 X110.694 Y105.168 E60.536
G1 X110.527 Y105.802 E60.607
G1 X110.259 Y106.370 E60.675
G1 X109.903 Y106.845 E60.739
G1 X109.476 Y107.203 E60.799
G1 X109.001 Y107.425 E60.856
G1 X108.500 Y107.500 E60.910
G1 X107.999 Y107.425 E60.965
G1 X107.524 Y107.203 E61.022
G1 X107.097 Y106.845 E61.082
G1 X106.741 Y106.370 E61.146
G1 X106.473 Y105.802 E61.214
G1 X106.306 Y105.168 E61.284
G1 X108.444 Y100.832 E61.807
G1 X108.277 Y100.198 E61.877
G1 X108.009 Y99.630 E61.945
G1 X107.653 Y99.155 E62.009
G1 X107.226 Y98.797 E62.070
G1 X106.751 Y98.575 E62.126
G1 X106.250 Y98.500 E62.181
G1 X106.250 Y98.500 E62.181
G1 X105.749 Y98.575 E62.236
G1 X105.274 Y98.797 E62.292
G1 X104.847 Y99.155 E62.352
G1 X104.491 Y99.630 E62.416
G1 X104.223 Y100.198 E62.484
G1 X104.056 Y100.832 E62.555
G1 X106.194 Y105.168 E63.077
G1 X106.027 Y105.802 E63.148
G1 X105.759 Y106.370 E63.216
G1 X105.403 Y106.845 E63.280
G1 X104.976 Y107.203 E63.340
G1 X104.501 Y107.425 E63.397
G1 X104.000 Y107.500 E63.452
G1 X103.499 Y107.425 E63.506
G1 X103.024 Y107.203 E63.563
G1 X102.597 Y106.845 E63.623
G1 X102.241 Y106.370 E63.687
G1 X101.973 Y105.802 E63.755
G1 X101.806 Y105.168 E63.826
G1 X103.944 Y100.832 E64.348
G1 X103.777 Y100.198 E64.419
G1 X103.509 Y99.630 E64.487
G1 X103.153 Y99.155 E64.551
G1 X102.726 Y98.797 E64.611
G1 X102.251 Y98.575 E64.667
G1 X101.750 Y98.500 E64.722
G1 X101.750 Y98.500 E64.722
G1 X101.249 Y98.575 E64.777
G1 X100.774 Y98.797 E64.834
G1 X100.347 Y99.155 E64.894
G1 X99.991 Y99.630 E64.958
G1 X99.723 Y100.198 E65.026
G1 X99.556 Y100.832 E65.096
G1 X101.694 Y105.168 E65.619
G1 X101.527 Y105.802 E65.689
G1 X101.259 Y106.370 E65.757
G1 X100.903 Y106.845 E65.821
G1 X100.476 Y107.203 E65.881
G1 X100.001 Y107.425 E65.938
G1 X99.500 Y107.500 E65.993
G1 X98.999 Y107.425 E66.048
G1 X98.524 Y107.203 E66.104
G1 X98.097 Y106.845 E66.164
G1 X97.741 Y106.370 E66.228
G1 X97.473 Y105.802 E66.296
G1 X97.306 Y105.168 E66.367
G1 X99.444 Y100.832 E66.889
G1 X99.277 Y100.198 E66.960
G1 X99.009 Y99.630 E67.028
G1 X98.653 Y99.155 E67.092
G1 X98.226 Y98.797 E67.152
G1 X97.751 Y98.575 E67.209
G1 X97.250 Y98.500 E67.263
G1 X97.250 Y98.500 E67.263
G1 X96.749 Y98.575 E67.318
G1 X96.274 Y98.797 E67.375
G1 X95.847 Y99.155 E67.435
G1 X95.491 Y99.630 E67.499
G1 X95.223 Y100.198 E67.567
G1 X95.056 Y100.832 E67.638
G1 X97.194 Y105.168 E68.160
G1 X97.027 Y105.802 E68.231
G1 X96.759 Y106.370 E68.298
G1 X96.403 Y106.845 E68.363
G1 X95.976 Y107.203 E68.423
G1 X95.501 Y107.425 E68.479
G1 X95.000 Y107.500 E68.534
G1 X94.499 Y107.425 E68.589
G1 X94.024 Y107.203 E68.645
G1 X93.597 Y106.845 E68.706
G1 X93.241 Y106.370 E68.770
G1 X92.973 Y105.802 E68.838
G1 X92.806 Y105.168 E68.908
G1 X94.944 Y100.832 E69.430
G1 X94.777 Y100.198 E69.501
G1 X94.509 Y99.630 E69.569
G1 X94.153 Y99.155 E69.633
G1 X93.726 Y98.797 E69.693
G1 X93.251 Y98.575 E69.750
G1 X92.750 Y98.500 E69.805
G1 X92.750 Y98.500 E69.805
G1 X92.249 Y98.575 E69.859
G1 X91.774 Y98.797 E69.916
G1 X91.347 Y99.155 E69.976
G1 X90.991 Y99.630 E70.040
G1 X90.723 Y100.198 E70.108
G1 X90.556 Y100.832 E70.179
G1 X92.694 Y105.168 E70.701
G1 X92.527 Y105.802 E70.772
G1 X92.259 Y106.370 E70.840
G1 X91.903 Y106.845 E70.904
G1 X91.476 Y107.203 E70.964
G1 X91.001 Y107.425 E71.021
G1 X90.500 Y107.500 E71.075
G1 X89.999 Y107.425 E71.130
G1 X89.524 Y107.203 E71.187
G1 X89.097 Y106.845 E71.247
G1 X88.741 Y106.370 E71.311
G1 X88.473 Y105.802 E71.379
G1 X88.306 Y105.168 E71.450
G1 X90.444 Y100.832 E71.972
G1 X90.277 Y100.198 E72.043
G1 X90.009 Y99.630 E72.110
G1 X89.653 Y99.155 E72.175
G1 X89.226 Y98.797 E72.235
G1 X88.751 Y98.575 E72.291
G1 X88.250 Y98.500 E72.346
G1 X88.250 Y98.500 E72.346
G1 X87.749 Y98.575 E72.401
G1 X87.274 Y98.797 E72.457
G1 X86.847 Y99.155 E72.518
G1 X86.491 Y99.630 E72.582
G1 X86.223 Y100.198 E72.650
G1 X86.056 Y100.832 E72.720
G1 X88.194 Y105.168 E73.242
G1 X88.027 Y105.802 E73.313
G1 X87.759 Y106.370 E73.381
G1 X87.403 Y106.845 E73.445
G1 X86.976 Y107.203 E73.505
G1 X86.501 Y107.425 E73.562
G1 X86.000 Y107.500 E73.617
G1 X85.499 Y107.425 E73.671
G1 X85.024 Y107.203 E73.728
G1 X84.597 Y106.845 E73.788
G1 X84.241 Y106.370 E73.852
G1 X83.973 Y105.802 E73.920
G1 X83.806 Y105.168 E73.991
G1 X85.944 Y100.832 E74.513
G1 X85.777 Y100.198 E74.584
G1 X85.509 Y99.630 E74.652
G1 X85.153 Y99.155 E74.716
G1 X84.726 Y98.797 E74.776
G1 X84.251 Y98.575 E74.833
G1 X83.750 Y98.500 E74.887
G1 X83.750 Y98.500 E74.887
G1 X83.249 Y98.575 E74.942
G1 X82.774 Y98.797 E74.999
G1 X82.347 Y99.155 E75.059
G1 X81.991 Y99.630 E75.123
G1 X81.723 Y100.198 E75.191
G1 X81.556 Y100.832 E75.262
G1 X83.694 Y105.168 E75.784
G1 X83.527 Y105.802 E75.855
G1 X83.259 Y106.370 E75.922
G1 X82.903 Y106.845 E75.986
G1 X82.476 Y107.203 E76.047
G1 X82.001 Y107.425 E76.103
G1 X81.500 Y107.500 E76.158
G1 X80.999 Y107.425 E76.213
G1 X80.524 Y107.203 E76.269
G1 X80.097 Y106.845 E76.330
G1 X79.741 Y106.370 E76.394
G1 X79.473 Y105.802 E76.461
G1 X79.306 Y105.168 E76.532
G1 X81.444 Y100.832 E77.054
G1 X81.277 Y100.198 E77.125
G1 X81.009 Y99.630 E77.193
G1 X80.653 Y99.155 E77.257
G1 X80.226 Y98.797 E77.317
G1 X79.751 Y98.575 E77.374
G1 X79.250 Y98.500 E77.429
G1 X79.250 Y98.500 E77.429
G1 X78.749 Y98.575 E77.483
G1 X78.274 Y98.797 E77.540
G1 X77.847 Y99.155 E77.600
G1 X77.491 Y99.630 E77.664
G1 X77.223 Y100.198 E77.732
G1 X77.056 Y100.832 E77.803
G1 X79.194 Y105.168 E78.325
G1 X79.027 Y105.802 E78.396
G1 X78.759 Y106.370 E78.464
G1 X78.403 Y106.845 E78.528
G1 X77.976 Y107.203 E78.588
G1 X77.501 Y107.425 E78.645
G1 X77.000 Y107.500 E78.699
G1 X76.499 Y107.425 E78.754
G1 X76.024 Y107.203 E78.811
G1 X75.597 Y106.845 E78.871
G1 X75.241 Y106.370 E78.935
G1 X74.973 Y105.802 E79.003
G1 X74.806 Y105.168 E79.074
G1 X76.944 Y100.832 E79.596
G1 X76.777 Y100.198 E79.666
G1 X76.509 Y99.630 E79.734
G1 X76.153 Y99.155 E79.798
G1 X75.726 Y98.797 E79.859
G1 X75.251 Y98.575 E79.915
G1 X74.750 Y98.500 E79.970
G1 X74.750 Y98.500 E79.970
G1 X74.249 Y98.575 E80.025
G1 X73.774 Y98.797 E80.081
G1 X73.347 Y99.155 E80.141
G1 X72.991 Y99.630 E80.206
G1 X72.723 Y100.198 E80.273
G1 X72.556 Y100.832 E80.344
G1 X74.694 Y105.168 E80.866
G1 X74.527 Y105.802 E80.937
G1 X74.259 Y106.370 E81.005
G1 X73.903 Y106.845 E81.069
G1 X73.476 Y107.203 E81.129
G1 X73.001 Y107.425 E81.186
G1 X72.500 Y107.500 E81.241
G1 X71.999 Y107.425 E81.295
G1 X71.524 Y107.203 E81.352
G1 X71.097 Y106.845 E81.412
G1 X70.741 Y106.370 E81.476
G1 X70.473 Y105.802 E81.544
G1 X70.306 Y105.168 E81.615
G1 X72.444 Y100.832 E82.137
G1 X72.277 Y100.198 E82.208
G1 X72.009 Y99.630 E82.276
G1 X71.653 Y99.155 E82.340
G1 X71.226 Y98.797 E82.400
G1 X70.751 Y98.575 E82.457
G1 X70.250 Y98.500 E82.511
G1 X70.250 Y98.500 E82.511
G1 X69.749 Y98.575 E82.566
G1 X69.274 Y98.797 E82.623
G1 X68.847 Y99.155 E82.683
G1 X68.491 Y99.630 E82.747
G1 X68.223 Y100.198 E82.815
G1 X68.056 Y100.832 E82.885
G1 X70.194 Y105.168 E83.408
G1 X70.027 Y105.802 E83.478
G1 X69.759 Y106.370 E83.546
G1 X69.403 Y106.845 E83.610
G1 X68.976 Y107.203 E83.671
G1 X68.501 Y107.425 E83.727
G1 X68.000 Y107.500 E83.782
G1 X67.499 Y107.425 E83.837
G1 X67.024 Y107.203 E83.893
G1 X66.597 Y106.845 E83.953
G1 X66.241 Y106.370 E84.017
G1 X65.973 Y105.802 E84.085
G1 X65.806 Y105.168 E84.156
G1 X67.944 Y100.832 E84.678
G1 X67.777 Y100.198 E84.749
G1 X67.509 Y99.630 E84.817
G1 X67.153 Y99.155 E84.881
G1 X66.726 Y98.797 E84.941
G1 X66.251 Y98.575 E84.998
G1 X65.750 Y98.500 E85.053
G1 X65.750 Y98.500 E85.053
G1 X65.249 Y98.575 E85.107
G1 X64.774 Y98.797 E85.164
G1 X64.347 Y99.155 E85.224
G1 X63.991 Y99.630 E85.288
G1 X63.723 Y100.198 E85.356
G1 X63.556 Y100.832 E85.427
G1 X65.694 Y105.168 E85.949
G1 X65.527 Y105.802 E86.020
G1 X65.259 Y106.370 E86.088
G1 X64.903 Y106.845 E86.152
G1 X64.476 Y107.203 E86.212
G1 X64.001 Y107.425 E86.268
G1 X63.500 Y107.500 E86.323
G1 X62.999 Y107.425 E86.378
G1 X62.524 Y107.203 E86.434
G1 X62.097 Y106.845 E86.495
G1 X61.741 Y106.370 E86.559
G1 X61.473 Y105.802 E86.627
G1 X61.306 Y105.168 E86.697
G1 X63.444 Y100.832 E87.220
G1 X63.277 Y100.198 E87.290
G1 X63.009 Y99.630 E87.358
G1 X62.653 Y99.155 E87.422
G1 X62.226 Y98.797 E87.482
G1 X61.751 Y98.575 E87.539
G1 X61.250 Y98.500 E87.594
G1 X61.250 Y98.500 E87.594
G1 X60.749 Y98.575 E87.649
G1 X60.274 Y98.797 E87.705
G1 X59.847 Y99.155 E87.765
G1 X59.491 Y99.630 E87.829
G1 X59.223 Y100.198 E87.897
G1 X59.056 Y100.832 E87.968
G1 X61.194 Y105.168 E88.490
G1 X61.027 Y105.802 E88.561
G1 X60.759 Y106.370 E88.629
G1 X60.403 Y106.845 E88.693
G1 X59.976 Y107.203 E88.753
G1 X59.501 Y107.425 E88.810
G1 X59.000 Y107.500 E88.864
G1 X58.499 Y107.425 E88.919
G1 X58.024 Y107.203 E88.976
G1 X57.597 Y106.845 E89.036
G1 X57.241 Y106.370 E89.100
G1 X56.973 Y105.802 E89.168
G1 X56.806 Y105.168 E89.239
G1 X58.944 Y100.832 E89.761
G1 X58.777 Y100.198 E89.832
G1 X58.509 Y99.630 E89.899
G1 X58.153 Y99.155 E89.964
G1 X57.726 Y98.797 E90.024
G1 X57.251 Y98.575 E90.080
G1 X56.750 Y98.500 E90.135
G1 X56.750 Y98.500 E90.135
G1 X56.249 Y98.575 E90.190
G1 X55.774 Y98.797 E90.246
G1 X55.347 Y99.155 E90.307
G1 X54.991 Y99.630 E90.371
G1 X54.723 Y100.198 E90.439
G1 X54.556 Y100.832 E90.509
G1 X56.694 Y105.168 E91.031
G1 X56.527 Y105.802 E91.102
G1 X56.259 Y106.370 E91.170
G1 X55.903 Y106.845 E91.234
G1 X55.476 Y107.203 E91.294
G1 X55.001 Y107.425 E91.351
G1 X54.500 Y107.500 E91.406
G1 X53.999 Y107.425 E91.460
G1 X53.524 Y107.203 E91.517
G1 X53.097 Y106.845 E91.577
G1 X52.741 Y106.370 E91.641
G1 X52.473 Y105.802 E91.709
G1 X52.306 Y105.168 E91.780
G1 X54.444 Y100.832 E92.302
G1 X54.277 Y100.198 E92.373
G1 X54.009 Y99.630 E92.441
G1 X53.653 Y99.155 E92.505
G1 X53.226 Y98.797 E92.565
G1 X52.751 Y98.575 E92.622
G1 X52.250 Y98.500 E92.676
G1 X52.250 Y103.000 E93.162
G1 X52.751 Y103.075 E93.217
G1 X53.226 Y103.297 E93.274
G1 X53.653 Y103.655 E93.334
G1 X54.009 Y104.130 E93.398
G1 X54.277 Y104.698 E93.466
G1 X54.444 Y105.332 E93.537
G1 X52.306 Y109.668 E94.059
G1 X52.473 Y110.302 E94.130
G1 X52.741 Y110.870 E94.197
G1 X53.097 Y111.345 E94.262
G1 X53.524 Y111.703 E94.322
G1 X53.999 Y111.925 E94.378
G1 X54.500 Y112.000 E94.433
G1 X55.001 Y111.925 E94.488
G1 X55.476 Y111.703 E94.544
G1 X55.903 Y111.345 E94.605
G1 X56.259 Y110.870 E94.669
G1 X56.527 Y110.302 E94.736
G1 X56.694 Y109.668 E94.807
G1 X54.556 Y105.332 E95.329
G1 X54.723 Y104.698 E95.400
G1 X54.991 Y104.130 E95.468
G1 X55.347 Y103.655 E95.532
G1 X55.774 Y103.297 E95.592
G1 X56.249 Y103.075 E95.649
G1 X56.750 Y103.000 E95.704
G1 X56.750 Y103.000 E95.704
G1 X57.251 Y103.075 E95.758
G1 X57.726 Y103.297 E95.815
G1 X58.153 Y103.655 E95.875
G1 X58.509 Y104.130 E95.939
G1 X58.777 Y104.698 E96.007
G1 X58.944 Y105.332 E96.078
G1 X56.806 Y109.668 E96.600
G1 X56.973 Y110.302 E96.671
G1 X57.241 Y110.870 E96.739
G1 X57.597 Y111.345 E96.803
G1 X58.024 Y111.703 E96.863
G1 X58.499 Y111.925 E96.920
G1 X59.000 Y112.000 E96.974
G1 X59.501 Y111.925 E97.029
G1 X59.976 Y111.703 E97.086
G1 X60.403 Y111.345 E97.146
G1 X60.759 Y110.870 E97.210
G1 X61.027 Y110.302 E97.278
G1 X61.194 Y109.668 E97.349
G1 X59.056 Y105.332 E97.871
G1 X59.223 Y104.698 E97.942
G1 X59.491 Y104.130 E98.009
G1 X59.847 Y103.655 E98.073
G1 X60.274 Y103.297 E98.134
G1 X60.749 Y103.075 E98.190
G1 X61.250 Y103.000 E98.245
G1 X61.250 Y103.000 E98.245
G1 X61.751 Y103.075 E98.300
G1 X62.226 Y103.297 E98.356
G1 X62.653 Y103.655 E98.416
G1 X63.009 Y104.130 E98.481
G1 X63.277 Y104.698 E98.548
G1 X63.444 Y105.332 E98.619
G1 X61.306 Y109.668 E99.141
G1 X61.473 Y110.302 E99.212
G1 X61.741 Y110.870 E99.280
G1 X62.097 Y111.345 E99.344
G1 X62.524 Y111.703 E99.404
G1 X62.999 Y111.925 E99.461
G1 X63.500 Y112.000 E99.516
G1 X64.001 Y111.925 E99.570
G1 X64.476 Y111.703 E99.627
G1 X64.903 Y111.345 E99.687
G1 X65.259 Y110.870 E99.751
G1 X65.527 Y110.302 E99.819
G1 X65.694 Y109.668 E99.890
G1 X63.556 Y105.332 E100.412
G1 X63.723 Y104.698 E100.483
G1 X63.991 Y104.130 E100.551
G1 X64.347 Y103.655 E100.615
G1 X64.774 Y103.297 E100.675
G1 X65.249 Y103.075 E100.732
G1 X65.750 Y103.000 E100.786
G1 X65.750 Y103.000 E100.786
G1 X66.251 Y103.075 E100.841
G1 X66.726 Y103.297 E100.898
G1 X67.153 Y103.655 E100.958
G1 X67.509 Y104.130 E101.022
G1 X67.777 Y104.698 E101.090
G1 X67.944 Y105.332 E101.161
G1 X65.806 Y109.668 E101.683
G1 X65.973 Y110.302 E101.753
G1 X66.241 Y110.870 E101.821
G1 X66.597 Y111.345 E101.885
G1 X67.024 Y111.703 E101.946
G1 X67.499 Y111.925 E102.002
G1 X68.000 Y112.000 E102.057
G1 X68.501 Y111.925 E102.112
G1 X68.976 Y111.703 E102.168
G1 X69.403 Y111.345 E102.228
G1 X69.759 Y110.870 E102.293
G1 X70.027 Y110.302 E102.360
G1 X70.194 Y109.668 E102.431
G1 X68.056 Y105.332 E102.953
G1 X68.223 Y104.698 E103.024
G1 X68.491 Y104.130 E103.092
G1 X68.847 Y103.655 E103.156
G1 X69.274 Y103.297 E103.216
G1 X69.749 Y103.075 E103.273
G1 X70.250 Y103.000 E103.328
G1 X70.250 Y103.000 E103.328
G1 X70.751 Y103.075 E103.382
G1 X71.226 Y103.297 E103.439
G1 X71.653 Y103.655 E103.499
G1 X72.009 Y104.130 E103.563
G1 X72.277 Y104.698 E103.631
G1 X72.444 Y105.332 E103.702
G1 X70.306 Y109.668 E104.224
G1 X70.473 Y110.302 E104.295
G1 X70.741 Y110.870 E104.363
G1 X71.097 Y111.345 E104.427
G1 X71.524 Y111.703 E104.487
G1 X71.999 Y111.925 E104.543
G1 X72.500 Y112.000 E104.598
G1 X73.001 Y111.925 E104.653
G1 X73.476 Y111.703 E104.710
G1 X73.903 Y111.345 E104.770
G1 X74.259 Y110.870 E104.834
G1 X74.527 Y110.302 E104.902
G1 X74.694 Y109.668 E104.972
G1 X72.556 Y105.332 E105.495
G1 X72.723 Y104.698 E105.565
G1 X72.991 Y104.130 E105.633
G1 X73.347 Y103.655 E105.697
G1 X73.774 Y103.297 E105.758
G1 X74.249 Y103.075 E105.814
G1 X74.750 Y103.000 E105.869
G1 X74.750 Y103.000 E105.869
G1 X75.251 Y103.075 E105.924
G1 X75.726 Y103.297 E105.980
G1 X76.153 Y103.655 E106.040
G1 X76.509 Y104.130 E106.104
G1 X76.777 Y104.698 E106.172
G1 X76.944 Y105.332 E106.243
G1 X74.806 Y109.668 E106.765
G1 X74.973 Y110.302 E106.836
G1 X75.241 Y110.870 E106.904
G1 X75.597 Y111.345 E106.968
G1 X76.024 Y111.703 E107.028
G1 X76.499 Y111.925 E107.085
G1 X77.000 Y112.000 E107.140
G1 X77.501 Y111.925 E107.194
G1 X77.976 Y111.703 E107.251
G1 X78.403 Y111.345 E107.311
G1 X78.759 Y110.870 E107.375
G1 X79.027 Y110.302 E107.443
G1 X79.194 Y109.668 E107.514
G1 X77.056 Y105.332 E108.036
G1 X77.223 Y104.698 E108.107
G1 X77.491 Y104.130 E108.175
G1 X77.847 Y103.655 E108.239
G1 X78.274 Y103.297 E108.299
G1 X78.749 Y103.075 E108.355
G1 X79.250 Y103.000 E108.410
G1 X79.250 Y103.000 E108.410
G1 X79.751 Y103.075 E108.465
G1 X80.226 Y103.297 E108.521
G1 X80.653 Y103.655 E108.582
G1 X81.009 Y104.130 E108.646
G1 X81.277 Y104.698 E108.714
G1 X81.444 Y105.332 E108.784
G1 X79.306 Y109.668 E109.307
G1 X79.473 Y110.302 E109.377
G1 X79.741 Y110.870 E109.445
G1 X80.097 Y111.345 E109.509
G1 X80.524 Y111.703 E109.569
G1 X80.999 Y111.925 E109.626
G1 X81.500 Y112.000 E109.681
G1 X82.001 Y111.925 E109.736
G1 X82.476 Y111.703 E109.792
G1 X82.903 Y111.345 E109.852
G1 X83.259 Y110.870 E109.916
G1 X83.527 Y110.302 E109.984
G1 X83.694 Y109.668 E110.055
G1 X81.556 Y105.332 E110.577
G1 X81.723 Y104.698 E110.648
G1 X81.991 Y104.130 E110.716
G1 X82.347 Y103.655 E110.780
G1 X82.774 Y103.297 E110.840
G1 X83.249 Y103.075 E110.897
G1 X83.750 Y103.000 E110.951
G1 X83.750 Y103.000 E110.951
G1 X84.251 Y103.075 E111.006
G1 X84.726 Y103.297 E111.063
G1 X85.153 Y103.655 E111.123
G1 X85.509 Y104.130 E111.187
G1 X85.777 Y104.698 E111.255
G1 X85.944 Y105.332 E111.326
G1 X83.806 Y109.668 E111.848
G1 X83.973 Y110.302 E111.919
G1 X84.241 Y110.870 E111.986
G1 X84.597 Y111.345 E112.051
G1 X85.024 Y111.703 E112.111
G1 X85.499 Y111.925 E112.167
G1 X86.000 Y112.000 E112.222
G1 X86.501 Y111.925 E112.277
G1 X86.976 Y111.703 E112.333
G1 X87.403 Y111.345 E112.394
G1 X87.759 Y110.870 E112.458
G1 X88.027 Y110.302 E112.526
G1 X88.194 Y109.668 E112.596
G1 X86.056 Y105.332 E113.118
G1 X86.223 Y104.698 E113.189
G1 X86.491 Y104.130 E113.257
G1 X86.847 Y103.655 E113.321
G1 X87.274 Y103.297 E113.381
G1 X87.749 Y103.075 E113.438
G1 X88.250 Y103.000 E113.493
G1 X88.250 Y103.000 E113.493
G1 X88.751 Y103.075 E113.547
G1 X89.226 Y103.297 E113.604
G1 X89.653 Y103.655 E113.664
G1 X90.009 Y104.130 E113.728
G1 X90.277 Y104.698 E113.796
G1 X90.444 Y105.332 E113.867
G1 X88.306 Y109.668 E114.389
G1 X88.473 Y110.302 E114.460
G1 X88.741 Y110.870 E114.528
G1 X89.097 Y111.345 E114.592
G1 X89.524 Y111.703 E114.652
G1 X89.999 Y111.925 E114.709
G1 X90.500 Y112.000 E114.763
G1 X91.001 Y111.925 E114.818
G1 X91.476 Y111.703 E114.875
G1 X91.903 Y111.345 E114.935
G1 X92.259 Y110.870 E114.999
G1 X92.527 Y110.302 E115.067
G1 X92.694 Y109.668 E115.138
G1 X90.556 Y105.332 E115.660
G1 X90.723 Y104.698 E115.731
G1 X90.991 Y104.130 E115.798
G1 X91.347 Y103.655 E115.863
G1 X91.774 Y103.297 E115.923
G1 X92.249 Y103.075 E115.979
G1 X92.750 Y103.000 E116.034
G1 X92.750 Y103.000 E116.034
G1 X93.251 Y103.075 E116.089
G1 X93.726 Y103.297 E116.145
G1 X94.153 Y103.655 E116.206
G1 X94.509 Y104.130 E116.270
G1 X94.777 Y104.698 E116.337
G1 X94.944 Y105.332 E116.408
G1 X92.806 Y109.668 E116.930
G1 X92.973 Y110.302 E117.001
G1 X93.241 Y110.870 E117.069
G1 X93.597 Y111.345 E117.133
G1 X94.024 Y111.703 E117.193
G1 X94.499 Y111.925 E117.250
G1 X95.000 Y112.000 E117.305
G1 X95.501 Y111.925 E117.359
G1 X95.976 Y111.703 E117.416
G1 X96.403 Y111.345 E117.476
G1 X96.759 Y110.870 E117.540
G1 X97.027 Y110.302 E117.608
G1 X97.194 Y109.668 E117.679
G1 X95.056 Y105.332 E118.201
G1 X95.223 Y104.698 E118.272
G1 X95.491 Y104.130 E118.340
G1 X95.847 Y103.655 E118.404
G1 X96.274 Y103.297 E118.464
G1 X96.749 Y103.075 E118.521
G1 X97.250 Y103.000 E118.575
G1 X97.250 Y103.000 E118.575
G1 X97.751 Y103.075 E118.630
G1 X98.226 Y103.297 E118.687
G1 X98.653 Y103.655 E118.747
G1 X99.009 Y104.130 E118.811
G1 X99.277 Y104.698 E118.879
G1 X99.444 Y105.332 E118.950
G1 X97.306 Y109.668 E119.472
G1 X97.473 Y110.302 E119.543
G1 X97.741 Y110.870 E119.610
G1 X98.097 Y111.345 E119.674
G1 X98.524 Y111.703 E119.735
G1 X98.999 Y111.925 E119.791
G1 X99.500 Y112.000 E119.846
G1 X100.001 Y111.925 E119.901
G1 X100.476 Y111.703 E119.957
G1 X100.903 Y111.345 E120.017
G1 X101.259 Y110.870 E120.082
G1 X101.527 Y110.302 E120.149
G1 X101.694 Y109.668 E120.220
G1 X99.556 Y105.332 E120.742
G1 X99.723 Y104.698 E120.813
G1 X99.991 Y104.130 E120.881
G1 X100.347 Y103.655 E120.945
G1 X100.774 Y103.297 E121.005
G1 X101.249 Y103.075 E121.062
G1 X101.750 Y103.000 E121.117
G1 X101.750 Y103.000 E121.117
G1 X102.251 Y103.075 E121.171
G1 X102.726 Y103.297 E121.228
G1 X103.153 Y103.655 E121.288
G1 X103.509 Y104.130 E121.352
G1 X103.777 Y104.698 E121.420
G1 X103.944 Y105.332 E121.491
G1 X101.806 Y109.668 E122.013
G1 X101.973 Y110.302 E122.084
G1 X102.241 Y110.870 E122.152
G1 X102.597 Y111.345 E122.216
G1 X103.024 Y111.703 E122.276
G1 X103.499 Y111.925 E122.333
G1 X104.000 Y112.000 E122.387
G1 X104.501 Y111.925 E122.442
G1 X104.976 Y111.703 E122.499
G1 X105.403 Y111.345 E122.559
G1 X105.759 Y110.870 E122.623
G1 X106.027 Y110.302 E122.691
G1 X106.194 Y109.668 E122.762
G1 X104.056 Y105.332 E123.284
G1 X104.223 Y104.698 E123.354
G1 X104.491 Y104.130 E123.422
G1 X104.847 Y103.655 E123.486
G1 X105.274 Y103.297 E123.547
G1 X105.749 Y103.075 E123.603
G1 X106.250 Y103.000 E123.658
G1 X106.250 Y103.000 E123.658
G1 X106.751 Y103.075 E123.713
G1 X107.226 Y103.297 E123.769
G1 X107.653 Y103.655 E123.829
G1 X108.009 Y104.130 E123.894
G1 X108.277 Y104.698 E123.961
G1 X108.444 Y105.332 E124.032
G1 X106.306 Y109.668 E124.554
G1 X106.473 Y110.302 E124.625
G1 X106.741 Y110.870 E124.693
G1 X107.097 Y111.345 E124.757
G1 X107.524 Y111.703 E124.817
G1 X107.999 Y111.925 E124.874
G1 X108.500 Y112.000 E124.929
G1 X109.001 Y111.925 E124.983
G1 X109.476 Y111.703 E125.040
G1 X109.903 Y111.345 E125.100
G1 X110.259 Y110.870 E125.164
G1 X110.527 Y110.302 E125.232
G1 X110.694 Y109.668 E125.303
G1 X108.556 Y105.332 E125.825
G1 X108.723 Y104.698 E125.896
G1 X108.991 Y104.130 E125.964
G1 X109.347 Y103.655 E126.028
G1 X109.774 Y103.297 E126.088
G1 X110.249 Y103.075 E126.144
G1 X110.750 Y103.000 E126.199
G1 X110.750 Y103.000 E126.199
G1 X111.251 Y103.075 E126.254
G1 X111.726 Y103.297 E126.311
G1 X112.153 Y103.655 E126.371
G1 X112.509 Y104.130 E126.435
G1 X112.777 Y104.698 E126.503
G1 X112.944 Y105.332 E126.573
G1 X110.806 Y109.668 E127.096
G1 X110.973 Y110.302 E127.166
G1 X111.241 Y110.870 E127.234
G1 X111.597 Y111.345 E127.298
G1 X112.024 Y111.703 E127.359
G1 X112.499 Y111.925 E127.415
G1 X113.000 Y112.000 E127.470
G1 X113.501 Y111.925 E127.525
G1 X113.976 Y111.703 E127.581
G1 X114.403 Y111.345 E127.641
G1 X114.759 Y110.870 E127.705
G1 X115.027 Y110.302 E127.773
G1 X115.194 Y109.668 E127.844
G1 X113.056 Y105.332 E128.366
G1 X113.223 Y104.698 E128.437
G1 X113.491 Y104.130 E128.505
G1 X113.847 Y103.655 E128.569
G1 X114.274 Y103.297 E128.629
G1 X114.749 Y103.075 E128.686
G1 X115.250 Y103.000 E128.740
G1 X115.250 Y103.000 E128.740
G1 X115.751 Y103.075 E128.795
G1 X116.226 Y103.297 E128.852
G1 X116.653 Y103.655 E128.912
G1 X117.009 Y104.130 E128.976
G1 X117.277 Y104.698 E129.044
G1 X117.444 Y105.332 E129.115
G1 X115.306 Y109.668 E129.637
G1 X115.473 Y110.302 E129.708
G1 X115.741 Y110.870 E129.776
G1 X116.097 Y111.345 E129.840
G1 X116.524 Y111.703 E129.900
G1 X116.999 Y111.925 E129.956
G1 X117.500 Y112.000 E130.011
G1 X118.001 Y111.925 E130.066
G1 X118.476 Y111.703 E130.122
G1 X118.903 Y111.345 E130.183
G1 X119.259 Y110.870 E130.247
G1 X119.527 Y110.302 E130.315
G1 X119.694 Y109.668 E130.385
G1 X117.556 Y105.332 E130.908
G1 X117.723 Y104.698 E130.978
G1 X117.991 Y104.130 E131.046
G1 X118.347 Y103.655 E131.110
G1 X118.774 Y103.297 E131.170
G1 X119.249 Y103.075 E131.227
G1 X119.750 Y103.000 E131.282
G1 X119.750 Y103.000 E131.282
G1 X120.251 Y103.075 E131.336
G1 X120.726 Y103.297 E131.393
G1 X121.153 Y103.655 E131.453
G1 X121.509 Y104.130 E131.517
G1 X121.777 Y104.698 E131.585
G1 X121.944 Y105.332 E131.656
G1 X119.806 Y109.668 E132.178
G1 X119.973 Y110.302 E132.249
G1 X120.241 Y110.870 E132.317
G1 X120.597 Y111.345 E132.381
G1 X121.024 Y111.703 E132.441
G1 X121.499 Y111.925 E132.498
G1 X122.000 Y112.000 E132.552
G1 X122.501 Y111.925 E132.607
G1 X122.976 Y111.703 E132.664
G1 X123.403 Y111.345 E132.724
G1 X123.759 Y110.870 E132.788
G1 X124.027 Y110.302 E132.856
G1 X124.194 Y109.668 E132.927
G1 X122.056 Y105.332 E133.449
G1 X122.223 Y104.698 E133.520
G1 X122.491 Y104.130 E133.587
G1 X122.847 Y103.655 E133.652
G1 X123.274 Y103.297 E133.712
G1 X123.749 Y103.075 E133.768
G1 X124.250 Y103.000 E133.823
G1 X124.250 Y103.000 E133.823
G1 X124.751 Y103.075 E133.878
G1 X125.226 Y103.297 E133.934
G1 X125.653 Y103.655 E133.995
G1 X126.009 Y104.130 E134.059
G1 X126.277 Y104.698 E134.127
G1 X126.444 Y105.332 E134.197
G1 X124.306 Y109.668 E134.719
G1 X124.473 Y110.302 E134.790
G1 X124.741 Y110.870 E134.858
G1 X125.097 Y111.345 E134.922
G1 X125.524 Y111.703 E134.982
G1 X125.999 Y111.925 E135.039
G1 X126.500 Y112.000 E135.094
G1 X127.001 Y111.925 E135.148
G1 X127.476 Y111.703 E135.205
G1 X127.903 Y111.345 E135.265
G1 X128.259 Y110.870 E135.329
G1 X128.527 Y110.302 E135.397
G1 X128.694 Y109.668 E135.468
G1 X126.556 Y105.332 E135.990
G1 X126.723 Y104.698 E136.061
G1 X126.991 Y104.130 E136.129
G1 X127.347 Y103.655 E136.193
G1 X127.774 Y103.297 E136.253
G1 X128.249 Y103.075 E136.310
G1 X128.750 Y103.000 E136.364
G1 X128.750 Y103.000 E136.364
G1 X129.251 Y103.075 E136.419
G1 X129.726 Y103.297 E136.476
G1 X130.153 Y103.655 E136.536
G1 X130.509 Y104.130 E136.600
G1 X130.777 Y104.698 E136.668
G1 X130.944 Y105.332 E136.739
G1 X128.806 Y109.668 E137.261
G1 X128.973 Y110.302 E137.332
G1 X129.241 Y110.870 E137.399
G1 X129.597 Y111.345 E137.463
G1 X130.024 Y111.703 E137.524
G1 X130.499 Y111.925 E137.580
G1 X131.000 Y112.000 E137.635
G1 X131.501 Y111.925 E137.690
G1 X131.976 Y111.703 E137.746
G1 X132.403 Y111.345 E137.807
G1 X132.759 Y110.870 E137.871
G1 X133.027 Y110.302 E137.938
G1 X133.194 Y109.668 E138.009
G1 X131.056 Y105.332 E138.531
G1 X131.223 Y104.698 E138.602
G1 X131.491 Y104.130 E138.670
G1 X131.847 Y103.655 E138.734
G1 X132.274 Y103.297 E138.794
G1 X132.749 Y103.075 E138.851
G1 X133.250 Y103.000 E138.906
G1 X133.250 Y103.000 E138.906
G1 X133.751 Y103.075 E138.960
G1 X134.226 Y103.297 E139.017
G1 X134.653 Y103.655 E139.077
G1 X135.009 Y104.130 E139.141
G1 X135.277 Y104.698 E139.209
G1 X135.444 Y105.332 E139.280
G1 X133.306 Y109.668 E139.802
G1 X133.473 Y110.302 E139.873
G1 X133.741 Y110.870 E139.941
G1 X134.097 Y111.345 E140.005
G1 X134.524 Y111.703 E140.065
G1 X134.999 Y111.925 E140.122
G1 X135.500 Y112.000 E140.176
G1 X136.001 Y111.925 E140.231
G1 X136.476 Y111.703 E140.288
G1 X136.903 Y111.345 E140.348
G1 X137.259 Y110.870 E140.412
G1 X137.527 Y110.302 E140.480
G1 X137.694 Y109.668 E140.551
G1 X135.556 Y105.332 E141.073
G1 X135.723 Y104.698 E141.144
G1 X135.991 Y104.130 E141.211
G1 X136.347 Y103.655 E141.275
G1 X136.774 Y103.297 E141.336
G1 X137.249 Y103.075 E141.392
G1 X137.750 Y103.000 E141.447
G1 X137.750 Y103.000 E141.447
G1 X138.251 Y103.075 E141.502
G1 X138.726 Y103.297 E141.558
G1 X139.153 Y103.655 E141.618
G1 X139.509 Y104.130 E141.683
G1 X139.777 Y104.698 E141.750
G1 X139.944 Y105.332 E141.821
G1 X137.806 Y109.668 E142.343
G1 X137.973 Y110.302 E142.414
G1 X138.241 Y110.870 E142.482
G1 X138.597 Y111.345 E142.546
G1 X139.024 Y111.703 E142.606
G1 X139.499 Y111.925 E142.663
G1 X140.000 Y112.000 E142.718
G1 X140.501 Y111.925 E142.772
G1 X140.976 Y111.703 E142.829
G1 X141.403 Y111.345 E142.889
G1 X141.759 Y110.870 E142.953
G1 X142.027 Y110.302 E143.021
G1 X142.194 Y109.668 E143.092
G1 X140.056 Y105.332 E143.614
G1 X140.223 Y104.698 E143.685
G1 X140.491 Y104.130 E143.753
G1 X140.847 Y103.655 E143.817
G1 X141.274 Y103.297 E143.877
G1 X141.749 Y103.075 E143.934
G1 X142.250 Y103.000 E143.988
G1 X142.250 Y107.500 E144.474
G1 X141.749 Y107.575 E144.529
G1 X141.274 Y107.797 E144.586
G1 X140.847 Y108.155 E144.646
G1 X140.491 Y108.630 E144.710
G1 X140.223 Y109.198 E144.778
G1 X140.056 Y109.832 E144.849
G1 X142.194 Y114.168 E145.371
G1 X142.027 Y114.802 E145.441
G1 X141.759 Y115.370 E145.509
G1 X141.403 Y115.845 E145.573
G1 X140.976 Y116.203 E145.634
G1 X140.501 Y116.425 E145.690
G1 X140.000 Y116.500 E145.745
G1 X139.499 Y116.425 E145.800
G1 X139.024 Y116.203 E145.856
G1 X138.597 Y115.845 E145.916
G1 X138.241 Y115.370 E145.981
G1 X137.973 Y114.802 E146.048
G1 X137.806 Y114.168 E146.119
G1 X139.944 Y109.832 E146.641
G1 X139.777 Y109.198 E146.712
G1 X139.509 Y108.630 E146.780
G1 X139.153 Y108.155 E146.844
G1 X138.726 Y107.797 E146.904
G1 X138.251 Y107.575 E146.961
G1 X137.750 Y107.500 E147.016
G1 X137.750 Y107.500 E147.016
G1 X137.249 Y107.575 E147.070
G1 X136.774 Y107.797 E147.127
G1 X136.347 Y108.155 E147.187
G1 X135.991 Y108.630 E147.251
G1 X135.723 Y109.198 E147.319
G1 X135.556 Y109.832 E147.390
G1 X137.694 Y114.168 E147.912
G1 X137.527 Y114.802 E147.983
G1 X137.259 Y115.370 E148.051
G1 X136.903 Y115.845 E148.115
G1 X136.476 Y116.203 E148.175
G1 X136.001 Y116.425 E148.231
G1 X135.500 Y116.500 E148.286
G1 X134.999 Y116.425 E148.341
G1 X134.524 Y116.203 E148.398
G1 X134.097 Y115.845 E148.458
G1 X133.741 Y115.370 E148.522
G1 X133.473 Y114.802 E148.590
G1 X133.306 Y114.168 E148.660
G1 X135.444 Y109.832 E149.183
G1 X135.277 Y109.198 E149.253
G1 X135.009 Y108.630 E149.321
G1 X134.653 Y108.155 E149.385
G1 X134.226 Y107.797 E149.445
G1 X133.751 Y107.575 E149.502
G1 X133.250 Y107.500 E149.557
G1 X133.250 Y107.500 E149.557
G1 X132.749 Y107.575 E149.612
G1 X132.274 Y107.797 E149.668
G1 X131.847 Y108.155 E149.728
G1 X131.491 Y108.630 E149.792
G1 X131.223 Y109.198 E149.860
G1 X131.056 Y109.832 E149.931
G1 X133.194 Y114.168 E150.453
G1 X133.027 Y114.802 E150.524
G1 X132.759 Y115.370 E150.592
G1 X132.403 Y115.845 E150.656
G1 X131.976 Y116.203 E150.716
G1 X131.501 Y116.425 E150.773
G1 X131.000 Y116.500 E150.827
G1 X130.499 Y116.425 E150.882
G1 X130.024 Y116.203 E150.939
G1 X129.597 Y115.845 E150.999
G1 X129.241 Y115.370 E151.063
G1 X128.973 Y114.802 E151.131
G1 X128.806 Y114.168 E151.202
G1 X130.944 Y109.832 E151.724
G1 X130.777 Y109.198 E151.795
G1 X130.509 Y108.630 E151.863
G1 X130.153 Y108.155 E151.927
G1 X129.726 Y107.797 E151.987
G1 X129.251 Y107.575 E152.043
G1 X128.750 Y107.500 E152.098
G1 X128.750 Y107.500 E152.098
G1 X128.249 Y107.575 E152.153
G1 X127.774 Y107.797 E152.209
G1 X127.347 Y108.155 E152.270
G1 X126.991 Y108.630 E152.334
G1 X126.723 Y109.198 E152.402
G1 X126.556 Y109.832 E152.472
G1 X128.694 Y114.168 E152.995
G1 X128.527 Y114.802 E153.065
G1 X128.259 Y115.370 E153.133
G1 X127.903 Y115.845 E153.197
G1 X127.476 Y116.203 E153.257
G1 X127.001 Y116.425 E153.314
G1 X126.500 Y116.500 E153.369
G1 X125.999 Y116.425 E153.423
G1 X125.524 Y116.203 E153.480
G1 X125.097 Y115.845 E153.540
G1 X124.741 Y115.370 E153.604
G1 X124.473 Y114.802 E153.672
G1 X124.306 Y114.168 E153.743
G1 X126.444 Y109.832 E154.265
G1 X126.277 Y109.198 E154.336
G1 X126.009 Y108.630 E154.404
G1 X125.653 Y108.155 E154.468
G1 X125.226 Y107.797 E154.528
G1 X124.751 Y107.575 E154.585
G1 X124.250 Y107.500 E154.639
G1 X124.250 Y107.500 E154.639
G1 X123.749 Y107.575 E154.694
G1 X123.274 Y107.797 E154.751
G1 X122.847 Y108.155 E154.811
G1 X122.491 Y108.630 E154.875
G1 X122.223 Y109.198 E154.943
G1 X122.056 Y109.832 E155.014
G1 X124.194 Y114.168 E155.536
G1 X124.027 Y114.802 E155.607
G1 X123.759 Y115.370 E155.674
G1 X123.403 Y115.845 E155.739
G1 X122.976 Y116.203 E155.799
G1 X122.501 Y116.425 E155.855
G1 X122.000 Y116.500 E155.910
G1 X121.499 Y116.425 E155.965
G1 X121.024 Y116.203 E156.021
G1 X120.597 Y115.845 E156.082
G1 X120.241 Y115.370 E156.146
G1 X119.973 Y114.802 E156.214
G1 X119.806 Y114.168 E156.284
G1 X121.944 Y109.832 E156.806
G1 X121.777 Y109.198 E156.877
G1 X121.509 Y108.630 E156.945
G1 X121.153 Y108.155 E157.009
G1 X120.726 Y107.797 E157.069
G1 X120.251 Y107.575 E157.126
G1 X119.750 Y107.500 E157.181
G1 X119.750 Y107.500 E157.181
G1 X119.249 Y107.575 E157.235
G1 X118.774 Y107.797 E157.292
G1 X118.347 Y108.155 E157.352
G1 X117.991 Y108.630 E157.416
G1 X117.723 Y109.198 E157.484
G1 X117.556 Y109.832 E157.555
G1 X119.694 Y114.168 E158.077
G1 X119.527 Y114.802 E158.148
G1 X119.259 Y115.370 E158.216
G1 X118.903 Y115.845 E158.280
G1 X118.476 Y116.203 E158.340
G1 X118.001 Y116.425 E158.397
G1 X117.500 Y116.500 E158.451
G1 X116.999 Y116.425 E158.506
G1 X116.524 Y116.203 E158.563
G1 X116.097 Y115.845 E158.623
G1 X115.741 Y115.370 E158.687
G1 X115.473 Y114.802 E158.755
G1 X115.306 Y114.168 E158.826
G1 X117.444 Y109.832 E159.348
G1 X117.277 Y109.198 E159.419
G1 X117.009 Y108.630 E159.486
G1 X116.653 Y108.155 E159.550
G1 X116.226 Y107.797 E159.611
G1 X115.751 Y107.575 E159.667
G1 X115.250 Y107.500 E159.722
G1 X115.250 Y107.500 E159.722
G1 X114.749 Y107.575 E159.777
G1 X114.274 Y107.797 E159.833
G1 X113.847 Y108.155 E159.894
G1 X113.491 Y108.630 E159.958
G1 X113.223 Y109.198 E160.025
G1 X113.056 Y109.832 E160.096
G1 X115.194 Y114.168 E160.618
G1 X115.027 Y114.802 E160.689
G1 X114.759 Y115.370 E160.757
G1 X114.403 Y115.845 E160.821
G1 X113.976 Y116.203 E160.881
G1 X113.501 Y116.425 E160.938
G1 X113.000 Y116.500 E160.993
G1 X112.499 Y116.425 E161.047
G1 X112.024 Y116.203 E161.104
G1 X111.597 Y115.845 E161.164
G1 X111.241 Y115.370 E161.228
G1 X110.973 Y114.802 E161.296
G1 X110.806 Y114.168 E161.367
G1 X112.944 Y109.832 E161.889
G1 X112.777 Y109.198 E161.960
G1 X112.509 Y108.630 E162.028
G1 X112.153 Y108.155 E162.092
G1 X111.726 Y107.797 E162.152
G1 X111.251 Y107.575 E162.209
G1 X110.750 Y107.500 E162.263
G1 X110.750 Y107.500 E162.263
G1 X110.249 Y107.575 E162.318
G1 X109.774 Y107.797 E162.375
G1 X109.347 Y108.155 E162.435
G1 X108.991 Y108.630 E162.499
G1 X108.723 Y109.198 E162.567
G1 X108.556 Y109.832 E162.638
G1 X110.694 Y114.168 E163.160
G1 X110.527 Y114.802 E163.230
G1 X110.259 Y115.370 E163.298
G1 X109.903 Y115.845 E163.362
G1 X109.476 Y116.203 E163.423
G1 X109.001 Y116.425 E163.479
G1 X108.500 Y116.500 E163.534
G1 X107.999 Y116.425 E163.589
G1 X107.524 Y116.203 E163.645
G1 X107.097 Y115.845 E163.705
G1 X106.741 Y115.370 E163.770
G1 X106.473 Y114.802 E163.837
G1 X106.306 Y114.168 E163.908
G1 X108.444 Y109.832 E164.430
G1 X108.277 Y109.198 E164.501
G1 X108.009 Y108.630 E164.569
G1 X107.653 Y108.155 E164.633
G1 X107.226 Y107.797 E164.693
G1 X106.751 Y107.575 E164.750
G1 X106.250 Y107.500 E164.805
G1 X106.250 Y107.500 E164.805
G1 X105.749 Y107.575 E164.859
G1 X105.274 Y107.797 E164.916
G1 X104.847 Y108.155 E164.976
G1 X104.491 Y108.630 E165.040
G1 X104.223 Y109.198 E165.108
G1 X104.056 Y109.832 E165.179
G1 X106.194 Y114.168 E165.701
G1 X106.027 Y114.802 E165.772
G1 X105.759 Y115.370 E165.840
G1 X105.403 Y115.845 E165.904
G1 X104.976 Y116.203 E165.964
G1 X104.501 Y116.425 E166.021
G1 X104.000 Y116.500 E166.075
G1 X103.499 Y116.425 E166.130
G1 X103.024 Y116.203 E166.187
G1 X102.597 Y115.845 E166.247
G1 X102.241 Y115.370 E166.311
G1 X101.973 Y114.802 E166.379
G1 X101.806 Y114.168 E166.450
G1 X103.944 Y109.832 E166.972
G1 X103.777 Y109.198 E167.042
G1 X103.509 Y108.630 E167.110
G1 X103.153 Y108.155 E167.174
G1 X102.726 Y107.797 E167.235
G1 X102.251 Y107.575 E167.291
G1 X101.750 Y107.500 E167.346
G1 X101.750 Y107.500 E167.346
G1 X101.249 Y107.575 E167.401
G1 X100.774 Y107.797 E167.457
G1 X100.347 Y108.155 E167.517
G1 X99.991 Y108.630 E167.582
G1 X99.723 Y109.198 E167.649
G1 X99.556 Y109.832 E167.720
G1 X101.694 Y114.168 E168.242
G1 X101.527 Y114.802 E168.313
G1 X101.259 Y115.370 E168.381
G1 X100.903 Y115.845 E168.445
G1 X100.476 Y116.203 E168.505
G1 X100.001 Y116.425 E168.562
G1 X99.500 Y116.500 E168.617
G1 X98.999 Y116.425 E168.671
G1 X98.524 Y116.203 E168.728
G1 X98.097 Y115.845 E168.788
G1 X97.741 Y115.370 E168.852
G1 X97.473 Y114.802 E168.920
G1 X97.306 Y114.168 E168.991
G1 X99.444 Y109.832 E169.513
G1 X99.277 Y109.198 E169.584
G1 X99.009 Y108.630 E169.652
G1 X98.653 Y108.155 E169.716
G1 X98.226 Y107.797 E169.776
G1 X97.751 Y107.575 E169.832
G1 X97.250 Y107.500 E169.887
G1 X97.250 Y107.500 E169.887
G1 X96.749 Y107.575 E169.942
G1 X96.274 Y107.797 E169.999
G1 X95.847 Y108.155 E170.059
G1 X95.491 Y108.630 E170.123
G1 X95.223 Y109.198 E170.191
G1 X95.056 Y109.832 E170.261
G1 X97.194 Y114.168 E170.784
G1 X97.027 Y114.802 E170.854
G1 X96.759 Y115.370 E170.922
G1 X96.403 Y115.845 E170.986
G1 X95.976 Y116.203 E171.046
G1 X95.501 Y116.425 E171.103
G1 X95.000 Y116.500 E171.158
G1 X94.499 Y116.425 E171.213
G1 X94.024 Y116.203 E171.269
G1 X93.597 Y115.845 E171.329
G1 X93.241 Y115.370 E171.393
G1 X92.973 Y114.802 E171.461
G1 X92.806 Y114.168 E171.532
G1 X94.944 Y109.832 E172.054
G1 X94.777 Y109.198 E172.125
G1 X94.509 Y108.630 E172.193
G1 X94.153 Y108.155 E172.257
G1 X93.726 Y107.797 E172.317
G1 X93.251 Y107.575 E172.374
G1 X92.750 Y107.500 E172.428
G1 X92.750 Y107.500 E172.428
G1 X92.249 Y107.575 E172.483
G1 X91.774 Y107.797 E172.540
G1 X91.347 Y108.155 E172.600
G1 X90.991 Y108.630 E172.664
G1 X90.723 Y109.198 E172.732
G1 X90.556 Y109.832 E172.803
G1 X92.694 Y114.168 E173.325
G1 X92.527 Y114.802 E173.396
G1 X92.259 Y115.370 E173.463
G1 X91.903 Y115.845 E173.528
G1 X91.476 Y116.203 E173.588
G1 X91.001 Y116.425 E173.644
G1 X90.500 Y116.500 E173.699
G1 X89.999 Y116.425 E173.754
G1 X89.524 Y116.203 E173.810
G1 X89.097 Y115.845 E173.871
G1 X88.741 Y115.370 E173.935
G1 X88.473 Y114.802 E174.003
G1 X88.306 Y114.168 E174.073
G1 X90.444 Y109.832 E174.596
G1 X90.277 Y109.198 E174.666
G1 X90.009 Y108.630 E174.734
G1 X89.653 Y108.155 E174.798
G1 X89.226 Y107.797 E174.858
G1 X88.751 Y107.575 E174.915
G1 X88.250 Y107.500 E174.970
G1 X88.250 Y107.500 E174.970
G1 X87.749 Y107.575 E175.024
G1 X87.274 Y107.797 E175.081
G1 X86.847 Y108.155 E175.141
G1 X86.491 Y108.630 E175.205
G1 X86.223 Y109.198 E175.273
G1 X86.056 Y109.832 E175.344
G1 X88.194 Y114.168 E175.866
G1 X88.027 Y114.802 E175.937
G1 X87.759 Y115.370 E176.005
G1 X87.403 Y115.845 E176.069
G1 X86.976 Y116.203 E176.129
G1 X86.501 Y116.425 E176.186
G1 X86.000 Y116.500 E176.240
G1 X85.499 Y116.425 E176.295
G1 X85.024 Y116.203 E176.352
G1 X84.597 Y115.845 E176.412
G1 X84.241 Y115.370 E176.476
G1 X83.973 Y114.802 E176.544
G1 X83.806 Y114.168 E176.615
G1 X85.944 Y109.832 E177.137
G1 X85.777 Y109.198 E177.208
G1 X85.509 Y108.630 E177.275
G1 X85.153 Y108.155 E177.340
G1 X84.726 Y107.797 E177.400
G1 X84.251 Y107.575 E177.456
G1 X83.750 Y107.500 E177.511
G1 X83.750 Y107.500 E177.511
G1 X83.249 Y107.575 E177.566
G1 X82.774 Y107.797 E177.622
G1 X82.347 Y108.155 E177.683
G1 X81.991 Y108.630 E177.747
G1 X81.723 Y109.198 E177.815
G1 X81.556 Y109.832 E177.885
G1 X83.694 Y114.168 E178.407
G1 X83.527 Y114.802 E178.478
G1 X83.259 Y115.370 E178.546
G1 X82.903 Y115.845 E178.610
G1 X82.476 Y116.203 E178.670
G1 X82.001 Y116.425 E178.727
G1 X81.500 Y116.500 E178.782
G1 X80.999 Y116.425 E178.836
G1 X80.524 Y116.203 E178.893
G1 X80.097 Y115.845 E178.953
G1 X79.741 Y115.370 E179.017
G1 X79.473 Y114.802 E179.085
G1 X79.306 Y114.168 E179.156
G1 X81.444 Y109.832 E179.678
G1 X81.277 Y109.198 E179.749
G1 X81.009 Y108.630 E179.817
G1 X80.653 Y108.155 E179.881
G1 X80.226 Y107.797 E179.941
G1 X79.751 Y107.575 E179.998
G1 X79.250 Y107.500 E180.052
G1 X79.250 Y107.500 E180.052
G1 X78.749 Y107.575 E180.107
G1 X78.274 Y107.797 E180.164
G1 X77.847 Y108.155 E180.224
G1 X77.491 Y108.630 E180.288
G1 X77.223 Y109.198 E180.356
G1 X77.056 Y109.832 E180.427
G1 X79.194 Y114.168 E180.949
G1 X79.027 Y114.802 E181.020
G1 X78.759 Y115.370 E181.087
G1 X78.403 Y115.845 E181.151
G1 X77.976 Y116.203 E181.212
G1 X77.501 Y116.425 E181.268
G1 X77.000 Y116.500 E181.323
G1 X76.499 Y116.425 E181.378
G1 X76.024 Y116.203 E181.434
G1 X75.597 Y115.845 E181.495
G1 X75.241 Y115.370 E181.559
G1 X74.973 Y114.802 E181.626
G1 X74.806 Y114.168 E181.697
G1 X76.944 Y109.832 E182.219
G1 X76.777 Y109.198 E182.290
G1 X76.509 Y108.630 E182.358
G1 X76.153 Y108.155 E182.422
G1 X75.726 Y107.797 E182.482
G1 X75.251 Y107.575 E182.539
G1 X74.750 Y107.500 E182.594
G1 X74.750 Y107.500 E182.594
G1 X74.249 Y107.575 E182.648
G1 X73.774 Y107.797 E182.705
G1 X73.347 Y108.155 E182.765
G1 X72.991 Y108.630 E182.829
G1 X72.723 Y109.198 E182.897
G1 X72.556 Y109.832 E182.968
G1 X74.694 Y114.168 E183.490
G1 X74.527 Y114.802 E183.561
G1 X74.259 Y115.370 E183.629
G1 X73.903 Y115.845 E183.693
G1 X73.476 Y116.203 E183.753
G1 X73.001 Y116.425 E183.810
G1 X72.500 Y116.500 E183.864
G1 X71.999 Y116.425 E183.919
G1 X71.524 Y116.203 E183.976
G1 X71.097 Y115.845 E184.036
G1 X70.741 Y115.370 E184.100
G1 X70.473 Y114.802 E184.168
G1 X70.306 Y114.168 E184.239
G1 X72.444 Y109.832 E184.761
G1 X72.277 Y109.198 E184.831
G1 X72.009 Y108.630 E184.899
G1 X71.653 Y108.155 E184.963
G1 X71.226 Y107.797 E185.024
G1 X70.751 Y107.575 E185.080
G1 X70.250 Y107.500 E185.135
G1 X70.250 Y107.500 E185.135
G1 X69.749 Y107.575 E185.190
G1 X69.274 Y107.797 E185.246
G1 X68.847 Y108.155 E185.306
G1 X68.491 Y108.630 E185.371
G1 X68.223 Y109.198 E185.438
G1 X68.056 Y109.832 E185.509
G1 X70.194 Y114.168 E186.031
G1 X70.027 Y114.802 E186.102
G1 X69.759 Y115.370 E186.170
G1 X69.403 Y115.845 E186.234
G1 X68.976 Y116.203 E186.294
G1 X68.501 Y116.425 E186.351
G1 X68.000 Y116.500 E186.406
G1 X67.499 Y116.425 E186.460
G1 X67.024 Y116.203 E186.517
G1 X66.597 Y115.845 E186.577
G1 X66.241 Y115.370 E186.641
G1 X65.973 Y114.802 E186.709
G1 X65.806 Y114.168 E186.780
G1 X67.944 Y109.832 E187.302
G1 X67.777 Y109.198 E187.373
G1 X67.509 Y108.630 E187.441
G1 X67.153 Y108.155 E187.505
G1 X66.726 Y107.797 E187.565
G1 X66.251 Y107.575 E187.622
G1 X65.750 Y107.500 E187.676
G1 X65.750 Y107.500 E187.676
G1 X65.249 Y107.575 E187.731
G1 X64.774 Y107.797 E187.788
G1 X64.347 Y108.155 E187.848
G1 X63.991 Y108.630 E187.912
G1 X63.723 Y109.198 E187.980
G1 X63.556 Y109.832 E188.050
G1 X65.694 Y114.168 E188.573
G1 X65.527 Y114.802 E188.643
G1 X65.259 Y115.370 E188.711
G1 X64.903 Y115.845 E188.775
G1 X64.476 Y116.203 E188.836
G1 X64.001 Y116.425 E188.892
G1 X63.500 Y116.500 E188.947
G1 X62.999 Y116.425 E189.002
G1 X62.524 Y116.203 E189.058
G1 X62.097 Y115.845 E189.118
G1 X61.741 Y115.370 E189.183
G1 X61.473 Y114.802 E189.250
G1 X61.306 Y114.168 E189.321
G1 X63.444 Y109.832 E189.843
G1 X63.277 Y109.198 E189.914
G1 X63.009 Y108.630 E189.982
G1 X62.653 Y108.155 E190.046
G1 X62.226 Y107.797 E190.106
G1 X61.751 Y107.575 E190.163
G1 X61.250 Y107.500 E190.218
G1 X61.250 Y107.500 E190.218
G1 X60.749 Y107.575 E190.272
G1 X60.274 Y107.797 E190.329
G1 X59.847 Y108.155 E190.389
G1 X59.491 Y108.630 E190.453
G1 X59.223 Y109.198 E190.521
G1 X59.056 Y109.832 E190.592
G1 X61.194 Y114.168 E191.114
G1 X61.027 Y114.802 E191.185
G1 X60.759 Y115.370 E191.253
G1 X60.403 Y115.845 E191.317
G1 X59.976 Y116.203 E191.377
G1 X59.501 Y116.425 E191.433
G1 X59.000 Y116.500 E191.488
G1 X58.499 Y116.425 E191.543
G1 X58.024 Y116.203 E191.600
G1 X57.597 Y115.845 E191.660
G1 X57.241 Y115.370 E191.724
G1 X56.973 Y114.802 E191.792
G1 X56.806 Y114.168 E191.862
G1 X58.944 Y109.832 E192.385
G1 X58.777 Y109.198 E192.455
G1 X58.509 Y108.630 E192.523
G1 X58.153 Y108.155 E192.587
G1 X57.726 Y107.797 E192.647
G1 X57.251 Y107.575 E192.704
G1 X56.750 Y107.500 E192.759
G1 X56.750 Y107.500 E192.759
G1 X56.249 Y107.575 E192.814
G1 X55.774 Y107.797 E192.870
G1 X55.347 Y108.155 E192.930
G1 X54.991 Y108.630 E192.994
G1 X54.723 Y109.198 E193.062
G1 X54.556 Y109.832 E193.133
G1 X56.694 Y114.168 E193.655
G1 X56.527 Y114.802 E193.726
G1 X56.259 Y115.370 E193.794
G1 X55.903 Y115.845 E193.858
G1 X55.476 Y116.203 E193.918
G1 X55.001 Y116.425 E193.975
G1 X54.500 Y116.500 E194.029
G1 X53.999 Y116.425 E194.084
G1 X53.524 Y116.203 E194.141
G1 X53.097 Y115.845 E194.201
G1 X52.741 Y115.370 E194.265
G1 X52.473 Y114.802 E194.333
G1 X52.306 Y114.168 E194.404
G1 X54.444 Y109.832 E194.926
G1 X54.277 Y109.198 E194.997
G1 X54.009 Y108.630 E195.064
G1 X53.653 Y108.155 E195.129
G1 X53.226 Y107.797 E195.189
G1 X52.751 Y107.575 E195.245
G1 X52.250 Y107.500 E195.300
G1 X52.250 Y116.500 E196.272
G1 X54.500 Y115.000 E196.564
G1 X54.444 Y114.332 E196.637
G1 X54.277 Y113.698 E196.707
G1 X54.009 Y113.130 E196.775
G1 X53.653 Y112.655 E196.839
G1 X53.226 Y112.297 E196.899
G1 X52.751 Y112.075 E196.956
G1 X52.250 Y112.000 E197.011
G1 X51.750 Y115.000 E197.339
G1 X51.750 Y115.000 E197.339
G1 X51.750 Y115.668 E197.411
G1 X51.750 Y115.668 E197.411
G1 X51.750 Y116.302 E197.480
G1 X51.750 Y116.302 E197.480
G1 X51.750 Y116.870 E197.541
G1 X51.750 Y116.870 E197.541
G1 X51.750 Y117.345 E197.593
G1 X51.750 Y117.345 E197.593
G1 X52.548 Y117.703 E197.687
G1 X53.499 Y117.925 E197.792
G1 X54.500 Y118.000 E197.901
G1 X55.501 Y117.925 E198.009
G1 X56.452 Y117.703 E198.115
G1 X57.306 Y117.345 E198.215
G1 X58.018 Y116.870 E198.307
G1 X58.554 Y116.302 E198.392
G1 X58.887 Y115.668 E198.469
G1 X59.000 Y115.000 E198.542
G1 X58.944 Y114.332 E198.614
G1 X58.777 Y113.698 E198.685
G1 X58.509 Y113.130 E198.753
G1 X58.153 Y112.655 E198.817
G1 X57.726 Y112.297 E198.877
G1 X57.251 Y112.075 E198.934
G1 X56.750 Y112.000 E198.989
G1 X56.249 Y112.075 E199.043
G1 X55.774 Y112.297 E199.100
G1 X55.347 Y112.655 E199.160
G1 X54.991 Y113.130 E199.224
G1 X54.723 Y113.698 E199.292
G1 X54.556 Y114.332 E199.363
G1 X54.500 Y115.000 E199.435
G1 X54.613 Y115.668 E199.509
G1 X54.946 Y116.302 E199.586
G1 X55.482 Y116.870 E199.670
G1 X56.194 Y117.345 E199.763
G1 X57.048 Y117.703 E199.863
G1 X57.999 Y117.925 E199.968
G1 X59.000 Y118.000 E200.077
G1 X60.001 Y117.925 E200.185
G1 X60.952 Y117.703 E200.290
G1 X61.806 Y117.345 E200.390
G1 X62.518 Y116.870 E200.483
G1 X63.054 Y116.302 E200.567
G1 X63.387 Y115.668 E200.645
G1 X63.500 Y115.000 E200.718
G1 X63.444 Y114.332 E200.790
G1 X63.277 Y113.698 E200.861
G1 X63.009 Y113.130 E200.929
G1 X62.653 Y112.655 E200.993
G1 X62.226 Y112.297 E201.053
G1 X61.751 Y112.075 E201.110
G1 X61.250 Y112.000 E201.164
G1 X60.749 Y112.075 E201.219
G1 X60.274 Y112.297 E201.276
G1 X59.847 Y112.655 E201.336
G1 X59.491 Y113.130 E201.400
G1 X59.223 Y113.698 E201.468
G1 X59.056 Y114.332 E201.539
G1 X59.000 Y115.000 E201.611
G1 X59.113 Y115.668 E201.684
G1 X59.446 Y116.302 E201.762
G1 X59.982 Y116.870 E201.846
G1 X60.694 Y117.345 E201.938
G1 X61.548 Y117.703 E202.038
G1 X62.499 Y117.925 E202.144
G1 X63.500 Y118.000 E202.252
G1 X64.501 Y117.925 E202.361
G1 X65.452 Y117.703 E202.466
G1 X66.306 Y117.345 E202.566
G1 X67.018 Y116.870 E202.659
G1 X67.554 Y116.302 E202.743
G1 X67.887 Y115.668 E202.820
G1 X68.000 Y115.000 E202.893
G1 X67.944 Y114.332 E202.966
G1 X67.777 Y113.698 E203.037
G1 X67.509 Y113.130 E203.104
G1 X67.153 Y112.655 E203.169
G1 X66.726 Y112.297 E203.229
G1 X66.251 Y112.075 E203.285
G1 X65.750 Y112.000 E203.340
G1 X65.249 Y112.075 E203.395
G1 X64.774 Y112.297 E203.451
G1 X64.347 Y112.655 E203.512
G1 X63.991 Y113.130 E203.576
G1 X63.723 Y113.698 E203.644
G1 X63.556 Y114.332 E203.714
G1 X63.500 Y115.000 E203.787
G1 X63.613 Y115.668 E203.860
G1 X63.946 Y116.302 E203.937
G1 X64.482 Y116.870 E204.022
G1 X65.194 Y117.345 E204.114
G1 X66.048 Y117.703 E204.214
G1 X66.999 Y117.925 E204.320
G1 X68.000 Y118.000 E204.428
G1 X69.001 Y117.925 E204.536
G1 X69.952 Y117.703 E204.642
G1 X70.806 Y117.345 E204.742
G1 X71.518 Y116.870 E204.834
G1 X72.054 Y116.302 E204.919
G1 X72.387 Y115.668 E204.996
G1 X72.500 Y115.000 E205.069
G1 X72.444 Y114.332 E205.142
G1 X72.277 Y113.698 E205.212
G1 X72.009 Y113.130 E205.280
G1 X71.653 Y112.655 E205.344
G1 X71.226 Y112.297 E205.404
G1 X70.751 Y112.075 E205.461
G1 X70.250 Y112.000 E205.516
G1 X69.749 Y112.075 E205.570
G1 X69.274 Y112.297 E205.627
G1 X68.847 Y112.655 E205.687
G1 X68.491 Y113.130 E205.751
G1 X68.223 Y113.698 E205.819
G1 X68.056 Y114.332 E205.890
G1 X68.000 Y115.000 E205.962
G1 X68.113 Y115.668 E206.036
G1 X68.446 Y116.302 E206.113
G1 X68.982 Y116.870 E206.197
G1 X69.694 Y117.345 E206.290
G1 X70.548 Y117.703 E206.390
G1 X71.499 Y117.925 E206.495
G1 X72.500 Y118.000 E206.604
G1 X73.501 Y117.925 E206.712
G1 X74.452 Y117.703 E206.818
G1 X75.306 Y117.345 E206.918
G1 X76.018 Y116.870 E207.010
G1 X76.554 Y116.302 E207.094
G1 X76.887 Y115.668 E207.172
G1 X77.000 Y115.000 E207.245
G1 X76.944 Y114.332 E207.317
G1 X76.777 Y113.698 E207.388
G1 X76.509 Y113.130 E207.456
G1 X76.153 Y112.655 E207.520
G1 X75.726 Y112.297 E207.580
G1 X75.251 Y112.075 E207.637
G1 X74.750 Y112.000 E207.691
G1 X74.249 Y112.075 E207.746
G1 X73.774 Y112.297 E207.803
G1 X73.347 Y112.655 E207.863
G1 X72.991 Y113.130 E207.927
G1 X72.723 Y113.698 E207.995
G1 X72.556 Y114.332 E208.066
G1 X72.500 Y115.000 E208.138
G1 X72.613 Y115.668 E208.211
G1 X72.946 Y116.302 E208.289
G1 X73.482 Y116.870 E208.373
G1 X74.194 Y117.345 E208.465
G1 X75.048 Y117.703 E208.565
G1 X75.999 Y117.925 E208.671
G1 X77.000 Y118.000 E208.779
G1 X78.001 Y117.925 E208.888
G1 X78.952 Y117.703 E208.993
G1 X79.806 Y117.345 E209.093
G1 X80.518 Y116.870 E209.186
G1 X81.054 Y116.302 E209.270
G1 X81.387 Y115.668 E209.347
G1 X81.500 Y115.000 E209.420
G1 X81.444 Y114.332 E209.493
G1 X81.277 Y113.698 E209.564
G1 X81.009 Y113.130 E209.632
G1 X80.653 Y112.655 E209.696
G1 X80.226 Y112.297 E209.756
G1 X79.751 Y112.075 E209.812
G1 X79.250 Y112.000 E209.867
G1 X78.749 Y112.075 E209.922
G1 X78.274 Y112.297 E209.978
G1 X77.847 Y112.655 E210.039
G1 X77.491 Y113.130 E210.103
G1 X77.223 Y113.698 E210.171
G1 X77.056 Y114.332 E210.241
G1 X77.000 Y115.000 E210.314
G1 X77.113 Y115.668 E210.387
G1 X77.446 Y116.302 E210.464
G1 X77.982 Y116.870 E210.549
G1 X78.694 Y117.345 E210.641
G1 X79.548 Y117.703 E210.741
G1 X80.499 Y117.925 E210.847
G1 X81.500 Y118.000 E210.955
G1 X82.501 Y117.925 E211.063
G1 X83.452 Y117.703 E211.169
G1 X84.306 Y117.345 E211.269
G1 X85.018 Y116.870 E211.361
G1 X85.554 Y116.302 E211.446
G1 X85.887 Y115.668 E211.523
G1 X86.000 Y115.000 E211.596
G1 X85.944 Y114.332 E211.669
G1 X85.777 Y113.698 E211.739
G1 X85.509 Y113.130 E211.807
G1 X85.153 Y112.655 E211.871
G1 X84.726 Y112.297 E211.931
G1 X84.251 Y112.075 E211.988
G1 X83.750 Y112.000 E212.043
G1 X83.249 Y112.075 E212.098
G1 X82.774 Y112.297 E212.154
G1 X82.347 Y112.655 E212.214
G1 X81.991 Y113.130 E212.278
G1 X81.723 Y113.698 E212.346
G1 X81.556 Y114.332 E212.417
G1 X81.500 Y115.000 E212.489
G1 X81.613 Y115.668 E212.563
G1 X81.946 Y116.302 E212.640
G1 X82.482 Y116.870 E212.724
G1 X83.194 Y117.345 E212.817
G1 X84.048 Y117.703 E212.917
G1 X84.999 Y117.925 E213.022
G1 X86.000 Y118.000 E213.131
G1 X87.001 Y117.925 E213.239
G1 X87.952 Y117.703 E213.345
G1 X88.806 Y117.345 E213.445
G1 X89.518 Y116.870 E213.537
G1 X90.054 Y116.302 E213.621
G1 X90.387 Y115.668 E213.699
G1 X90.500 Y115.000 E213.772
G1 X90.444 Y114.332 E213.844
G1 X90.277 Y113.698 E213.915
G1 X90.009 Y113.130 E213.983
G1 X89.653 Y112.655 E214.047
G1 X89.226 Y112.297 E214.107
G1 X88.751 Y112.075 E214.164
G1 X88.250 Y112.000 E214.219
G1 X87.749 Y112.075 E214.273
G1 X87.274 Y112.297 E214.330
G1 X86.847 Y112.655 E214.390
G1 X86.491 Y113.130 E214.454
G1 X86.223 Y113.698 E214.522
G1 X86.056 Y114.332 E214.593
G1 X86.000 Y115.000 E214.665
G1 X86.113 Y115.668 E214.738
G1 X86.446 Y116.302 E214.816
G1 X86.982 Y116.870 E214.900
G1 X87.694 Y117.345 E214.992
G1 X88.548 Y117.703 E215.092
G1 X89.499 Y117.925 E215.198
G1 X90.500 Y118.000 E215.306
G1 X91.501 Y117.925 E215.415
G1 X92.452 Y117.703 E215.520
G1 X93.306 Y117.345 E215.620
G1 X94.018 Y116.870 E215.713
G1 X94.554 Y116.302 E215.797
G1 X94.887 Y115.668 E215.874
G1 X95.000 Y115.000 E215.948
G1 X94.944 Y114.332 E216.020
G1 X94.777 Y113.698 E216.091
G1 X94.509 Y113.130 E216.159
G1 X94.153 Y112.655 E216.223
G1 X93.726 Y112.297 E216.283
G1 X93.251 Y112.075 E216.339
G1 X92.750 Y112.000 E216.394
G1 X92.249 Y112.075 E216.449
G1 X91.774 Y112.297 E216.506
G1 X91.347 Y112.655 E216.566
G1 X90.991 Y113.130 E216.630
G1 X90.723 Y113.698 E216.698
G1 X90.556 Y114.332 E216.768
G1 X90.500 Y115.000 E216.841
G1 X90.613 Y115.668 E216.914
G1 X90.946 Y116.302 E216.991
G1 X91.482 Y116.870 E217.076
G1 X92.194 Y117.345 E217.168
G1 X93.048 Y117.703 E217.268
G1 X93.999 Y117.925 E217.374
G1 X95.000 Y118.000 E217.482
G1 X96.001 Y117.925 E217.590
G1 X96.952 Y117.703 E217.696
G1 X97.806 Y117.345 E217.796
G1 X98.518 Y116.870 E217.888
G1 X99.054 Y116.302 E217.973
G1 X99.387 Y115.668 E218.050
G1 X99.500 Y115.000 E218.123
G1 X99.444 Y114.332 E218.196
G1 X99.277 Y113.698 E218.266
G1 X99.009 Y113.130 E218.334
G1 X98.653 Y112.655 E218.398
G1 X98.226 Y112.297 E218.459
G1 X97.751 Y112.075 E218.515
G1 X97.250 Y112.000 E218.570
G1 X96.749 Y112.075 E218.625
G1 X96.274 Y112.297 E218.681
G1 X95.847 Y112.655 E218.741
G1 X95.491 Y113.130 E218.806
G1 X95.223 Y113.698 E218.873
G1 X95.056 Y114.332 E218.944
G1 X95.000 Y115.000 E219.017
G1 X95.113 Y115.668 E219.090
G1 X95.446 Y116.302 E219.167
G1 X95.982 Y116.870 E219.251
G1 X96.694 Y117.345 E219.344
G1 X97.548 Y117.703 E219.444
G1 X98.499 Y117.925 E219.549
G1 X99.500 Y118.000 E219.658
G1 X100.501 Y117.925 E219.766
G1 X101.452 Y117.703 E219.872
G1 X102.306 Y117.345 E219.972
G1 X103.018 Y116.870 E220.064
G1 X103.554 Y116.302 E220.148
G1 X103.887 Y115.668 E220.226
G1 X104.000 Y115.000 E220.299
G1 X103.944 Y114.332 E220.371
G1 X103.777 Y113.698 E220.442
G1 X103.509 Y113.130 E220.510
G1 X103.153 Y112.655 E220.574
G1 X102.726 Y112.297 E220.634
G1 X102.251 Y112.075 E220.691
G1 X101.750 Y112.000 E220.746
G1 X101.249 Y112.075 E220.800
G1 X100.774 Y112.297 E220.857
G1 X100.347 Y112.655 E220.917
G1 X99.991 Y113.130 E220.981
G1 X99.723 Y113.698 E221.049
G1 X99.556 Y114.332 E221.120
G1 X99.500 Y115.000 E221.192
G1 X99.613 Y115.668 E221.265
G1 X99.946 Y116.302 E221.343
G1 X100.482 Y116.870 E221.427
G1 X101.194 Y117.345 E221.520
G1 X102.048 Y117.703 E221.620
G1 X102.999 Y117.925 E221.725
G1 X104.000 Y118.000 E221.833
G1 X105.001 Y117.925 E221.942
G1 X105.952 Y117.703 E222.047
G1 X106.806 Y117.345 E222.147
G1 X107.518 Y116.870 E222.240
G1 X108.054 Y116.302 E222.324
G1 X108.387 Y115.668 E222.401
G1 X108.500 Y115.000 E222.475
G1 X108.444 Y114.332 E222.547
G1 X108.277 Y113.698 E222.618
G1 X108.009 Y113.130 E222.686
G1 X107.653 Y112.655 E222.750
G1 X107.226 Y112.297 E222.810
G1 X106.751 Y112.075 E222.867
G1 X106.250 Y112.000 E222.921
G1 X105.749 Y112.075 E222.976
G1 X105.274 Y112.297 E223.033
G1 X104.847 Y112.655 E223.093
G1 X104.491 Y113.130 E223.157
G1 X104.223 Y113.698 E223.225
G1 X104.056 Y114.332 E223.296
G1 X104.000 Y115.000 E223.368
G1 X104.113 Y115.668 E223.441
G1 X104.446 Y116.302 E223.518
G1 X104.982 Y116.870 E223.603
G1 X105.694 Y117.345 E223.695
G1 X106.548 Y117.703 E223.795
G1 X107.499 Y117.925 E223.901
G1 X108.500 Y118.000 E224.009
G1 X109.501 Y117.925 E224.118
G1 X110.452 Y117.703 E224.223
G1 X111.306 Y117.345 E224.323
G1 X112.018 Y116.870 E224.415
G1 X112.554 Y116.302 E224.500
G1 X112.887 Y115.668 E224.577
G1 X113.000 Y115.000 E224.650
G1 X112.944 Y114.332 E224.723
G1 X112.777 Y113.698 E224.793
G1 X112.509 Y113.130 E224.861
G1 X112.153 Y112.655 E224.925
G1 X111.726 Y112.297 E224.986
G1 X111.251 Y112.075 E225.042
G1 X110.750 Y112.000 E225.097
G1 X110.249 Y112.075 E225.152
G1 X109.774 Y112.297 E225.208
G1 X109.347 Y112.655 E225.268
G1 X108.991 Y113.130 E225.333
G1 X108.723 Y113.698 E225.400
G1 X108.556 Y114.332 E225.471
G1 X108.500 Y115.000 E225.544
G1 X108.613 Y115.668 E225.617
G1 X108.946 Y116.302 E225.694
G1 X109.482 Y116.870 E225.778
G1 X110.194 Y117.345 E225.871
G1 X111.048 Y117.703 E225.971
G1 X111.999 Y117.925 E226.076
G1 X113.000 Y118.000 E226.185
G1 X114.001 Y117.925 E226.293
G1 X114.952 Y117.703 E226.399
G1 X115.806 Y117.345 E226.499
G1 X116.518 Y116.870 E226.591
G1 X117.054 Y116.302 E226.675
G1 X117.387 Y115.668 E226.753
G1 X117.500 Y115.000 E226.826
G1 X117.444 Y114.332 E226.898
G1 X117.277 Y113.698 E226.969
G1 X117.009 Y113.130 E227.037
G1 X116.653 Y112.655 E227.101
G1 X116.226 Y112.297 E227.161
G1 X115.751 Y112.075 E227.218
G1 X115.250 Y112.000 E227.273
G1 X114.749 Y112.075 E227.327
G1 X114.274 Y112.297 E227.384
G1 X113.847 Y112.655 E227.444
G1 X113.491 Y113.130 E227.508
G1 X113.223 Y113.698 E227.576
G1 X113.056 Y114.332 E227.647
G1 X113.000 Y115.000 E227.719
G1 X113.113 Y115.668 E227.792
G1 X113.446 Y116.302 E227.870
G1 X113.982 Y116.870 E227.954
G1 X114.694 Y117.345 E228.047
G1 X115.548 Y117.703 E228.147
G1 X116.499 Y117.925 E228.252
G1 X117.500 Y118.000 E228.360
G1 X118.501 Y117.925 E228.469
G1 X119.452 Y117.703 E228.574
G1 X120.306 Y117.345 E228.674
G1 X121.018 Y116.870 E228.767
G1 X121.554 Y116.302 E228.851
G1 X121.887 Y115.668 E228.928
G1 X122.000 Y115.000 E229.002
G1 X121.944 Y114.332 E229.074
G1 X121.777 Y113.698 E229.145
G1 X121.509 Y113.130 E229.213
G1 X121.153 Y112.655 E229.277
G1 X120.726 Y112.297 E229.337
G1 X120.251 Y112.075 E229.394
G1 X119.750 Y112.000 E229.448
G1 X119.249 Y112.075 E229.503
G1 X118.774 Y112.297 E229.560
G1 X118.347 Y112.655 E229.620
G1 X117.991 Y113.130 E229.684
G1 X117.723 Y113.698 E229.752
G1 X117.556 Y114.332 E229.823
G1 X117.500 Y115.000 E229.895
G1 X117.613 Y115.668 E229.968
G1 X117.946 Y116.302 E230.045
G1 X118.482 Y116.870 E230.130
G1 X119.194 Y117.345 E230.222
G1 X120.048 Y117.703 E230.322
G1 X120.999 Y117.925 E230.428
G1 X122.000 Y118.000 E230.536
G1 X123.001 Y117.925 E230.645
G1 X123.952 Y117.703 E230.750
G1 X124.806 Y117.345 E230.850
G1 X125.518 Y116.870 E230.942
G1 X126.054 Y116.302 E231.027
G1 X126.387 Y115.668 E231.104
G1 X126.500 Y115.000 E231.177
G1 X126.444 Y114.332 E231.250
G1 X126.277 Y113.698 E231.321
G1 X126.009 Y113.130 E231.388
G1 X125.653 Y112.655 E231.452
G1 X125.226 Y112.297 E231.513
G1 X124.751 Y112.075 E231.569
G1 X124.250 Y112.000 E231.624
G1 X123.749 Y112.075 E231.679
G1 X123.274 Y112.297 E231.735
G1 X122.847 Y112.655 E231.796
G1 X122.491 Y113.130 E231.860
G1 X122.223 Y113.698 E231.927
G1 X122.056 Y114.332 E231.998
G1 X122.000 Y115.000 E232.071
G1 X122.113 Y115.668 E232.144
G1 X122.446 Y116.302 E232.221
G1 X122.982 Y116.870 E232.306
G1 X123.694 Y117.345 E232.398
G1 X124.548 Y117.703 E232.498
G1 X125.499 Y117.925 E232.603
G1 X126.500 Y118.000 E232.712
G1 X127.501 Y117.925 E232.820
G1 X128.452 Y117.703 E232.926
G1 X129.306 Y117.345 E233.026
G1 X130.018 Y116.870 E233.118
G1 X130.554 Y116.302 E233.203
G1 X130.887 Y115.668 E233.280
G1 X131.000 Y115.000 E233.353
G1 X130.944 Y114.332 E233.425
G1 X130.777 Y113.698 E233.496
G1 X130.509 Y113.130 E233.564
G1 X130.153 Y112.655 E233.628
G1 X129.726 Y112.297 E233.688
G1 X129.251 Y112.075 E233.745
G1 X128.750 Y112.000 E233.800
G1 X128.249 Y112.075 E233.854
G1 X127.774 Y112.297 E233.911
G1 X127.347 Y112.655 E233.971
G1 X126.991 Y113.130 E234.035
G1 X126.723 Y113.698 E234.103
G1 X126.556 Y114.332 E234.174
G1 X126.500 Y115.000 E234.246
G1 X126.613 Y115.668 E234.320
G1 X126.946 Y116.302 E234.397
G1 X127.482 Y116.870 E234.481
G1 X128.194 Y117.345 E234.574
G1 X129.048 Y117.703 E234.674
G1 X129.999 Y117.925 E234.779
G1 X131.000 Y118.000 E234.888
G1 X132.001 Y117.925 E234.996
G1 X132.952 Y117.703 E235.101
G1 X133.806 Y117.345 E235.201
G1 X134.518 Y116.870 E235.294
G1 X135.054 Y116.302 E235.378
G1 X135.387 Y115.668 E235.456
G1 X135.500 Y115.000 E235.529
G1 X135.444 Y114.332 E235.601
G1 X135.277 Y113.698 E235.672
G1 X135.009 Y113.130 E235.740
G1 X134.653 Y112.655 E235.804
G1 X134.226 Y112.297 E235.864
G1 X133.751 Y112.075 E235.921
G1 X133.250 Y112.000 E235.975
G1 X132.749 Y112.075 E236.030
G1 X132.274 Y112.297 E236.087
G1 X131.847 Y112.655 E236.147
G1 X131.491 Y113.130 E236.211
G1 X131.223 Y113.698 E236.279
G1 X131.056 Y114.332 E236.350
G1 X131.000 Y115.000 E236.422
G1 X131.113 Y115.668 E236.495
G1 X131.446 Y116.302 E236.573
G1 X131.982 Y116.870 E236.657
G1 X132.694 Y117.345 E236.749
G1 X133.548 Y117.703 E236.849
G1 X134.499 Y117.925 E236.955
G1 X135.500 Y118.000 E237.063
G1 X136.501 Y117.925 E237.172
G1 X137.452 Y117.703 E237.277
G1 X138.306 Y117.345 E237.377
G1 X139.018 Y116.870 E237.470
G1 X139.554 Y116.302 E237.554
G1 X139.887 Y115.668 E237.631
G1 X140.000 Y115.000 E237.704
G1 X139.944 Y114.332 E237.777
G1 X139.777 Y113.698 E237.848
G1 X139.509 Y113.130 E237.915
G1 X139.153 Y112.655 E237.980
G1 X138.726 Y112.297 E238.040
G1 X138.251 Y112.075 E238.096
G1 X137.750 Y112.000 E238.151
G1 X137.249 Y112.075 E238.206
G1 X136.774 Y112.297 E238.262
G1 X136.347 Y112.655 E238.323
G1 X135.991 Y113.130 E238.387
G1 X135.723 Y113.698 E238.455
G1 X135.556 Y114.332 E238.525
G1 X135.500 Y115.000 E238.598
G1 X135.613 Y115.668 E238.671
G1 X135.946 Y116.302 E238.748
G1 X136.482 Y116.870 E238.833
G1 X137.194 Y117.345 E238.925
G1 X138.048 Y117.703 E239.025
G1 X138.999 Y117.925 E239.130
G1 X140.000 Y118.000 E239.239
G1 X141.001 Y117.925 E239.347
G1 X141.952 Y117.703 E239.453
G1 X142.750 Y117.345 E239.547
G1 X142.750 Y116.870 E239.599
G1 X142.750 Y116.302 E239.660
G1 X142.750 Y115.668 E239.728
G1 X142.250 Y112.000 E240.128
G1 X141.749 Y112.075 E240.183
G1 X141.274 Y112.297 E240.239
G1 X140.847 Y112.655 E240.300
G1 X140.491 Y113.130 E240.364
G1 X140.223 Y113.698 E240.432
G1 X140.056 Y114.332 E240.502
G1 X140.000 Y115.000 E240.575
G1 X140.113 Y115.668 E240.648
G1 X140.446 Y116.302 E240.725
G1 X140.982 Y116.870 E240.810
G1 X141.694 Y117.345 E240.902
G1 X142.750 Y117.703 E241.023
;End create path
M107         ;turn off fan
M104 S0      ;turn off temperature
M140 S0      ;heated bed heater off
G91          ;relative positioning
G1 E-1 F300  ;retract the filament a bit before lifting the nozzle, to release some of the pressure 
G1 Z+0.5 E-5 X-20 Y-20 F9000 ;move Z up a bit and retract filament even more
G28 X0 Y0      ;home X axis 
G1 Y150 F5000  ;move completed part out
M84          ;disable motors
G90          ;absolute positioning
;End of gcode