;Generated GCode by Ria Stroes
;Project: Generated Knittings
;3D-printer: Ultimaker Original
;starting commands
G28          ;all axes to home position.
G1 Z15 F2000 ;move extruder 15mm up
G90          ;absolute position mode
M82          ;extruder in absolute mode
M190 S70     ;set bed temerature
M104 S210    ;set temperature extruder
G92 E0       ;reset Extruder position
M109 S210;wait for reach temperature
M140 S70     ;wait for reach bed temperature
;move to start positions
G1 Z0.4 F7800.000     ;move to Z position
G1 E-2.00000 F2400.000     ;move to Extruder position
G92 E0                     ;reset Extruder position
G1 X110.000 Y62.000 F7800.000     ;move to beginning of outline
G1 E2.00000 F2400.000     ;move to Extruder position
;create outline
G1 F2400
G1 X151.250 Y62.000 E6.600
G1 X151.250 Y62.000 E6.600
G1 X151.835 Y62.058 E6.694
G1 X152.398 Y62.228 E6.788
G1 X152.917 Y62.506 E6.882
G1 X153.371 Y62.879 E6.976
G1 X153.744 Y63.333 E7.070
G1 X154.022 Y63.852 E7.165
G1 X154.192 Y64.415 E7.259
G1 X154.250 Y90.000 E11.352
G1 X154.192 Y90.585 E11.446
G1 X154.022 Y91.148 E11.540
G1 X153.744 Y91.667 E11.635
G1 X153.371 Y92.121 E11.729
G1 X152.917 Y92.494 E11.823
G1 X152.398 Y92.772 E11.917
G1 X151.835 Y92.942 E12.011
G1 X110.000 Y93.000 E18.705
G1 X109.415 Y92.942 E18.799
G1 X108.852 Y92.772 E18.893
G1 X108.333 Y92.494 E18.987
G1 X107.879 Y92.121 E19.081
G1 X107.506 Y91.667 E19.175
G1 X107.228 Y91.148 E19.269
G1 X107.058 Y90.585 E19.363
G1 X107.000 Y65.000 E23.457
G1 X107.058 Y64.415 E23.551
G1 X107.228 Y63.852 E23.645
G1 X107.506 Y63.333 E23.739
G1 X107.879 Y62.879 E23.833
G1 X108.333 Y62.506 E23.927
G1 X108.852 Y62.228 E24.021
G1 X109.415 Y62.058 E24.116
G1 X110.000 Y62.000 E24.210
G1 X110.000 Y61.900 E24.226
G1 X151.250 Y61.900 E30.826
G1 X151.250 Y61.900 E30.826
G1 X151.855 Y61.960 E30.923
G1 X152.436 Y62.136 E31.020
G1 X152.972 Y62.422 E31.117
G1 X153.442 Y62.808 E31.215
G1 X153.828 Y63.278 E31.312
G1 X154.114 Y63.814 E31.409
G1 X154.290 Y64.395 E31.506
G1 X154.350 Y90.000 E35.603
G1 X154.290 Y90.605 E35.700
G1 X154.114 Y91.186 E35.797
G1 X153.828 Y91.722 E35.895
G1 X153.442 Y92.192 E35.992
G1 X152.972 Y92.578 E36.089
G1 X152.436 Y92.864 E36.186
G1 X151.855 Y93.040 E36.284
G1 X110.000 Y93.100 E42.980
G1 X109.395 Y93.040 E43.078
G1 X108.814 Y92.864 E43.175
G1 X108.278 Y92.578 E43.272
G1 X107.808 Y92.192 E43.369
G1 X107.422 Y91.722 E43.467
G1 X107.136 Y91.186 E43.564
G1 X106.960 Y90.605 E43.661
G1 X106.900 Y65.000 E47.758
G1 X106.960 Y64.395 E47.855
G1 X107.136 Y63.814 E47.952
G1 X107.422 Y63.278 E48.049
G1 X107.808 Y62.808 E48.147
G1 X108.278 Y62.422 E48.244
G1 X108.814 Y62.136 E48.341
G1 X109.395 Y61.960 E48.438
G1 X110.000 Y61.900 E48.536
G1 X110.000 Y61.800 E48.552
G1 X151.250 Y61.800 E55.152
G1 X151.250 Y61.800 E55.152
G1 X151.874 Y61.861 E55.252
G1 X152.475 Y62.044 E55.352
G1 X153.028 Y62.339 E55.453
G1 X153.513 Y62.737 E55.553
G1 X153.911 Y63.222 E55.653
G1 X154.206 Y63.775 E55.754
G1 X154.389 Y64.376 E55.854
G1 X154.450 Y90.000 E59.954
G1 X154.389 Y90.624 E60.054
G1 X154.206 Y91.225 E60.155
G1 X153.911 Y91.778 E60.255
G1 X153.513 Y92.263 E60.356
G1 X153.028 Y92.661 E60.456
G1 X152.475 Y92.956 E60.556
G1 X151.874 Y93.139 E60.657
G1 X110.000 Y93.200 E67.357
G1 X109.376 Y93.139 E67.457
G1 X108.775 Y92.956 E67.557
G1 X108.222 Y92.661 E67.658
G1 X107.737 Y92.263 E67.758
G1 X107.339 Y91.778 E67.859
G1 X107.044 Y91.225 E67.959
G1 X106.861 Y90.624 E68.059
G1 X106.800 Y65.000 E72.159
G1 X106.861 Y64.376 E72.260
G1 X107.044 Y63.775 E72.360
G1 X107.339 Y63.222 E72.460
G1 X107.737 Y62.737 E72.561
G1 X108.222 Y62.339 E72.661
G1 X108.775 Y62.044 E72.761
G1 X109.376 Y61.861 E72.862
G1 X110.000 Y61.800 E72.962
G1 X110.000 Y61.700 E72.978
G1 X151.250 Y61.700 E79.578
G1 X151.250 Y61.700 E79.578
G1 X151.894 Y61.763 E79.682
G1 X152.513 Y61.951 E79.785
G1 X153.083 Y62.256 E79.889
G1 X153.583 Y62.667 E79.992
G1 X153.994 Y63.167 E80.096
G1 X154.299 Y63.737 E80.199
G1 X154.487 Y64.356 E80.303
G1 X154.550 Y90.000 E84.406
G1 X154.487 Y90.644 E84.509
G1 X154.299 Y91.263 E84.613
G1 X153.994 Y91.833 E84.716
G1 X153.583 Y92.333 E84.820
G1 X153.083 Y92.744 E84.923
G1 X152.513 Y93.049 E85.027
G1 X151.894 Y93.237 E85.130
G1 X110.000 Y93.300 E91.833
G1 X109.356 Y93.237 E91.937
G1 X108.737 Y93.049 E92.040
G1 X108.167 Y92.744 E92.144
G1 X107.667 Y92.333 E92.247
G1 X107.256 Y91.833 E92.351
G1 X106.951 Y91.263 E92.454
G1 X106.763 Y90.644 E92.558
G1 X106.700 Y65.000 E96.661
G1 X106.763 Y64.356 E96.764
G1 X106.951 Y63.737 E96.868
G1 X107.256 Y63.167 E96.971
G1 X107.667 Y62.667 E97.075
G1 X108.167 Y62.256 E97.179
G1 X108.737 Y61.951 E97.282
G1 X109.356 Y61.763 E97.385
G1 X110.000 Y61.700 E97.489
G1 X110.000 Y61.600 E97.505
G1 X151.250 Y61.600 E104.105
G1 X151.250 Y61.600 E104.105
G1 X151.913 Y61.665 E104.212
G1 X152.551 Y61.859 E104.318
G1 X153.139 Y62.173 E104.425
G1 X153.654 Y62.596 E104.532
G1 X154.077 Y63.111 E104.638
G1 X154.391 Y63.699 E104.745
G1 X154.585 Y64.337 E104.852
G1 X154.650 Y90.000 E108.958
G1 X154.585 Y90.663 E109.064
G1 X154.391 Y91.301 E109.171
G1 X154.077 Y91.889 E109.278
G1 X153.654 Y92.404 E109.384
G1 X153.139 Y92.827 E109.491
G1 X152.551 Y93.141 E109.598
G1 X151.913 Y93.335 E109.704
G1 X110.000 Y93.400 E116.410
G1 X109.337 Y93.335 E116.517
G1 X108.699 Y93.141 E116.624
G1 X108.111 Y92.827 E116.730
G1 X107.596 Y92.404 E116.837
G1 X107.173 Y91.889 E116.944
G1 X106.859 Y91.301 E117.050
G1 X106.665 Y90.663 E117.157
G1 X106.600 Y65.000 E121.263
G1 X106.665 Y64.337 E121.370
G1 X106.859 Y63.699 E121.476
G1 X107.173 Y63.111 E121.583
G1 X107.596 Y62.596 E121.690
G1 X108.111 Y62.173 E121.796
G1 X108.699 Y61.859 E121.903
G1 X109.337 Y61.665 E122.010
G1 X110.000 Y61.600 E122.116
G1 X110.000 Y62.000 E122.180
;END create outline
;move to
G1 Z0 F7800.000        ;move to Z position
G92 E0                     ;reset Extruder position
G1 X110.000 Y65.000 F7800.000     ;move to beginning of knitting
;create path
G1 F2400
G1 X113.750 Y70.000 E1.000
G1 X113.750 Y75.000 E1.800
G1 X110.000 Y80.000 E2.800
G1 X110.000 Y85.000 E3.600
G1 X113.750 Y90.000 E4.600
G1 X117.500 Y90.000 E5.200
G1 X121.250 Y85.000 E6.200
G1 X121.250 Y80.000 E7.000
G1 X117.500 Y75.000 E8.000
G1 X117.500 Y70.000 E8.800
G1 X121.250 Y65.000 E9.800
G1 X125.000 Y65.000 E10.400
G1 X128.750 Y70.000 E11.400
G1 X128.750 Y75.000 E12.200
G1 X125.000 Y80.000 E13.200
G1 X125.000 Y85.000 E14.000
G1 X128.750 Y90.000 E15.000
G1 X132.500 Y90.000 E15.600
G1 X136.250 Y85.000 E16.600
G1 X136.250 Y80.000 E17.400
G1 X132.500 Y75.000 E18.400
G1 X132.500 Y70.000 E19.200
G1 X136.250 Y65.000 E20.200
G1 X140.000 Y65.000 E20.800
G1 X143.750 Y70.000 E21.800
G1 X143.750 Y75.000 E22.600
G1 X140.000 Y80.000 E23.600
G1 X140.000 Y85.000 E24.400
G1 X143.750 Y90.000 E25.400
G1 X147.500 Y90.000 E26.000
G1 X151.250 Y85.000 E27.000
G1 X151.250 Y80.000 E27.800
G1 X147.500 Y75.000 E28.800
G1 X147.500 Y70.000 E29.600
G1 X151.250 Y65.000 E30.600
;End create path
M107         ;turn off fan
M104 S0      ;turn off temperature
G28 X0       ;home X axis 
M84          ;disable motors
;End of gcode