;FLAVOR:UltiGCode
;TIME:25
;MATERIAL:60
;MATERIAL2:0
;NOZZLE_DIAMETER:0.4

;Generated with Cura_SteamEngine 2.1.2
;LAYER_COUNT:1
;LAYER:0
M107
G10
G0 F9000.000000 X108.108 Y60.037 Z0.270
G0 X107.929 Y60.515
;TYPE:SKIRT
G11
G1 F1800.000 X108.108 Y60.037 E0.04823
G1 X108.375 Y59.557 E0.10014
G1 X108.688 Y59.153 E0.14844
G1 X108.690 Y59.151 E0.14870
G1 X109.080 Y58.779 E0.19963
G1 X109.506 Y58.482 E0.24871
G1 X109.994 Y58.241 E0.30014
G1 X110.462 Y58.091 E0.34658
G1 X110.475 Y58.088 E0.34785
G1 X111.197 Y57.994 E0.41665
G1 X111.289 Y57.986 E0.42538
G1 X111.420 Y57.981 E0.43777
G1 X111.699 Y57.985 E0.46413
G1 X111.856 Y57.992 E0.47899
G1 X112.164 Y58.019 E0.50820
G1 X112.682 Y58.128 E0.55823
G1 X112.685 Y58.129 E0.55852
G1 X113.163 Y58.308 E0.60676
G1 X113.643 Y58.575 E0.65866
G1 X114.043 Y58.885 E0.70649
G1 X114.049 Y58.890 E0.70723
G1 X114.421 Y59.280 E0.75816
G1 X114.718 Y59.706 E0.80723
G1 X114.953 Y60.180 E0.85723
G1 X114.958 Y60.191 E0.85837
G1 X115.105 Y60.649 E0.90383
G1 X115.112 Y60.675 E0.90637
G1 X115.206 Y61.397 E0.97518
G1 X115.214 Y61.489 E0.98390
G1 X115.221 Y61.667 E1.00074
G1 X115.225 Y62.043 E1.03627
G1 X115.225 Y160.793 E10.36815
G1 X115.215 Y161.499 E10.43487
G1 X115.208 Y161.656 E10.44972
G1 X115.181 Y161.964 E10.47894
G1 X115.072 Y162.482 E10.52896
G1 X115.071 Y162.485 E10.52926
G1 X114.892 Y162.963 E10.57749
G1 X114.625 Y163.443 E10.62940
G1 X114.315 Y163.843 E10.67722
G1 X114.312 Y163.847 E10.67769
G1 X113.920 Y164.221 E10.72889
G1 X113.494 Y164.518 E10.77797
G1 X113.006 Y164.759 E10.82940
G1 X112.538 Y164.909 E10.87584
G1 X112.525 Y164.912 E10.87711
G1 X111.803 Y165.006 E10.94591
G1 X111.711 Y165.014 E10.95464
G1 X111.580 Y165.019 E10.96703
G1 X111.301 Y165.015 E10.99339
G1 X111.144 Y165.008 E11.00824
G1 X110.836 Y164.981 E11.03746
G1 X110.318 Y164.872 E11.08749
G1 X110.315 Y164.871 E11.08778
G1 X109.837 Y164.692 E11.13602
G1 X109.357 Y164.425 E11.18792
G1 X108.957 Y164.115 E11.23575
G1 X108.951 Y164.110 E11.23648
G1 X108.579 Y163.720 E11.28742
G1 X108.282 Y163.294 E11.33649
G1 X108.041 Y162.806 E11.38793
G1 X107.891 Y162.338 E11.43437
G1 X107.888 Y162.325 E11.43563
G1 X107.794 Y161.603 E11.50443
G1 X107.785 Y161.500 E11.51420
G1 X107.779 Y161.333 E11.53000
G1 X107.775 Y160.957 E11.56553
G1 X107.775 Y62.207 E20.89740
G1 X107.785 Y61.500 E20.96422
G1 X107.792 Y61.344 E20.97898
G1 X107.819 Y61.036 E21.00820
G1 X107.928 Y60.518 E21.05822
G1 X107.929 Y60.515 E21.05852
G0 F9000.00000 X108.288 Y60.533
G1 F1800.000 X108.295 Y60.506 E21.06115
G1 X108.347 Y60.372 E21.07474
G1 X108.487 Y60.049 E21.10800
G1 X108.491 Y60.041 E21.10885
G1 X108.563 Y59.916 E21.12248
G1 X108.751 Y59.623 E21.15538
G1 X108.845 Y59.508 E21.16942
G1 X109.081 Y59.244 E21.20288
G1 X109.206 Y59.132 E21.21874
G1 X109.460 Y58.926 E21.24964
G1 X109.461 Y58.925 E21.24978
G1 X109.479 Y58.913 E21.25182
G1 X109.599 Y58.836 E21.26530
G1 X109.897 Y58.663 E21.29786
G1 X109.908 Y58.658 E21.29900
G1 X110.039 Y58.600 E21.31254
G1 X110.357 Y58.478 E21.34473
G1 X110.384 Y58.471 E21.34736
G1 X110.490 Y58.443 E21.35772
G1 X110.808 Y58.377 E21.38841
G1 X111.228 Y58.339 E21.42827
G1 X111.298 Y58.335 E21.43489
G1 X111.439 Y58.331 E21.44822
G1 X111.699 Y58.335 E21.47279
G1 X111.817 Y58.340 E21.48396
G1 X111.883 Y58.345 E21.49021
G1 X112.189 Y58.373 E21.51925
G1 X112.220 Y58.379 E21.52223
G1 X112.353 Y58.407 E21.53508
G1 X112.667 Y58.488 E21.56572
G1 X112.694 Y58.495 E21.56836
G1 X112.828 Y58.547 E21.58194
G1 X113.151 Y58.687 E21.61521
G1 X113.159 Y58.691 E21.61605
G1 X113.282 Y58.762 E21.62947
G1 X113.571 Y58.947 E21.66190
G1 X113.578 Y58.952 E21.66271
G1 X113.692 Y59.045 E21.67662
G1 X113.956 Y59.281 E21.71008
G1 X114.068 Y59.406 E21.72594
G1 X114.274 Y59.660 E21.75684
G1 X114.281 Y59.669 E21.75792
G1 X114.359 Y59.791 E21.77161
G1 X114.531 Y60.086 E21.80388
G1 X114.540 Y60.103 E21.80569
G1 X114.600 Y60.239 E21.81974
G1 X114.722 Y60.557 E21.85193
G1 X114.729 Y60.584 E21.85456
G1 X114.757 Y60.690 E21.86492
G1 X114.823 Y61.008 E21.89561
G1 X114.861 Y61.428 E21.93547
G1 X114.865 Y61.498 E21.94209
G1 X114.875 Y61.851 E21.97546
G1 X114.875 Y160.793 E31.32548
G1 X114.865 Y161.499 E31.39221
G1 X114.861 Y161.601 E31.40185
G1 X114.857 Y161.667 E31.40810
G1 X114.827 Y161.989 E31.43866
G1 X114.821 Y162.020 E31.44165
G1 X114.793 Y162.153 E31.45449
G1 X114.712 Y162.467 E31.48514
G1 X114.705 Y162.494 E31.48777
G1 X114.653 Y162.628 E31.50135
G1 X114.513 Y162.951 E31.53462
G1 X114.437 Y163.084 E31.54910
G1 X114.252 Y163.372 E31.58144
G1 X114.253 Y163.372 E31.58154
G1 X114.251 Y163.374 E31.58181
G1 X114.155 Y163.492 E31.59618
G1 X113.919 Y163.756 E31.62964
G1 X113.794 Y163.868 E31.64551
G1 X113.540 Y164.074 E31.67641
G1 X113.539 Y164.075 E31.67654
G1 X113.523 Y164.086 E31.67838
G1 X113.401 Y164.164 E31.69206
G1 X113.106 Y164.335 E31.72428
G1 X113.092 Y164.342 E31.72576
G1 X112.961 Y164.400 E31.73930
G1 X112.643 Y164.522 E31.77149
G1 X112.616 Y164.529 E31.77413
G1 X112.510 Y164.557 E31.78449
G1 X112.192 Y164.623 E31.81518
G1 X111.772 Y164.661 E31.85503
G1 X111.702 Y164.665 E31.86166
G1 X111.561 Y164.669 E31.87498
G1 X111.301 Y164.665 E31.89956
G1 X111.183 Y164.660 E31.91072
G1 X111.117 Y164.655 E31.91697
G1 X110.811 Y164.627 E31.94601
G1 X110.780 Y164.621 E31.94900
G1 X110.647 Y164.593 E31.96184
G1 X110.333 Y164.512 E31.99248
G1 X110.306 Y164.505 E31.99512
G1 X110.172 Y164.453 E32.00870
G1 X109.849 Y164.313 E32.04197
G1 X109.841 Y164.309 E32.04282
G1 X109.715 Y164.236 E32.05658
G1 X109.427 Y164.051 E32.08892
G1 X109.422 Y164.048 E32.08947
G1 X109.308 Y163.955 E32.10338
G1 X109.044 Y163.719 E32.13684
G1 X108.932 Y163.594 E32.15270
G1 X108.726 Y163.340 E32.18361
G1 X108.723 Y163.336 E32.18408
G1 X108.714 Y163.323 E32.18557
G1 X108.636 Y163.201 E32.19926
G1 X108.465 Y162.906 E32.23148
G1 X108.458 Y162.892 E32.23296
G1 X108.400 Y162.761 E32.24650
G1 X108.278 Y162.443 E32.27868
G1 X108.271 Y162.416 E32.28132
G1 X108.243 Y162.310 E32.29168
G1 X108.177 Y161.992 E32.32237
G1 X108.139 Y161.572 E32.36222
G1 X108.135 Y161.500 E32.36904
G1 X108.125 Y161.134 E32.40364
G1 X108.125 Y62.207 E41.75224
G1 X108.135 Y61.500 E41.81906
G1 X108.141 Y61.369 E41.83145
G1 X108.146 Y61.301 E41.83789
G1 X108.173 Y61.011 E41.86542
G1 X108.184 Y60.953 E41.87100
G1 X108.207 Y60.847 E41.88125
G1 X108.288 Y60.533 E41.91189
G10
G0 F9000.00000 X109.761 Y61.060
G0 X111.475 Y61.675
G0 X111.503 Y61.703
G0 X111.425 Y61.745
G0 X111.475 Y61.675
;TYPE:WALL-OUTER
G11
G1 F1800.000 X111.525 Y61.675 E41.91662
G1 X111.525 Y161.325 E51.33354
G1 X111.475 Y161.325 E51.33827
G1 X111.475 Y61.675 E60.75519

;End of Gcode
;SETTING_1 [general]\nversion = 1\nname = Current settings\nweight = 0\n\n[setti
;SETTING_1 ngs]\ntop_bottom_thickness = 0.75\nspeed_layer_0 = 30\nspeed_wall = 5
;SETTING_1 0\nspeed_travel = 150\nwall_thickness = 0.7\nspeed_topbottom = 30\nsu
;SETTING_1 pport_type = buildplate\nadhesion_type = skirt\nsupport_enable = Fals
;SETTING_1 e\ninfill_sparse_density = 100.0\nlayer_height = 0.3\n\n
